P3
188 178
255
2 63 92 2 63 92 3 64 93 3 64 93 3 64 93 3 64 93 4 65 94 4 65 94 2 63 92 2 63 92 3 64 93 3 64 93 3 64 93 3 64 93 4 65 94 4 66 91 1 65 90 1 65 90 1 65 90 1 65 90 1 65 90 1 65 90 1 65 90 1 65 90 1 65 92 1 65 92 1 65 92 1 65 92 1 65 92 1 65 92 1 65 92 1 65 92 3 64 92 3 64 92 3 64 92 3 64 92 3 64 92 3 64 92 3 64 92 3 64 92 3 64 92 3 64 92 3 64 92 3 64 92 3 64 92 3 64 92 3 64 92 3 64 92 1 65 92 1 65 92 1 65 92 1 65 92 1 65 92 1 65 92 1 65 92 1 65 92 1 65 92 1 65 92 1 65 92 1 65 92 1 65 92 1 65 92 1 65 92 1 65 92 3 64 92 3 64 92 3 64 92 3 64 92 3 64 92 3 64 92 3 64 92 3 64 92 3 64 92 3 64 92 3 64 92 3 64 92 3 64 92 3 64 92 3 64 92 3 64 92 1 65 92 1 65 92 1 65 92 1 65 92 1 65 92 1 65 92 1 65 92 1 65 92 1 65 92 1 65 92 1 65 92 1 65 92 1 65 92 1 65 92 1 65 92 1 65 92 3 64 92 3 64 92 3 64 92 3 64 92 3 64 92 3 64 92 3 64 92 3 64 92 3 64 92 3 64 92 3 64 92 3 64 92 3 64 92 3 64 92 3 64 92 3 64 92 1 65 92 1 65 92 1 65 92 1 65 92 1 65 92 1 65 92 1 65 92 1 65 92 1 65 92 1 65 92 1 65 92 1 65 92 1 65 92 1 65 92 1 65 92 1 65 92 3 64 92 3 64 92 3 64 92 3 64 92 3 64 92 3 64 92 3 64 92 3 64 92 3 64 92 3 64 92 3 64 92 3 64 92 3 64 92 3 64 92 3 64 92 3 64 92 1 65 92 1 65 92 1 65 92 1 65 92 1 65 92 1 65 92 1 65 92 1 65 92 1 65 92 1 65 92 1 65 92 1 65 92 1 65 92 1 65 92 1 65 92 1 65 92 3 64 92 3 64 92 3 64 92 3 64 92 3 64 92 3 64 92 3 64 92 3 64 92 3 64 92 3 64 92 3 64 92 3 64 92 3 64 92 3 64 92 3 64 92 3 64 92 1 65 92 1 65 92 1 65 92 1 65 92 1 65 92 1 65 92 1 65 92 1 65 92 1 65 92 1 65 92 1 65 92 1 65 92 
2 65 98 2 65 98 2 65 98 1 64 97 1 64 97 1 64 97 1 64 97 0 63 96 2 65 98 1 64 97 1 64 97 1 64 97 1 64 97 0 63 96 0 63 96 0 64 92 0 65 93 0 65 93 0 65 93 0 65 93 0 65 93 0 65 93 0 65 93 0 65 93 0 65 95 0 65 95 0 65 95 0 65 95 0 65 95 0 65 95 0 65 95 0 65 95 1 64 95 1 64 95 1 64 95 1 64 95 1 64 95 1 64 95 1 64 95 1 64 95 1 64 95 1 64 95 1 64 95 1 64 95 1 64 95 1 64 95 1 64 95 1 64 95 0 65 95 0 65 95 0 65 95 0 65 95 0 65 95 0 65 95 0 65 95 0 65 95 0 65 95 0 65 95 0 65 95 0 65 95 0 65 95 0 65 95 0 65 95 0 65 95 1 64 95 1 64 95 1 64 95 1 64 95 1 64 95 1 64 95 1 64 95 1 64 95 1 64 95 1 64 95 1 64 95 1 64 95 1 64 95 1 64 95 1 64 95 1 64 95 0 65 95 0 65 95 0 65 95 0 65 95 0 65 95 0 65 95 0 65 95 0 65 95 0 65 95 0 65 95 0 65 95 0 65 95 0 65 95 0 65 95 0 65 95 0 65 95 1 64 95 1 64 95 1 64 95 1 64 95 1 64 95 1 64 95 1 64 95 1 64 95 1 64 95 1 64 95 1 64 95 1 64 95 1 64 95 1 64 95 1 64 95 1 64 95 0 65 95 0 65 95 0 65 95 0 65 95 0 65 95 0 65 95 0 65 95 0 65 95 0 65 95 0 65 95 0 65 95 0 65 95 0 65 95 0 65 95 0 65 95 0 65 95 1 64 95 1 64 95 1 64 95 1 64 95 1 64 95 1 64 95 1 64 95 1 64 95 1 64 95 1 64 95 1 64 95 1 64 95 1 64 95 1 64 95 1 64 95 1 64 95 0 65 95 0 65 95 0 65 95 0 65 95 0 65 95 0 65 95 0 65 95 0 65 95 0 65 95 0 65 95 0 65 95 0 65 95 0 65 95 0 65 95 0 65 95 0 65 95 1 64 95 1 64 95 1 64 95 1 64 95 1 64 95 1 64 95 1 64 95 1 64 95 1 64 95 1 64 95 1 64 95 1 64 95 1 64 95 1 64 95 1 64 95 1 64 95 0 65 95 0 65 95 0 65 95 0 65 95 0 65 95 0 65 95 0 65 95 0 65 95 0 65 95 0 65 95 0 65 95 0 65 95 
0 64 99 0 64 99 0 64 99 0 64 99 0 64 99 0 64 99 0 64 99 0 64 99 0 64 99 0 64 99 0 64 99 0 64 99 0 64 99 0 64 99 0 64 99 0 65 97 1 64 95 1 64 95 1 64 95 1 64 95 1 64 95 1 64 95 1 64 95 1 64 95 1 64 97 1 64 97 1 64 97 1 64 97 1 64 97 1 64 97 1 64 97 1 64 97 0 65 97 0 65 97 0 65 97 0 65 97 0 65 97 0 65 97 0 65 97 0 65 97 0 65 97 0 65 97 0 65 97 0 65 97 0 65 97 0 65 97 0 65 97 0 65 97 1 64 97 1 64 97 1 64 97 1 64 97 1 64 97 1 64 97 1 64 97 1 64 97 1 64 97 1 64 97 1 64 97 1 64 97 1 64 97 1 64 97 1 64 97 1 64 97 0 65 97 0 65 97 0 65 97 0 65 97 0 65 97 0 65 97 0 65 97 0 65 97 0 65 97 0 65 97 0 65 97 0 65 97 0 65 97 0 65 97 0 65 97 0 65 97 1 64 97 1 64 97 1 64 97 1 64 97 1 64 97 1 64 97 1 64 97 1 64 97 1 64 97 1 64 97 1 64 97 1 64 97 1 64 97 1 64 97 1 64 97 1 64 97 0 65 97 0 65 97 0 65 97 0 65 97 0 65 97 0 65 97 0 65 97 0 65 97 0 65 97 0 65 97 0 65 97 0 65 97 0 65 97 0 65 97 0 65 97 0 65 97 1 64 97 1 64 97 1 64 97 1 64 97 1 64 97 1 64 97 1 64 97 1 64 97 1 64 97 1 64 97 1 64 97 1 64 97 1 64 97 1 64 97 1 64 97 1 64 97 0 65 97 0 65 97 0 65 97 0 65 97 0 65 97 0 65 97 0 65 97 0 65 97 0 65 97 0 65 97 0 65 97 0 65 97 0 65 97 0 65 97 0 65 97 0 65 97 1 64 97 1 64 97 1 64 97 1 64 97 1 64 97 1 64 97 1 64 97 1 64 97 1 64 97 1 64 97 1 64 97 1 64 97 1 64 97 1 64 97 1 64 97 1 64 97 0 65 97 0 65 97 0 65 97 0 65 97 0 65 97 0 65 97 0 65 97 0 65 97 0 65 97 0 65 97 0 65 97 0 65 97 0 65 97 0 65 97 0 65 97 0 65 97 1 64 97 1 64 97 1 64 97 1 64 97 1 64 97 1 64 97 1 64 97 1 64 97 1 64 97 1 64 97 1 64 97 1 64 97 
0 64 99 0 64 99 0 64 99 0 64 99 0 64 99 0 64 99 0 64 99 0 64 99 0 64 99 0 64 99 0 64 99 0 64 99 0 64 99 0 64 99 0 64 99 0 65 97 1 64 95 1 64 95 1 64 95 1 64 95 1 64 95 1 64 95 1 64 95 1 64 95 1 64 97 1 64 97 1 64 97 1 64 97 1 64 97 1 64 97 1 64 97 1 64 97 0 65 97 0 65 97 0 65 97 0 65 97 0 65 97 0 65 97 0 65 97 0 65 97 0 65 97 0 65 97 0 65 97 0 65 97 0 65 97 0 65 97 0 65 97 0 65 97 1 64 97 1 64 97 1 64 97 1 64 97 1 64 97 1 64 97 1 64 97 1 64 97 1 64 97 1 64 97 1 64 97 1 64 97 1 64 97 1 64 97 1 64 97 1 64 97 0 65 97 0 65 97 0 65 97 0 65 97 0 65 97 0 65 97 0 65 97 0 65 97 0 65 97 0 65 97 0 65 97 0 65 97 0 65 97 0 65 97 0 65 97 0 65 97 1 64 97 1 64 97 1 64 97 1 64 97 1 64 97 1 64 97 1 64 97 1 64 97 1 64 97 1 64 97 1 64 97 1 64 97 1 64 97 1 64 97 1 64 97 1 64 97 0 65 97 0 65 97 0 65 97 0 65 97 0 65 97 0 65 97 0 65 97 0 65 97 0 65 97 0 65 97 0 65 97 0 65 97 0 65 97 0 65 97 0 65 97 0 65 97 1 64 97 1 64 97 1 64 97 1 64 97 1 64 97 1 64 97 1 64 97 1 64 97 1 64 97 1 64 97 1 64 97 1 64 97 1 64 97 1 64 97 1 64 97 1 64 97 0 65 97 0 65 97 0 65 97 0 65 97 0 65 97 0 65 97 0 65 97 0 65 97 0 65 97 0 65 97 0 65 97 0 65 97 0 65 97 0 65 97 0 65 97 0 65 97 1 64 97 1 64 97 1 64 97 1 64 97 1 64 97 1 64 97 1 64 97 1 64 97 1 64 97 1 64 97 1 64 97 1 64 97 1 64 97 1 64 97 1 64 97 1 64 97 0 65 97 0 65 97 0 65 97 0 65 97 0 65 97 0 65 97 0 65 97 0 65 97 0 65 97 0 65 97 0 65 97 0 65 97 0 65 97 0 65 97 0 65 97 0 65 97 1 64 97 1 64 97 1 64 97 1 64 97 1 64 97 1 64 97 1 64 97 1 64 97 1 64 97 1 64 97 1 64 97 1 64 97 
1 64 97 1 64 97 1 64 97 1 64 97 1 64 97 1 64 97 1 64 97 1 64 97 1 64 97 1 64 97 1 64 97 1 64 97 1 64 97 1 64 97 1 64 97 1 64 95 0 65 95 0 65 95 0 65 95 0 65 95 0 65 95 0 65 95 0 65 95 0 65 95 0 65 97 0 65 97 0 65 97 0 65 97 0 65 97 0 65 97 0 65 97 0 65 97 1 64 97 1 64 97 1 64 97 1 64 97 1 64 97 1 64 97 1 64 97 1 64 97 1 64 97 1 64 97 1 64 97 1 64 97 1 64 97 1 64 97 1 64 97 1 64 97 0 65 97 0 65 97 0 65 97 0 65 97 0 65 97 0 65 97 0 65 97 0 65 97 0 65 97 0 65 97 0 65 97 0 65 97 0 65 97 0 65 97 0 65 97 0 65 97 1 64 97 1 64 97 1 64 97 1 64 97 1 64 97 1 64 97 1 64 97 1 64 97 1 64 97 1 64 97 1 64 97 1 64 97 1 64 97 1 64 97 1 64 97 1 64 97 0 65 97 0 65 97 0 65 97 0 65 97 0 65 97 0 65 97 0 65 97 0 65 97 0 65 97 0 65 97 0 65 97 0 65 97 0 65 97 0 65 97 0 65 97 0 65 97 1 64 97 1 64 97 1 64 97 1 64 97 1 64 97 1 64 97 1 64 97 1 64 97 1 64 97 1 64 97 1 64 97 1 64 97 1 64 97 1 64 97 1 64 97 1 64 97 0 65 97 0 65 97 0 65 97 0 65 97 0 65 97 0 65 97 0 65 97 0 65 97 0 65 97 0 65 97 0 65 97 0 65 97 0 65 97 0 65 97 0 65 97 0 65 97 1 64 97 1 64 97 1 64 97 1 64 97 1 64 97 1 64 97 1 64 97 1 64 97 1 64 97 1 64 97 1 64 97 1 64 97 1 64 97 1 64 97 1 64 97 1 64 97 0 65 97 0 65 97 0 65 97 0 65 97 0 65 97 0 65 97 0 65 97 0 65 97 0 65 97 0 65 97 0 65 97 0 65 97 0 65 97 0 65 97 0 65 97 0 65 97 1 64 97 1 64 97 1 64 97 1 64 97 1 64 97 1 64 97 1 64 97 1 64 97 1 64 97 1 64 97 1 64 97 1 64 97 1 64 97 1 64 97 1 64 97 1 64 97 0 65 97 0 65 97 0 65 97 0 65 97 0 65 97 0 65 97 0 65 97 0 65 97 0 65 97 0 65 97 0 65 97 0 65 97 
1 64 95 1 64 95 1 64 95 1 64 95 1 64 95 1 64 95 1 64 95 1 64 95 1 64 95 1 64 95 1 64 95 1 64 95 1 64 95 1 64 95 1 64 95 1 64 95 0 65 95 0 65 95 0 65 95 0 65 95 0 65 95 0 65 95 0 65 95 0 65 95 0 65 97 0 65 97 0 65 97 0 65 97 0 65 97 0 65 97 0 65 97 0 65 97 1 64 97 1 64 97 1 64 97 1 64 97 1 64 97 1 64 97 1 64 97 1 64 97 1 64 97 1 64 97 1 64 97 1 64 97 1 64 97 1 64 97 1 64 97 1 64 97 0 65 97 0 65 97 0 65 97 0 65 97 0 65 97 0 65 97 0 65 97 0 65 97 0 65 97 0 65 97 0 65 97 0 65 97 0 65 97 0 65 97 0 65 97 0 65 97 1 64 97 1 64 97 1 64 97 1 64 97 1 64 97 1 64 97 1 64 97 1 64 97 1 64 97 1 64 97 1 64 97 1 64 97 1 64 97 1 64 97 1 64 97 1 64 97 0 65 97 0 65 97 0 65 97 0 65 97 0 65 97 0 65 97 0 65 97 0 65 97 0 65 97 0 65 97 0 65 97 0 65 97 0 65 97 0 65 97 0 65 97 0 65 97 1 64 97 1 64 97 1 64 97 1 64 97 1 64 97 1 64 97 1 64 97 1 64 97 1 64 97 1 64 97 1 64 97 1 64 97 1 64 97 1 64 97 1 64 97 1 64 97 0 65 97 0 65 97 0 65 97 0 65 97 0 65 97 0 65 97 0 65 97 0 65 97 0 65 97 0 65 97 0 65 97 0 65 97 0 65 97 0 65 97 0 65 97 0 65 97 1 64 97 1 64 97 1 64 97 1 64 97 1 64 97 1 64 97 1 64 97 1 64 97 1 64 97 1 64 97 1 64 97 1 64 97 1 64 97 1 64 97 1 64 97 1 64 97 0 65 97 0 65 97 0 65 97 0 65 97 0 65 97 0 65 97 0 65 97 0 65 97 0 65 97 0 65 97 0 65 97 0 65 97 0 65 97 0 65 97 0 65 97 0 65 97 1 64 97 1 64 97 1 64 97 1 64 97 1 64 97 1 64 97 1 64 97 1 64 97 1 64 97 1 64 97 1 64 97 1 64 97 1 64 97 1 64 97 1 64 97 1 64 97 0 65 97 0 65 97 0 65 97 0 65 97 0 65 97 0 65 97 0 65 97 0 65 97 0 65 97 0 65 97 0 65 97 0 65 97 
0 65 95 0 65 95 0 65 95 0 65 95 0 65 95 0 65 95 0 65 95 0 65 95 0 65 95 0 65 95 0 65 95 0 65 95 0 65 95 0 65 95 0 65 95 0 65 95 0 65 95 0 65 95 0 65 95 0 65 95 0 65 95 0 65 95 0 65 95 0 65 95 0 65 95 0 65 95 0 65 95 0 65 95 0 65 95 0 65 95 0 65 95 0 65 95 0 65 95 0 65 95 0 65 95 0 65 95 0 65 95 0 65 95 0 65 95 0 65 95 0 65 95 0 65 95 0 65 95 0 65 95 0 65 95 0 65 95 0 65 95 0 65 95 0 65 95 0 65 95 0 65 95 0 65 95 0 65 95 0 65 95 0 65 95 0 65 95 0 65 95 0 65 95 0 65 95 0 65 95 0 65 95 0 65 95 0 65 95 0 65 95 0 65 95 0 65 95 0 65 95 0 65 95 0 65 95 0 65 95 0 65 95 0 65 95 0 65 95 0 65 95 0 65 95 0 65 95 0 65 95 0 65 95 0 65 95 0 65 95 0 65 95 0 65 95 0 65 95 0 65 95 0 65 95 0 65 95 0 65 95 0 65 95 0 65 95 0 65 95 0 65 95 0 65 95 0 65 95 0 65 95 0 65 95 0 65 95 0 65 95 0 65 95 0 65 95 0 65 95 0 65 95 0 65 95 0 65 95 0 65 95 0 65 95 0 65 95 0 65 95 0 65 95 0 65 95 0 65 95 0 65 95 0 65 95 0 65 95 0 65 95 0 65 95 0 65 95 0 65 95 0 65 95 0 65 95 0 65 95 0 65 95 0 65 95 0 65 95 0 65 95 0 65 95 0 65 95 0 65 95 0 65 95 0 65 95 0 65 95 0 65 95 0 65 95 0 65 95 0 65 95 0 65 95 0 65 95 0 65 95 0 65 95 0 65 95 0 65 95 0 65 95 0 65 95 0 65 95 0 65 95 0 65 95 0 65 95 0 65 95 0 65 95 0 65 95 0 65 95 0 65 95 0 65 95 0 65 95 0 65 95 0 65 95 0 65 95 0 65 95 0 65 95 0 65 95 0 65 95 0 65 95 0 65 95 0 65 95 0 65 95 0 65 95 0 65 95 0 65 95 0 65 95 0 65 95 0 65 95 0 65 95 0 65 95 0 65 95 0 65 95 0 65 95 0 65 95 0 65 95 0 65 95 0 65 95 0 65 95 0 65 95 0 65 95 0 65 95 0 65 95 0 65 95 0 65 95 0 65 95 0 65 95 
0 65 95 0 65 95 0 65 95 0 65 95 0 65 95 0 65 95 0 65 95 0 65 95 1 66 96 1 66 96 1 66 96 1 66 96 1 66 94 1 66 96 1 66 96 1 66 96 0 65 95 0 65 95 0 65 95 0 65 95 0 65 95 0 65 95 0 65 95 0 65 95 0 65 95 0 65 95 0 65 95 0 65 95 0 65 95 0 65 95 0 65 95 0 65 95 0 65 95 0 65 95 0 65 95 0 65 95 0 65 95 0 65 95 0 65 95 0 65 95 0 65 95 0 65 95 0 65 95 0 65 95 0 65 95 0 65 95 0 65 95 0 65 95 0 65 95 0 65 95 0 65 95 0 65 95 0 65 95 0 65 95 0 65 95 0 65 95 0 65 95 0 65 95 0 65 95 0 65 95 0 65 95 0 65 95 0 65 95 0 65 95 0 65 95 0 65 95 0 65 95 0 65 95 0 65 95 0 65 95 0 65 95 0 65 95 0 65 95 0 65 95 0 65 95 0 65 95 0 65 95 0 65 95 0 65 95 0 65 95 0 65 95 0 65 95 0 65 95 0 65 95 0 65 95 0 65 95 0 65 95 0 65 95 0 65 95 0 65 95 0 65 95 0 65 95 0 65 95 0 65 95 0 65 95 0 65 95 0 65 95 0 65 95 0 65 95 0 65 95 0 65 95 0 65 95 0 65 95 0 65 95 0 65 95 0 65 95 0 65 95 0 65 95 0 65 95 0 65 95 0 65 95 0 65 95 0 65 95 0 65 95 0 65 95 0 65 95 0 65 95 0 65 95 0 65 95 0 65 95 0 65 95 0 65 95 0 65 95 0 65 95 0 65 95 0 65 95 0 65 95 0 65 95 0 65 95 0 65 95 0 65 95 0 65 95 0 65 95 0 65 95 0 65 95 0 65 95 0 65 95 0 65 95 0 65 95 0 65 95 0 65 95 0 65 95 0 65 95 0 65 95 0 65 95 0 65 95 0 65 95 0 65 95 0 65 95 0 65 95 0 65 95 0 65 95 0 65 95 0 65 95 0 65 95 0 65 95 0 65 95 0 65 95 0 65 95 0 65 95 0 65 95 0 65 95 0 65 95 0 65 95 0 65 95 0 65 95 0 65 95 0 65 95 0 65 95 0 65 95 0 65 95 0 65 95 0 65 95 0 65 95 0 65 95 0 65 95 0 65 95 0 65 95 0 65 95 0 65 95 0 65 95 0 65 95 0 65 95 0 65 95 0 65 95 0 65 95 0 65 95 0 65 95 
0 65 95 0 65 95 0 65 95 0 65 95 0 65 95 0 65 95 0 65 95 0 65 95 1 66 96 1 66 96 1 66 96 1 66 96 1 66 96 1 66 96 1 66 96 1 66 96 0 65 95 0 65 95 0 65 95 0 65 95 0 65 95 0 65 95 0 65 95 0 65 95 0 65 95 0 65 95 0 65 95 0 65 95 0 65 95 0 65 95 0 65 95 0 65 95 0 65 95 0 65 95 0 65 95 0 65 95 0 65 95 0 65 95 0 65 95 0 65 95 0 65 95 0 65 95 0 65 95 0 65 95 0 65 95 0 65 95 0 65 95 0 65 95 0 65 95 0 65 95 0 65 95 0 65 95 0 65 95 0 65 95 0 65 95 0 65 95 0 65 95 0 65 95 0 65 95 0 65 95 0 65 95 0 65 95 0 65 95 0 65 95 0 65 95 0 65 95 0 65 95 0 65 95 0 65 95 0 65 95 0 65 95 0 65 95 0 65 95 0 65 95 0 65 95 0 65 95 0 65 95 0 65 95 0 65 95 0 65 95 0 65 95 0 65 95 0 65 95 0 65 95 0 65 95 0 65 95 0 65 95 0 65 95 0 65 95 0 65 95 0 65 95 0 65 95 0 65 95 0 65 95 0 65 95 0 65 95 0 65 95 0 65 95 0 65 95 0 65 95 0 65 95 0 65 95 0 65 95 0 65 95 0 65 95 0 65 95 0 65 95 0 65 95 0 65 95 0 65 95 0 65 95 0 65 95 0 65 95 0 65 95 0 65 95 0 65 95 0 65 95 0 65 95 0 65 95 0 65 95 0 65 95 0 65 95 0 65 95 0 65 95 0 65 95 0 65 95 0 65 95 0 65 95 0 65 95 0 65 95 0 65 95 0 65 95 0 65 95 0 65 95 0 65 95 0 65 95 0 65 95 0 65 95 0 65 95 0 65 95 0 65 95 0 65 95 0 65 95 0 65 95 0 65 95 0 65 95 0 65 95 0 65 95 0 65 95 0 65 95 0 65 95 0 65 95 0 65 95 0 65 95 0 65 95 0 65 95 0 65 95 0 65 95 0 65 95 0 65 95 0 65 95 0 65 95 0 65 95 0 65 95 0 65 95 0 65 95 0 65 95 0 65 95 0 65 95 0 65 95 0 65 95 0 65 95 0 65 95 0 65 95 0 65 95 0 65 95 0 65 95 0 65 95 0 65 95 0 65 95 0 65 95 0 65 95 0 65 95 0 65 95 0 65 95 0 65 95 0 65 95 0 65 95 
0 65 95 0 65 95 0 65 95 0 65 95 0 65 95 0 65 95 0 65 95 0 65 95 1 66 96 1 66 96 1 66 96 1 66 96 1 66 96 1 66 96 1 66 96 1 66 96 0 65 95 0 65 95 0 65 95 0 65 95 0 65 95 0 65 95 0 65 95 0 65 95 0 65 95 0 65 95 0 65 95 0 65 95 0 65 95 0 65 95 0 65 95 0 65 95 0 65 95 0 65 95 0 65 95 0 65 95 0 65 95 0 65 95 0 65 95 0 65 95 0 65 95 0 65 95 0 65 95 0 65 95 0 65 95 0 65 95 0 65 95 0 65 95 0 65 95 0 65 95 0 65 95 0 65 95 0 65 95 0 65 95 0 65 95 0 65 95 0 65 95 0 65 95 0 65 95 0 65 95 0 65 95 0 65 95 0 65 95 0 65 95 0 65 95 0 65 95 0 65 95 0 65 95 0 65 95 0 65 95 0 65 95 0 65 95 0 65 95 0 65 95 0 65 95 0 65 95 0 65 95 0 65 95 0 65 95 0 65 95 0 65 95 0 65 95 0 65 95 0 65 95 0 65 95 0 65 95 0 65 95 0 65 95 0 65 95 0 65 95 0 65 95 0 65 95 0 65 95 0 65 95 0 65 95 0 65 95 0 65 95 0 65 95 0 65 95 0 65 95 0 65 95 0 65 95 0 65 95 0 65 95 0 65 95 0 65 95 0 65 95 0 65 95 0 65 95 0 65 95 0 65 95 0 65 95 0 65 95 0 65 95 0 65 95 0 65 95 0 65 95 0 65 95 0 65 95 0 65 95 0 65 95 0 65 95 0 65 95 0 65 95 0 65 95 0 65 95 0 65 95 0 65 95 0 65 95 0 65 95 0 65 95 0 65 95 0 65 95 0 65 95 0 65 95 0 65 95 0 65 95 0 65 95 0 65 95 0 65 95 0 65 95 0 65 95 0 65 95 0 65 95 0 65 95 0 65 95 0 65 95 0 65 95 0 65 95 0 65 95 0 65 95 0 65 95 0 65 95 0 65 95 0 65 95 0 65 95 0 65 95 0 65 95 0 65 95 0 65 95 0 65 95 0 65 95 0 65 95 0 65 95 0 65 95 0 65 95 0 65 95 0 65 95 0 65 95 0 65 95 0 65 95 0 65 95 0 65 95 0 65 95 0 65 95 0 65 95 0 65 95 0 65 95 0 65 95 0 65 95 0 65 95 0 65 95 0 65 95 0 65 95 0 65 95 0 65 95 0 65 95 0 65 95 
0 65 95 0 65 95 0 65 95 0 65 95 0 65 95 0 65 95 0 65 95 0 65 95 1 66 96 1 66 96 1 66 96 1 66 96 1 66 96 1 66 96 1 66 96 1 66 96 0 65 95 0 65 95 0 65 95 0 65 95 0 65 95 0 65 95 0 65 95 0 65 95 0 65 95 0 65 95 0 65 95 0 65 95 0 65 95 0 65 95 0 65 95 0 65 95 0 65 95 0 65 95 0 65 95 0 65 95 0 65 95 0 65 95 0 65 95 0 65 95 0 65 95 0 65 95 0 65 95 0 65 95 0 65 95 0 65 95 0 65 95 0 65 95 0 65 95 0 65 95 0 65 95 0 65 95 0 65 95 0 65 95 0 65 95 0 65 95 0 65 95 0 65 95 0 65 95 0 65 95 0 65 95 0 65 95 0 65 95 0 65 95 0 65 95 0 65 95 0 65 95 0 65 95 0 65 95 0 65 95 0 65 95 0 65 95 0 65 95 0 65 95 0 65 95 0 65 95 0 65 95 0 65 95 0 65 95 0 65 95 0 65 95 0 65 95 0 65 95 0 65 95 0 65 95 0 65 95 0 65 95 0 65 95 0 65 95 0 65 95 0 65 95 0 65 95 0 65 95 0 65 95 0 65 95 0 65 95 0 65 95 0 65 95 0 65 95 0 65 95 0 65 95 0 65 95 0 65 95 0 65 95 0 65 95 0 65 95 0 65 95 0 65 95 0 65 95 0 65 95 0 65 95 0 65 95 0 65 95 0 65 95 0 65 95 0 65 95 0 65 95 0 65 95 0 65 95 0 65 95 0 65 95 0 65 95 0 65 95 0 65 95 0 65 95 0 65 95 0 65 95 0 65 95 0 65 95 0 65 95 0 65 95 0 65 95 0 65 95 0 65 95 0 65 95 0 65 95 0 65 95 0 65 95 0 65 95 0 65 95 0 65 95 0 65 95 0 65 95 0 65 95 0 65 95 0 65 95 0 65 95 0 65 95 0 65 95 0 65 95 0 65 95 0 65 95 0 65 95 0 65 95 0 65 95 0 65 95 0 65 95 0 65 95 0 65 95 0 65 95 0 65 95 0 65 95 0 65 95 0 65 95 0 65 95 0 65 95 0 65 95 0 65 95 0 65 95 0 65 95 0 65 95 0 65 95 0 65 95 0 65 95 0 65 95 0 65 95 0 65 95 0 65 95 0 65 95 0 65 95 0 65 95 0 65 95 0 65 95 0 65 95 0 65 95 0 65 95 0 65 95 0 65 95 
0 65 95 0 65 95 0 65 95 0 65 95 0 65 95 0 65 95 0 65 95 0 65 95 1 66 96 1 66 96 1 66 96 1 66 96 1 66 96 1 66 96 1 66 96 1 66 96 0 65 95 0 65 95 0 65 95 0 65 95 0 65 95 0 65 95 0 65 95 0 65 95 0 65 95 0 65 95 0 65 95 0 65 95 0 65 95 0 65 95 0 65 95 0 65 95 0 65 95 0 65 95 0 65 95 0 65 95 0 65 95 0 65 95 0 65 95 0 65 95 0 65 95 0 65 95 0 65 95 0 65 95 0 65 95 0 65 95 0 65 95 0 65 95 0 65 95 0 65 95 0 65 95 0 65 95 0 65 95 0 65 95 0 65 95 0 65 95 0 65 95 0 65 95 0 65 95 0 65 95 0 65 95 0 65 95 0 65 95 0 65 95 0 65 95 0 65 95 0 65 95 0 65 95 0 65 95 0 65 95 0 65 95 0 65 95 0 65 95 0 65 95 0 65 95 0 65 95 0 65 95 0 65 95 0 65 95 0 65 95 0 65 95 0 65 95 0 65 95 0 65 95 0 65 95 0 65 95 0 65 95 0 65 95 0 65 95 0 65 95 0 65 95 0 65 95 0 65 95 0 65 95 0 65 95 0 65 95 0 65 95 0 65 95 0 65 95 0 65 95 0 65 95 0 65 95 0 65 95 0 65 95 0 65 95 0 65 95 0 65 95 0 65 95 0 65 95 0 65 95 0 65 95 0 65 95 0 65 95 0 65 95 0 65 95 0 65 95 0 65 95 0 65 95 0 65 95 0 65 95 0 65 95 0 65 95 0 65 95 0 65 95 0 65 95 0 65 95 0 65 95 0 65 95 0 65 95 0 65 95 0 65 95 0 65 95 0 65 95 0 65 95 0 65 95 0 65 95 0 65 95 0 65 95 0 65 95 0 65 95 0 65 95 0 65 95 0 65 95 0 65 95 0 65 95 0 65 95 0 65 95 0 65 95 0 65 95 0 65 95 0 65 95 0 65 95 0 65 95 0 65 95 0 65 95 0 65 95 0 65 95 0 65 95 0 65 95 0 65 95 0 65 95 0 65 95 0 65 95 0 65 95 0 65 95 0 65 95 0 65 95 0 65 95 0 65 95 0 65 95 0 65 95 0 65 95 0 65 95 0 65 95 0 65 95 0 65 95 0 65 95 0 65 95 0 65 95 0 65 95 0 65 95 0 65 95 0 65 95 0 65 95 0 65 95 0 65 95 0 65 95 0 65 95 
0 65 95 0 65 95 0 65 95 0 65 95 0 65 95 0 65 95 0 65 95 0 65 95 1 66 96 1 66 96 1 66 96 1 66 96 1 66 96 1 66 96 1 66 96 1 66 96 0 65 95 0 65 95 0 65 95 0 65 95 0 65 95 0 65 95 0 65 95 0 65 95 0 65 95 0 65 95 0 65 95 0 65 95 0 65 95 0 65 95 0 65 95 0 65 95 0 65 95 0 65 95 0 65 95 0 65 95 0 65 95 0 65 95 0 65 95 0 65 95 0 65 95 0 65 95 0 65 95 0 65 95 0 65 95 0 65 95 0 65 95 0 65 95 0 65 95 0 65 95 0 65 95 0 65 95 0 65 95 0 65 95 0 65 95 0 65 95 0 65 95 0 65 95 0 65 95 0 65 95 0 65 95 0 65 95 0 65 95 0 65 95 0 65 95 0 65 95 0 65 95 0 65 95 0 65 95 0 65 95 0 65 95 0 65 95 0 65 95 0 65 95 0 65 95 0 65 95 0 65 95 0 65 95 0 65 95 0 65 95 0 65 95 0 65 95 0 65 95 0 65 95 0 65 95 0 65 95 0 65 95 0 65 95 0 65 95 0 65 95 0 65 95 0 65 95 0 65 95 0 65 95 0 65 95 0 65 95 0 65 95 0 65 95 0 65 95 0 65 95 0 65 95 0 65 95 0 65 95 0 65 95 0 65 95 0 65 95 0 65 95 0 65 95 0 65 95 0 65 95 0 65 95 0 65 95 0 65 95 0 65 95 0 65 95 0 65 95 0 65 95 0 65 95 0 65 95 0 65 95 0 65 95 0 65 95 0 65 95 0 65 95 0 65 95 0 65 95 0 65 95 0 65 95 0 65 95 0 65 95 0 65 95 0 65 95 0 65 95 0 65 95 0 65 95 0 65 95 0 65 95 0 65 95 0 65 95 0 65 95 0 65 95 0 65 95 0 65 95 0 65 95 0 65 95 0 65 95 0 65 95 0 65 95 0 65 95 0 65 95 0 65 95 0 65 95 0 65 95 0 65 95 0 65 95 0 65 95 0 65 95 0 65 95 0 65 95 0 65 95 0 65 95 0 65 95 0 65 95 0 65 95 0 65 95 0 65 95 0 65 95 0 65 95 0 65 95 0 65 95 0 65 95 0 65 95 0 65 95 0 65 95 0 65 95 0 65 95 0 65 95 0 65 95 0 65 95 0 65 95 0 65 95 0 65 95 0 65 95 0 65 95 0 65 95 0 65 95 0 65 95 0 65 95 
0 65 95 0 65 95 0 65 95 0 65 95 0 65 95 0 65 95 0 65 95 0 65 95 1 66 96 1 66 96 1 66 96 1 66 96 1 66 96 1 66 96 1 66 96 1 66 96 0 65 95 0 65 95 0 65 95 0 65 95 0 65 95 0 65 95 0 65 95 0 65 95 0 65 95 0 65 95 0 65 95 0 65 95 0 65 95 0 65 95 0 65 95 0 65 95 0 65 95 0 65 95 0 65 95 0 65 95 0 65 95 0 65 95 0 65 95 0 65 95 0 65 95 0 65 95 0 65 95 0 65 95 0 65 95 0 65 95 0 65 95 0 65 95 0 65 95 0 65 95 0 65 95 0 65 95 0 65 95 0 65 95 0 65 95 0 65 95 0 65 95 0 65 95 0 65 95 0 65 95 0 65 95 0 65 95 0 65 95 0 65 95 0 65 95 0 65 95 0 65 95 0 65 95 0 65 95 0 65 95 0 65 95 0 65 95 0 65 95 0 65 95 0 65 95 0 65 95 0 65 95 0 65 95 0 65 95 0 65 95 0 65 95 0 65 95 0 65 95 0 65 95 0 65 95 0 65 95 0 65 95 0 65 95 0 65 95 0 65 95 0 65 95 0 65 95 0 65 95 0 65 95 0 65 95 0 65 95 0 65 95 0 65 95 0 65 95 0 65 95 0 65 95 0 65 95 0 65 95 0 65 95 0 65 95 0 65 95 0 65 95 0 65 95 0 65 95 0 65 95 0 65 95 0 65 95 0 65 95 0 65 95 0 65 95 0 65 95 0 65 95 0 65 95 0 65 95 0 65 95 0 65 95 0 65 95 0 65 95 0 65 95 0 65 95 0 65 95 0 65 95 0 65 95 0 65 95 0 65 95 0 65 95 0 65 95 0 65 95 0 65 95 0 65 95 0 65 95 0 65 95 0 65 95 0 65 95 0 65 95 0 65 95 0 65 95 0 65 95 0 65 95 0 65 95 0 65 95 0 65 95 0 65 95 0 65 95 0 65 95 0 65 95 0 65 95 0 65 95 0 65 95 0 65 95 0 65 95 0 65 95 0 65 95 0 65 95 0 65 95 0 65 95 0 65 95 0 65 95 0 65 95 0 65 95 0 65 95 0 65 95 0 65 95 0 65 95 0 65 95 0 65 95 0 65 95 0 65 95 0 65 95 0 65 95 0 65 95 0 65 95 0 65 95 0 65 95 0 65 95 0 65 95 0 65 95 0 65 95 0 65 95 0 65 95 0 65 95 0 65 95 0 65 95 
0 65 95 0 65 95 0 65 95 0 65 95 0 65 95 0 65 95 0 65 95 0 65 95 0 65 95 0 65 95 0 65 95 0 65 95 0 65 95 0 65 95 0 65 95 0 65 95 0 65 93 0 65 93 0 65 93 0 65 93 0 65 93 0 65 93 0 65 93 0 65 93 0 65 93 0 65 93 0 65 93 0 65 93 0 65 93 0 65 93 0 65 93 0 65 93 0 65 95 0 65 95 0 65 95 0 65 95 0 65 95 0 65 95 0 65 95 0 65 95 0 65 95 0 65 95 0 65 95 0 65 95 0 65 95 0 65 95 0 65 95 0 65 95 0 65 95 0 65 95 0 65 95 0 65 95 0 65 95 0 65 95 0 65 95 0 65 95 0 65 95 0 65 95 0 65 95 0 65 95 0 65 95 0 65 95 0 65 95 0 65 95 0 65 95 0 65 95 0 65 95 0 65 95 0 65 95 0 65 95 0 65 95 0 65 95 0 65 95 0 65 95 0 65 95 0 65 95 0 65 95 0 65 95 0 65 95 0 65 95 0 65 95 0 65 95 0 65 95 0 65 95 0 65 95 0 65 95 0 65 95 0 65 95 0 65 95 0 65 95 0 65 95 0 65 95 0 65 95 0 65 95 0 65 95 0 65 95 0 65 95 0 65 95 0 65 95 0 65 95 0 65 95 0 65 95 0 65 95 0 65 95 0 65 95 0 65 95 0 65 95 0 65 95 0 65 95 0 65 95 0 65 95 0 65 95 0 65 95 0 65 95 0 65 95 0 65 95 0 65 95 0 65 95 0 65 95 0 65 95 0 65 95 0 65 95 0 65 95 0 65 95 0 65 95 0 65 95 0 65 95 0 65 95 0 65 95 0 65 95 0 65 95 0 65 95 0 65 95 0 65 95 0 65 95 0 65 95 0 65 95 0 65 95 0 65 95 0 65 95 0 65 95 0 65 95 0 65 95 0 65 95 0 65 95 0 65 95 0 65 95 0 65 95 0 65 95 0 65 95 0 65 95 0 65 95 0 65 95 0 65 95 0 65 95 0 65 95 0 65 95 0 65 95 0 65 95 0 65 95 0 65 95 0 65 95 0 65 95 0 65 95 0 65 95 0 65 95 0 65 95 0 65 95 0 65 95 0 65 95 0 65 95 0 65 95 0 65 95 0 65 95 0 65 95 0 65 95 0 65 95 0 65 95 0 65 95 0 65 95 0 65 95 0 65 95 0 65 95 0 65 95 0 65 95 0 65 95 0 65 95 0 65 95 
0 65 95 0 65 95 0 65 95 0 65 95 0 65 95 0 65 95 0 65 95 0 65 95 0 65 95 0 65 95 0 65 95 0 65 95 0 65 95 0 65 95 0 65 95 0 65 95 0 65 93 0 65 93 0 65 93 0 65 93 0 65 93 0 65 93 0 65 93 0 65 93 0 65 93 0 65 93 0 65 93 0 65 93 0 65 93 0 65 93 0 65 93 0 65 93 0 65 95 0 65 95 0 65 95 0 65 95 0 65 95 0 65 95 0 65 95 0 65 95 0 65 95 0 65 95 0 65 95 0 65 95 0 65 95 0 65 95 0 65 95 0 65 95 0 65 95 0 65 95 0 65 95 0 65 95 0 65 95 0 65 95 0 65 95 0 65 95 0 65 95 0 65 95 0 65 95 0 65 95 0 65 95 0 65 95 0 65 95 0 65 95 0 65 95 0 65 95 0 65 95 0 65 95 0 65 95 0 65 95 0 65 95 0 65 95 0 65 95 0 65 95 0 65 95 0 65 95 0 65 95 0 65 95 0 65 95 0 65 95 0 65 95 0 65 95 0 65 95 0 65 95 0 65 95 0 65 95 0 65 95 0 65 95 0 65 95 0 65 95 0 65 95 0 65 95 0 65 95 0 65 95 0 65 95 0 65 95 0 65 95 0 65 95 0 65 95 0 65 95 0 65 95 0 65 95 0 65 95 0 65 95 0 65 95 0 65 95 0 65 95 0 65 95 0 65 95 0 65 95 0 65 95 0 65 95 0 65 95 0 65 95 0 65 95 0 65 95 0 65 95 0 65 95 0 65 95 0 65 95 0 65 95 0 65 95 0 65 95 0 65 95 0 65 95 0 65 95 0 65 95 0 65 95 0 65 95 0 65 95 0 65 95 0 65 95 0 65 95 0 65 95 0 65 95 0 65 95 0 65 95 0 65 95 0 65 95 0 65 95 0 65 95 0 65 95 0 65 95 0 65 95 0 65 95 0 65 95 0 65 95 0 65 95 0 65 95 0 65 95 0 65 95 0 65 95 0 65 95 0 65 95 0 65 95 0 65 95 0 65 95 0 65 95 0 65 95 0 65 95 0 65 95 0 65 95 0 65 95 0 65 95 0 65 95 0 65 95 0 65 95 0 65 95 0 65 95 0 65 95 0 65 95 0 65 95 0 65 95 0 65 95 0 65 95 0 65 95 0 65 95 0 65 95 0 65 95 0 65 95 0 65 95 0 65 95 0 65 95 0 65 95 0 65 95 0 65 95 0 65 95 0 65 95 
0 65 95 0 65 95 0 65 95 0 65 95 0 65 95 0 65 95 0 65 95 0 65 95 0 65 95 0 65 95 0 64 94 0 64 94 1 66 96 0 65 95 0 65 95 0 65 95 0 65 93 0 65 93 0 65 93 0 65 93 0 65 93 0 65 93 0 65 93 0 65 93 0 65 93 0 65 93 0 65 93 0 65 93 0 65 93 0 65 93 0 65 93 0 65 93 0 65 95 0 65 95 0 65 95 0 65 95 0 65 95 0 65 95 0 65 95 0 65 95 0 65 95 1 66 96 0 65 95 0 65 95 0 65 95 0 65 95 0 65 95 0 65 95 0 65 95 0 64 94 1 64 95 0 65 95 0 65 95 0 65 95 0 65 95 0 65 95 0 65 95 0 65 95 0 65 95 0 65 95 0 65 95 0 65 95 0 65 95 0 65 95 0 65 95 0 65 95 0 65 95 0 65 95 0 65 95 0 65 95 0 65 95 0 65 95 0 65 95 0 65 95 0 65 97 1 64 95 1 66 96 0 65 95 1 66 96 0 65 95 0 65 95 0 65 95 0 65 95 0 65 95 0 65 95 0 65 95 0 65 95 0 65 95 0 65 95 0 65 95 0 65 95 0 65 95 0 65 95 0 65 95 0 65 95 0 65 95 0 65 95 0 65 95 0 65 95 0 65 95 0 65 95 0 65 95 0 65 95 0 65 95 1 64 95 0 65 95 0 65 97 0 65 95 0 65 95 0 65 95 0 65 95 0 65 95 0 65 93 0 65 95 0 65 95 0 65 95 0 64 94 0 65 95 0 65 95 0 65 95 0 65 95 0 65 95 0 65 95 0 65 95 0 65 95 0 65 95 0 65 95 0 65 95 0 65 95 0 65 95 0 65 95 0 65 95 0 65 95 0 65 95 0 65 95 0 65 95 1 66 96 0 65 95 0 65 95 0 65 95 0 65 95 0 65 95 0 65 95 0 65 95 0 65 95 0 66 95 0 65 95 0 65 95 0 65 95 0 65 95 0 65 95 0 65 95 0 65 95 0 65 95 0 65 95 0 65 95 0 65 95 0 65 95 0 65 95 0 65 95 0 65 95 0 65 95 0 65 95 0 65 95 0 65 95 0 65 95 0 65 95 0 65 95 0 65 95 0 65 95 0 65 95 0 65 95 0 65 95 0 65 95 0 65 95 0 65 95 0 65 95 0 65 95 0 65 95 0 65 97 0 65 97 0 65 95 0 65 95 0 65 95 0 65 95 0 65 95 0 65 95 0 65 95 
0 65 95 0 65 95 0 65 95 0 65 95 0 65 95 0 65 95 0 65 95 0 65 95 0 65 95 0 65 95 0 65 95 1 66 96 0 65 95 0 65 95 0 65 95 0 65 95 0 65 95 0 65 93 0 65 93 0 65 93 0 65 93 0 64 92 0 65 93 0 65 93 0 65 93 0 65 93 0 65 93 0 65 93 0 65 93 0 65 93 0 65 93 0 65 93 0 65 95 0 65 95 0 65 95 0 65 95 0 65 95 0 65 95 0 65 95 0 65 95 0 65 95 0 65 95 0 65 95 0 65 95 0 65 95 0 65 95 0 65 95 0 65 95 0 65 95 0 65 95 0 65 95 0 65 95 0 65 95 0 65 95 0 65 95 0 65 95 0 65 95 0 65 95 0 65 95 0 65 95 0 65 95 0 65 95 0 65 95 0 65 95 0 65 95 0 65 95 0 65 95 0 65 95 0 65 95 0 65 95 0 65 95 0 65 95 0 65 95 0 65 95 0 65 95 0 65 97 0 65 95 0 65 95 0 65 95 0 65 95 0 65 95 0 65 95 0 65 95 0 65 95 0 65 95 0 65 95 0 65 95 0 65 95 0 65 95 0 65 95 0 65 95 0 65 95 0 65 95 0 65 95 0 65 95 0 65 95 0 65 95 0 65 95 0 65 95 0 65 95 0 65 95 0 65 95 0 65 95 0 65 95 0 65 97 0 65 95 0 65 95 0 65 95 0 65 95 0 65 95 0 65 95 0 65 95 0 65 95 0 65 95 0 65 95 0 65 95 0 64 94 0 65 95 0 65 95 0 65 95 0 65 95 0 65 95 0 65 95 0 65 95 0 65 95 0 65 95 0 65 95 0 65 95 0 65 95 0 65 95 0 65 95 0 65 95 0 65 95 0 65 95 0 65 95 0 65 95 0 65 95 0 65 95 1 66 96 0 65 95 0 65 95 0 65 95 0 65 95 0 65 95 0 65 95 0 65 95 0 65 95 0 65 95 0 65 95 0 65 95 0 65 95 0 65 95 0 65 95 0 65 95 0 65 95 0 65 95 0 65 95 0 65 95 0 65 95 0 65 95 0 65 95 0 65 95 0 65 95 0 65 95 0 65 95 0 65 95 0 65 95 0 65 95 0 65 95 0 65 95 0 65 95 0 65 95 0 66 95 0 65 95 0 65 95 0 64 94 0 65 95 0 65 95 0 65 95 0 65 95 0 65 95 0 65 95 0 65 95 0 65 95 0 65 95 0 65 95 0 65 95 0 65 95 
0 65 95 0 65 95 0 65 95 0 65 95 0 65 95 0 65 95 0 65 95 0 65 95 0 65 95 0 65 95 0 64 94 0 65 95 0 65 95 0 65 95 0 65 95 0 65 95 0 65 93 0 65 93 0 65 93 0 65 93 0 65 93 0 65 93 0 65 93 0 65 93 0 65 93 0 65 93 0 65 93 0 65 93 0 65 93 0 65 93 0 65 93 0 65 93 0 65 95 0 65 95 0 65 95 0 65 95 0 65 95 0 65 95 0 65 95 0 65 95 0 65 95 0 65 95 0 65 95 0 65 95 0 65 95 0 65 95 0 65 95 0 65 95 0 65 95 0 65 95 0 65 95 0 65 95 0 64 94 0 65 97 0 65 95 0 65 95 0 65 95 0 65 95 0 65 95 0 65 95 0 65 95 0 65 95 0 65 95 0 65 95 0 65 95 0 65 95 0 65 95 0 65 95 0 65 95 0 65 95 0 65 95 0 65 95 0 65 95 0 65 95 0 65 95 0 65 95 0 65 95 0 65 95 0 65 95 0 65 95 0 65 95 0 65 95 0 65 95 0 65 95 0 65 95 0 65 95 0 65 95 0 65 95 0 65 95 0 65 95 0 65 95 0 65 95 0 65 95 0 65 95 0 65 95 0 65 95 0 65 95 0 65 95 0 65 95 0 65 95 0 65 95 0 65 95 0 65 95 0 65 95 0 65 95 0 65 95 0 65 95 0 65 95 0 65 95 0 65 95 0 65 95 0 65 95 0 65 95 0 65 95 0 65 95 0 66 95 0 65 95 0 65 95 0 66 95 0 65 95 0 65 95 0 65 95 0 65 95 0 65 95 0 65 95 0 65 95 0 65 95 0 65 95 0 65 95 0 65 95 0 65 95 0 65 95 0 65 95 0 65 95 0 65 95 0 65 95 0 65 93 0 65 95 0 65 95 0 65 95 0 65 95 0 65 95 0 65 95 0 65 95 0 65 95 0 65 95 0 65 95 1 66 96 1 66 96 0 65 95 0 65 95 0 65 95 0 65 95 0 65 95 0 65 95 0 65 95 0 65 95 0 65 95 0 65 95 0 65 95 0 65 95 0 65 95 0 65 95 0 65 95 0 65 95 0 65 95 0 65 95 0 65 95 0 65 95 0 64 94 0 65 95 0 65 95 0 65 95 0 65 95 0 65 95 0 65 95 0 65 95 0 65 95 0 65 95 0 65 95 0 65 95 0 65 95 0 65 95 0 65 95 0 65 95 0 65 95 0 65 95 0 65 95 
0 65 95 0 65 95 0 65 95 0 65 95 0 65 95 0 65 95 0 65 95 0 65 95 0 65 95 0 65 95 0 65 95 0 65 95 0 65 95 0 65 95 0 65 95 0 65 95 1 66 94 0 65 93 0 65 93 0 65 93 0 65 93 0 65 93 0 65 93 0 65 93 0 65 93 0 65 93 0 65 93 0 65 93 0 65 93 0 65 93 0 65 93 0 65 93 0 65 95 0 65 95 0 65 95 0 65 95 0 65 95 0 65 95 0 65 95 0 65 95 0 65 95 1 64 95 0 65 95 0 66 95 0 65 95 0 65 95 0 65 95 0 65 95 0 65 95 0 65 95 0 65 95 0 65 95 1 66 96 0 65 95 0 65 95 0 65 95 0 65 95 0 65 95 0 65 95 0 65 95 0 65 95 0 65 95 0 65 95 0 65 95 0 65 95 0 65 95 0 65 95 0 65 95 0 65 95 0 65 95 0 65 95 0 65 95 0 65 93 0 65 95 0 65 95 0 65 95 1 66 96 0 65 95 0 65 93 0 65 95 0 65 93 0 65 95 0 65 95 1 64 95 0 66 95 0 65 95 0 65 95 0 65 95 0 65 95 0 65 95 0 65 95 0 65 95 0 65 95 0 65 95 0 65 95 0 65 95 0 65 95 0 65 95 0 65 95 0 65 95 0 65 95 0 65 95 0 65 95 0 65 95 0 65 95 0 65 95 0 65 95 0 65 95 0 65 95 0 65 95 0 65 95 0 65 95 0 65 95 0 65 95 0 65 95 0 65 95 0 65 95 1 64 95 1 64 95 0 65 95 0 65 95 0 65 95 0 65 95 0 65 95 0 65 95 0 65 95 0 65 95 0 65 95 0 65 95 0 65 95 0 65 95 0 65 95 0 65 95 0 65 95 0 65 95 0 65 95 0 65 95 1 66 96 0 65 95 0 64 94 0 65 95 0 65 95 1 64 95 0 65 95 0 65 95 0 65 95 0 65 95 0 65 95 0 65 95 0 65 95 0 65 95 0 65 95 0 65 95 0 65 95 0 65 95 0 65 95 0 65 95 0 65 95 0 65 95 0 65 95 0 65 95 0 65 95 0 65 95 0 65 95 0 65 95 0 65 95 0 65 95 0 65 95 0 65 95 0 65 95 0 65 95 1 64 95 0 65 95 0 65 95 0 65 95 0 65 95 0 65 95 0 65 95 0 65 95 0 65 95 0 65 95 0 65 95 0 65 95 0 65 95 0 65 95 0 65 95 0 65 95 0 65 95 
0 65 95 0 65 95 0 65 95 0 65 95 0 65 95 0 65 95 0 65 95 0 65 95 0 65 95 0 65 95 0 65 95 0 65 95 0 65 95 0 65 95 0 65 95 0 65 95 0 64 92 0 65 93 0 65 93 0 65 93 0 65 93 0 65 93 0 65 93 0 65 93 0 65 93 0 65 93 0 65 93 0 65 93 0 65 93 0 65 93 0 65 93 0 65 93 0 65 95 0 65 95 0 65 95 0 65 95 0 65 95 0 65 95 0 65 95 0 65 95 0 65 95 0 65 95 0 66 95 0 66 95 0 65 95 0 65 95 0 65 95 0 65 95 0 65 95 0 65 95 0 65 95 0 65 95 0 64 94 0 65 95 0 65 95 0 65 95 0 65 95 0 65 95 0 65 95 0 65 95 0 65 95 0 65 95 0 65 95 0 65 95 0 65 95 0 65 95 0 65 95 0 65 95 0 65 95 0 65 95 0 65 95 0 65 95 0 65 95 0 65 95 0 65 95 0 65 95 0 65 95 0 65 95 0 65 95 0 65 95 0 65 95 0 65 95 0 65 95 0 65 95 0 65 95 0 65 95 0 65 95 0 65 95 0 65 95 0 65 95 0 65 95 0 65 95 0 65 95 0 65 95 0 65 95 0 65 95 0 65 95 0 65 95 0 65 95 0 65 95 0 65 95 0 65 95 0 65 95 0 66 95 0 65 95 0 65 97 0 65 97 0 65 95 1 66 96 0 65 95 0 65 95 0 65 95 0 65 95 0 65 95 0 65 95 0 65 95 0 65 95 0 65 95 0 65 95 0 65 95 0 65 95 0 65 95 0 65 95 0 65 95 0 65 95 0 65 95 0 65 95 0 65 95 0 65 95 0 65 95 0 65 95 0 65 95 0 65 95 0 65 95 0 65 95 0 65 95 0 65 95 0 65 95 0 65 95 0 65 95 0 65 95 0 65 95 1 66 96 0 65 95 0 65 93 0 65 95 0 65 95 0 65 95 0 65 95 0 65 95 0 65 95 0 65 95 0 66 95 0 65 95 0 65 95 0 65 95 0 65 95 0 65 95 0 65 95 0 65 95 0 65 95 0 65 95 0 65 95 0 65 95 0 65 95 0 65 95 0 65 95 0 65 95 0 66 95 1 64 95 0 65 95 0 65 95 0 65 95 0 65 95 0 65 95 0 65 95 1 64 95 0 65 95 0 65 95 0 65 95 0 65 95 0 65 95 0 65 95 0 65 95 0 65 95 0 65 95 0 65 95 0 65 95 
0 65 95 0 65 95 0 65 95 0 65 95 0 65 95 0 65 95 0 65 95 0 65 95 0 65 95 0 65 95 0 65 95 0 65 95 0 64 94 1 64 95 3 64 93 3 64 92 6 63 90 6 63 90 4 64 92 4 64 90 4 64 88 4 64 88 6 64 84 6 64 84 7 63 88 7 63 88 7 63 88 7 63 88 7 63 88 7 63 88 7 63 88 7 63 88 6 64 88 6 63 90 6 63 90 6 63 90 6 63 90 6 63 90 6 63 90 6 63 92 7 63 90 4 64 90 4 64 90 6 63 90 4 64 90 4 64 90 4 64 90 4 64 90 4 66 91 3 64 92 1 65 93 0 65 95 0 65 95 0 65 97 0 65 95 0 65 95 0 65 95 0 65 95 0 65 95 0 65 95 0 65 95 0 65 95 0 65 95 0 65 95 0 65 95 0 65 95 0 65 95 0 65 95 0 65 95 0 65 95 0 65 95 0 65 95 0 65 97 0 65 95 0 65 95 0 65 95 1 65 92 4 65 93 4 64 92 4 64 90 4 64 90 4 64 88 4 64 88 4 64 88 7 63 90 6 63 90 6 63 90 6 63 90 6 63 90 6 63 90 6 63 90 6 63 90 6 63 90 6 63 90 6 63 90 6 63 90 6 63 90 6 63 90 6 63 90 6 63 90 6 63 90 6 63 90 6 63 90 4 64 90 4 64 90 4 64 90 6 63 90 6 63 90 4 64 90 4 64 90 4 64 90 4 64 90 1 65 93 0 65 95 0 65 95 0 65 95 0 65 95 0 65 95 0 65 95 0 65 95 0 65 95 0 65 95 0 65 95 0 65 95 0 65 95 0 65 95 0 65 95 0 65 95 0 65 95 0 65 95 0 65 95 0 65 95 0 65 95 0 65 95 0 65 95 0 65 95 1 64 95 0 65 95 0 65 95 1 65 93 3 64 92 4 64 92 4 64 90 4 64 90 6 63 90 6 63 90 4 64 90 4 64 90 4 64 90 4 64 90 4 64 90 4 64 90 4 64 90 6 63 90 6 63 90 6 63 90 6 63 90 6 63 90 6 63 90 6 63 90 6 63 90 6 63 90 6 63 90 6 63 90 6 63 90 6 63 90 6 63 90 6 63 90 6 63 90 6 63 90 3 65 90 4 64 90 3 63 89 4 64 90 4 64 92 3 64 93 1 65 93 0 65 95 0 65 95 0 65 95 0 65 95 0 65 95 0 65 95 0 65 95 0 65 95 0 65 95 0 65 95 0 65 95 
0 65 95 0 65 95 0 65 95 0 65 95 0 65 95 0 65 95 0 65 95 0 65 95 1 64 97 0 65 95 0 65 95 0 65 93 0 64 94 4 65 94 8 62 86 18 65 85 18 61 80 18 61 80 18 63 84 17 64 82 17 64 80 18 64 79 20 64 73 21 64 73 20 64 77 20 64 77 20 64 77 20 64 77 20 64 77 20 64 77 20 64 77 20 64 77 20 64 77 20 64 77 20 63 79 21 64 80 21 64 80 21 64 80 21 64 80 21 64 80 21 64 80 18 64 79 18 64 79 18 64 79 18 64 79 17 64 80 17 64 82 15 64 81 16 65 82 14 67 85 8 68 94 1 65 93 0 66 98 0 64 99 1 66 98 0 65 97 0 65 95 0 65 95 0 65 95 0 65 95 0 65 95 0 65 95 0 65 95 0 65 95 0 65 93 0 65 93 0 65 93 0 65 93 0 65 93 0 65 93 0 65 93 0 65 93 1 66 98 0 65 93 0 64 91 0 64 92 5 65 93 10 64 88 17 68 87 18 64 80 17 65 79 16 66 77 16 66 77 17 65 75 21 65 78 21 64 80 21 64 80 21 64 80 21 64 80 21 64 80 21 64 80 21 64 80 21 64 80 21 64 80 21 64 80 21 64 80 20 63 80 20 63 80 20 63 80 20 63 80 20 63 80 20 63 80 18 64 80 18 64 80 16 63 81 17 64 80 22 66 79 22 65 81 17 64 80 18 65 83 20 67 83 17 68 85 13 70 99 3 68 98 0 63 94 1 62 91 0 65 95 1 66 96 2 65 96 1 66 96 0 65 95 0 65 95 0 65 95 0 65 95 0 65 95 0 65 95 0 65 95 0 65 95 0 65 93 0 65 93 0 65 93 0 65 93 0 65 93 0 65 93 0 65 93 0 65 93 2 67 99 1 60 90 0 66 93 3 64 92 11 61 84 17 64 84 22 67 86 18 64 80 21 64 80 21 64 80 20 63 79 18 64 79 18 64 79 17 65 79 17 66 80 17 66 80 19 65 80 19 65 80 21 64 80 21 64 80 21 64 80 21 64 80 21 64 80 21 64 80 20 63 80 20 63 80 20 63 80 20 63 80 20 63 80 20 63 80 20 63 80 20 63 80 22 64 80 21 64 80 17 65 79 17 65 77 19 67 79 18 66 80 18 66 86 11 67 92 3 64 93 0 65 93 0 65 95 0 65 95 0 65 95 0 65 95 0 65 95 0 65 95 0 65 95 0 65 95 0 65 95 0 65 95 
0 65 95 0 65 95 0 65 95 0 65 95 0 65 95 0 65 95 0 65 95 0 65 95 1 64 95 1 64 95 0 65 95 0 65 93 4 64 92 7 58 87 1 43 67 12 50 71 38 71 88 36 69 86 29 65 81 28 64 78 32 68 80 35 69 78 34 67 72 35 69 71 34 69 75 34 69 75 34 69 75 34 69 75 34 69 75 34 69 75 34 69 75 34 69 75 34 69 75 34 69 75 34 69 75 34 69 75 35 69 78 35 69 78 35 69 78 35 69 78 36 70 79 35 69 78 32 71 78 32 71 78 34 68 80 34 68 80 32 69 85 28 70 84 28 74 89 18 69 88 7 67 93 1 64 95 0 64 99 0 63 98 0 65 95 0 65 93 0 65 95 0 65 95 0 65 95 0 65 95 0 65 95 0 65 95 0 65 95 0 65 95 0 65 93 0 65 93 0 65 93 0 65 93 0 65 93 0 65 93 0 65 93 0 65 93 0 65 93 0 67 96 4 68 96 5 65 91 6 56 81 0 41 63 16 58 74 36 74 87 30 69 76 29 70 74 30 71 73 32 70 73 34 69 75 35 68 77 35 68 77 36 69 78 35 69 78 35 69 78 35 69 78 35 69 78 35 69 78 35 69 78 35 69 78 35 69 78 34 68 80 34 68 80 34 68 80 34 68 80 34 68 80 34 68 80 32 68 80 32 68 80 31 69 80 32 70 81 34 69 75 33 68 74 30 69 76 28 69 75 27 68 74 23 69 84 11 67 94 1 66 96 1 64 95 0 64 92 1 66 96 1 66 96 0 67 94 1 66 96 0 65 95 0 65 95 0 65 95 0 65 95 0 65 95 0 65 95 0 65 95 0 65 95 0 65 93 0 65 93 0 65 93 0 65 93 0 65 93 0 65 93 0 65 93 0 65 93 0 66 92 0 63 91 2 62 90 3 53 78 0 42 59 25 62 81 31 67 83 31 65 75 32 67 73 33 66 73 33 66 75 32 66 75 32 66 75 30 67 73 28 69 71 26 70 69 30 67 75 30 67 75 32 66 75 32 66 75 32 66 75 32 66 75 32 66 75 32 66 75 32 66 76 32 66 76 32 66 76 32 66 76 32 66 76 32 66 76 32 66 76 32 66 76 35 65 75 33 66 73 31 68 74 28 69 73 37 72 76 29 70 76 19 65 81 9 63 89 4 64 92 0 65 93 0 65 95 0 65 95 0 65 95 0 65 95 0 65 95 0 65 95 0 65 95 0 65 95 0 65 95 0 65 95 
0 65 95 0 65 95 0 64 94 0 65 95 1 64 95 0 65 95 0 65 95 0 65 97 2 65 96 2 65 96 0 65 95 2 63 92 7 57 84 0 42 66 9 41 64 8 39 59 20 53 68 30 64 74 34 67 76 39 68 76 37 66 72 38 65 72 36 65 71 37 66 72 36 67 72 36 67 72 36 67 72 36 67 72 35 66 71 36 67 72 36 67 70 36 67 72 36 67 72 36 67 72 36 67 70 37 68 73 36 67 72 36 67 72 36 67 70 36 67 70 37 66 70 37 66 70 34 68 70 34 67 72 37 66 74 37 66 74 36 66 76 29 69 77 20 69 86 9 67 89 1 65 92 0 63 94 0 66 98 0 66 98 1 65 93 1 65 92 0 65 93 0 66 95 0 65 95 0 65 95 0 64 94 0 65 95 0 65 95 0 65 95 0 65 93 0 65 93 1 66 94 0 66 93 1 65 93 0 65 93 0 65 93 1 66 96 0 63 96 1 66 98 4 65 93 7 57 82 5 41 65 9 40 61 4 37 54 19 53 63 32 67 73 33 66 71 40 71 74 36 67 70 37 69 66 37 68 70 37 69 68 37 69 68 38 69 74 38 68 76 39 70 75 37 68 73 37 68 73 37 68 73 37 68 71 37 68 73 37 68 73 37 68 73 37 68 73 37 68 73 35 68 73 36 67 72 37 68 73 38 69 74 35 69 71 36 69 74 37 68 71 34 68 69 36 68 63 35 66 71 32 66 76 23 68 87 8 65 92 1 66 96 1 66 96 0 65 95 1 66 96 1 66 96 1 66 96 1 66 96 0 65 95 0 65 95 0 65 95 0 65 95 0 65 95 0 65 95 0 65 95 0 65 95 0 65 93 0 65 93 1 65 93 1 65 93 0 65 93 0 65 93 0 65 93 0 65 93 0 66 92 4 64 88 6 52 75 6 44 65 1 44 61 6 42 58 26 58 69 36 66 74 37 66 70 36 67 70 36 65 73 38 65 74 38 65 74 37 66 70 36 68 63 34 68 67 37 66 70 36 66 74 36 66 74 36 66 74 36 67 72 36 67 72 36 67 72 36 67 72 36 67 72 36 67 72 36 67 72 36 67 72 37 66 72 36 67 72 36 67 72 37 66 70 38 66 69 37 67 69 34 68 69 34 68 69 35 70 66 29 66 74 17 64 84 6 63 90 1 65 93 1 66 96 2 65 96 1 66 96 1 66 96 1 66 96 1 66 96 1 66 96 0 65 95 0 65 95 0 65 95 0 65 95 
0 65 95 0 65 95 0 64 94 0 65 95 0 65 95 0 65 95 1 64 95 0 65 95 1 65 93 1 65 93 0 65 95 3 64 93 0 45 68 1 42 64 12 43 64 14 41 62 8 41 56 16 49 58 25 52 59 28 51 57 35 54 60 35 54 60 34 54 63 31 56 63 31 56 61 31 56 60 31 56 60 31 56 60 31 56 60 31 56 60 32 56 60 31 56 60 31 56 60 31 56 60 31 56 60 30 55 59 31 56 60 31 56 60 32 57 61 31 56 60 34 55 60 31 56 60 28 58 58 31 56 61 34 53 60 35 54 61 31 56 63 24 58 68 11 62 81 3 65 88 0 64 92 0 62 93 0 65 97 0 65 95 3 64 92 3 65 90 1 65 93 0 65 95 0 65 95 0 65 95 0 65 95 0 65 95 1 66 96 0 65 95 0 65 93 0 65 93 0 65 93 0 65 93 0 65 93 0 65 93 0 65 93 0 65 95 0 63 98 4 64 98 2 59 88 1 47 73 10 42 65 14 41 62 6 38 53 9 43 53 23 50 57 30 53 59 33 57 61 29 54 58 29 54 58 27 55 56 27 55 56 29 54 58 29 52 58 29 54 59 30 53 59 30 53 61 30 53 59 30 53 59 30 53 59 30 53 59 30 53 59 30 53 59 30 53 59 29 54 58 29 54 58 29 54 58 29 54 58 26 54 57 25 53 56 27 55 56 28 56 57 30 56 53 33 55 52 28 56 59 23 59 71 14 61 81 4 64 92 2 67 97 2 65 96 1 66 96 0 65 95 0 65 95 0 66 95 0 65 95 0 65 95 0 65 95 0 65 95 0 65 95 0 65 95 0 65 95 0 65 95 0 65 95 0 65 93 0 65 93 1 65 92 1 65 93 0 65 93 0 65 93 0 65 93 0 65 93 5 69 96 3 61 85 1 43 65 5 42 61 9 44 64 7 40 57 12 42 52 28 57 61 29 57 58 31 57 54 31 56 61 34 54 61 34 54 61 34 55 58 29 58 53 31 58 53 31 56 60 31 56 60 31 56 61 31 56 63 31 56 61 31 56 61 31 56 61 31 56 63 31 56 61 31 56 60 31 56 63 31 56 60 31 56 60 31 56 60 31 57 58 31 57 58 34 56 54 34 56 54 31 57 54 29 59 59 28 58 60 22 59 68 11 61 84 4 63 95 1 64 95 0 65 95 1 64 95 0 65 95 0 65 95 0 65 95 1 66 96 0 65 95 0 65 95 0 65 95 0 65 95 0 65 95 
0 65 95 0 65 95 0 65 95 0 65 95 0 66 95 0 65 95 0 65 97 0 65 95 0 63 91 0 63 93 0 61 92 5 64 94 2 57 78 1 43 65 7 42 64 11 39 60 9 38 56 11 37 52 17 35 49 19 36 44 23 38 45 23 38 45 17 35 39 18 37 43 19 40 43 21 39 43 21 39 43 21 39 43 23 38 43 21 39 43 21 39 43 21 39 43 21 39 43 21 39 43 21 39 43 21 39 43 21 39 43 21 39 43 21 39 43 21 39 43 21 38 46 20 39 46 19 39 46 20 39 46 25 38 46 18 31 39 22 37 42 17 44 55 11 62 83 1 65 93 1 64 95 1 64 97 2 65 96 2 65 96 4 65 93 4 65 93 1 65 93 0 65 95 0 64 94 0 65 95 1 64 95 0 65 95 0 65 95 0 65 95 0 65 93 0 65 93 0 65 93 0 65 93 0 65 93 0 65 93 0 65 93 1 64 95 3 62 96 6 60 96 6 61 91 5 55 78 7 41 66 12 40 62 12 40 62 13 41 55 21 40 47 19 34 39 18 36 40 17 35 39 20 35 42 19 36 44 19 36 44 19 36 44 19 36 43 18 36 40 18 36 40 18 36 40 19 37 41 19 36 43 19 36 43 19 36 43 19 36 43 19 36 43 18 35 42 19 36 43 19 36 43 22 37 44 19 36 43 18 36 40 23 41 43 23 39 38 24 38 38 20 34 35 22 36 39 18 38 45 12 49 67 14 62 85 2 63 92 0 66 95 1 64 95 1 64 95 0 63 94 0 63 94 0 63 94 2 65 96 0 65 95 0 65 95 0 65 95 0 65 95 0 65 95 0 65 95 0 65 95 0 65 95 0 65 95 0 64 92 1 65 93 0 64 89 0 65 93 0 63 91 0 66 92 1 66 94 0 63 94 6 63 92 6 52 76 1 37 61 10 41 62 13 40 59 13 41 52 17 41 45 20 38 38 17 36 34 16 36 35 15 35 36 18 37 41 18 37 43 18 39 40 20 38 40 20 38 42 20 38 42 20 38 42 20 38 42 20 38 42 20 37 44 20 37 44 20 37 44 20 37 44 20 37 44 19 36 43 20 37 44 20 37 44 20 37 44 20 37 44 20 38 42 23 39 38 22 38 37 16 34 38 16 35 39 14 39 46 21 54 71 8 62 86 0 63 94 0 63 94 2 63 94 0 63 94 0 63 94 2 65 96 0 62 93 2 67 97 0 63 94 0 65 95 0 65 95 0 65 95 0 65 95 
0 65 95 0 65 95 0 65 95 0 65 95 0 65 95 0 65 93 0 65 95 1 66 94 1 67 93 0 62 87 0 64 92 0 65 93 1 65 90 0 57 77 0 45 66 1 39 60 3 40 59 6 37 57 9 37 51 13 35 46 14 33 40 10 27 34 10 25 30 13 28 31 12 26 27 12 26 26 12 26 26 12 26 26 12 26 26 12 26 26 12 26 26 12 26 26 12 26 26 12 26 26 12 26 26 12 26 26 12 27 24 12 26 26 12 26 26 12 26 27 14 25 29 14 24 34 12 25 33 8 25 32 15 34 41 14 37 43 12 35 41 10 47 56 4 60 85 0 63 94 0 62 95 0 62 95 0 63 94 2 63 94 0 64 92 0 64 92 0 65 95 0 65 95 0 65 95 0 65 95 0 65 95 0 65 95 0 65 95 0 65 95 0 65 93 0 65 93 1 66 94 0 65 93 1 66 94 0 63 91 2 67 95 0 63 94 2 62 96 0 61 92 0 64 92 5 62 89 4 50 76 0 40 66 0 37 60 5 40 59 13 41 52 13 36 42 16 41 46 13 33 40 15 28 37 19 27 38 18 29 35 16 29 35 15 29 32 15 29 32 15 29 32 15 29 32 14 29 32 15 29 32 15 29 32 15 29 32 15 29 32 15 29 32 17 28 32 14 28 31 16 29 35 16 29 35 16 29 35 15 29 32 17 27 28 20 32 30 22 30 32 20 31 37 18 38 45 11 44 53 5 53 73 2 62 90 1 62 90 0 64 92 0 64 92 0 63 94 0 63 94 1 64 95 0 64 94 0 62 93 0 65 95 0 65 95 0 65 95 0 65 95 0 65 95 0 65 95 0 65 95 0 65 95 0 65 97 0 64 94 1 65 93 1 65 92 0 65 93 2 66 94 0 67 94 0 65 93 1 62 93 2 63 92 9 60 89 3 49 75 3 39 63 3 40 59 3 39 55 6 39 48 13 42 46 15 41 42 11 32 35 12 30 32 13 28 31 13 29 28 14 28 31 14 28 31 14 28 31 14 28 31 14 28 31 14 28 31 14 28 31 14 28 31 14 28 31 14 28 31 14 28 31 14 28 29 14 28 31 14 28 31 15 28 34 15 28 34 15 28 34 14 28 31 14 28 28 14 28 31 12 32 39 10 37 46 4 38 48 8 54 70 6 66 92 0 64 92 0 63 94 0 63 94 0 63 94 0 63 94 0 63 94 0 63 94 0 65 95 0 63 94 0 65 95 0 65 95 0 65 95 0 65 95 
0 65 95 0 65 95 0 64 94 0 65 95 0 65 95 0 65 95 0 65 95 0 65 93 0 65 89 1 71 96 1 76 99 0 76 100 0 76 100 4 74 99 2 67 87 0 60 79 2 60 82 6 58 79 10 57 75 14 56 70 37 67 77 71 92 97 76 91 88 82 92 93 80 89 88 80 89 88 80 89 88 80 89 88 80 89 88 80 89 88 80 89 88 80 89 88 80 89 88 80 89 88 79 88 87 80 89 88 80 89 88 80 89 88 80 89 88 80 89 88 83 87 86 83 87 88 82 87 93 73 90 97 47 84 90 15 64 69 12 61 75 6 64 78 6 72 96 0 73 100 0 73 100 0 73 100 3 74 106 0 75 104 0 75 104 2 73 103 0 67 96 0 65 95 0 65 95 0 64 94 0 65 95 0 65 95 0 65 95 0 65 95 0 65 93 0 65 93 0 65 93 0 65 95 0 65 93 0 64 92 1 67 93 1 65 93 3 74 102 1 75 102 1 75 102 4 75 103 8 73 101 3 65 86 1 61 85 6 65 83 9 60 77 12 60 74 11 61 70 35 76 82 75 89 98 83 86 95 82 87 90 80 89 88 80 89 88 80 90 91 79 89 90 79 89 90 79 89 90 78 90 90 79 89 90 79 89 90 80 89 88 80 89 88 80 89 88 79 88 87 80 88 90 80 89 88 80 89 88 80 89 88 79 87 89 79 89 90 79 94 97 45 72 79 12 56 65 7 65 79 4 71 88 0 73 92 0 73 98 0 75 101 0 74 101 0 73 100 2 73 101 6 75 104 6 73 102 1 66 96 0 65 95 0 65 95 0 65 95 0 65 95 0 65 95 0 65 95 0 65 95 0 65 95 0 65 95 0 63 94 1 64 95 1 65 92 0 63 91 0 65 93 0 70 96 6 73 100 0 72 97 5 72 99 7 71 99 8 69 97 2 60 84 4 58 82 4 58 82 8 59 80 14 63 80 18 56 69 58 81 87 77 91 92 81 85 84 83 85 82 77 88 84 76 88 86 77 87 86 77 87 89 77 86 91 77 87 89 77 87 89 77 87 89 78 88 90 78 88 90 76 86 85 77 87 86 77 87 86 77 87 86 77 87 86 77 87 86 77 87 86 77 87 89 80 85 91 70 87 95 22 60 73 8 61 75 1 63 76 2 69 85 5 72 98 0 69 98 0 72 99 1 72 100 1 72 100 1 72 100 0 73 100 1 72 100 1 68 95 1 66 94 0 65 95 0 65 95 0 65 95 0 65 95 
0 65 95 0 66 95 0 65 95 0 65 95 0 64 94 0 64 92 4 64 92 4 64 90 0 54 80 16 87 109 8 85 101 7 88 109 7 87 110 11 88 114 13 87 112 17 87 112 20 86 110 18 84 106 20 85 103 29 82 98 64 100 114 157 180 186 164 175 169 170 170 160 172 174 161 177 173 161 176 172 161 176 172 160 173 173 161 172 174 161 173 173 161 173 173 161 176 174 162 176 174 162 173 173 161 172 174 161 173 174 160 173 174 160 173 174 160 176 172 160 178 170 157 176 172 160 172 172 170 159 177 179 108 156 160 20 80 90 22 84 99 18 83 105 14 84 109 10 84 111 11 85 112 10 84 111 12 88 114 9 86 114 7 87 114 9 86 114 5 77 102 1 66 96 0 65 95 0 65 95 0 64 94 0 65 95 0 65 95 0 65 95 0 65 93 0 65 93 1 66 94 1 65 93 1 62 90 8 68 94 0 59 85 0 63 89 10 86 110 8 90 114 11 88 114 11 88 114 13 87 112 14 86 111 15 85 110 18 86 109 19 81 102 25 87 102 15 79 89 77 125 135 159 176 184 172 172 174 173 173 163 176 172 160 173 173 161 173 173 161 173 173 161 172 174 161 172 174 163 172 174 163 175 172 163 178 171 163 176 172 161 176 172 160 173 174 160 173 174 160 173 174 160 176 172 160 176 172 160 176 174 162 175 175 167 170 170 168 168 186 188 86 123 131 18 77 91 15 88 107 13 90 110 7 85 108 7 88 109 11 87 111 10 88 111 11 87 111 9 85 109 16 87 115 13 84 114 5 71 103 0 65 95 0 65 95 0 65 95 0 65 95 0 65 95 0 65 95 0 65 95 0 65 95 0 65 95 0 63 94 1 65 92 4 64 92 5 62 89 1 59 81 3 68 96 20 85 113 17 87 112 12 87 110 14 88 113 14 86 111 16 87 109 20 86 110 18 84 110 20 84 111 24 86 107 26 75 92 122 149 158 173 182 181 178 171 163 180 170 158 176 172 160 173 174 160 175 173 160 173 173 161 171 174 163 172 174 163 173 173 161 173 173 161 173 173 161 173 173 161 173 173 161 172 174 161 173 174 160 176 172 160 176 174 162 176 174 162 176 172 160 174 174 166 173 173 175 160 177 187 57 104 122 7 78 98 12 88 104 9 86 104 9 86 106 11 87 110 11 87 111 12 88 114 12 86 113 14 85 113 11 87 113 8 84 110 0 69 95 0 64 92 0 65 97 0 65 95 0 65 95 0 65 95 
0 65 95 0 65 95 2 65 96 0 65 95 1 66 94 4 64 90 13 59 82 0 42 64 1 53 75 19 84 106 12 83 101 11 90 105 11 89 109 11 87 111 14 83 114 15 87 112 14 89 110 12 87 106 9 84 103 14 79 97 49 95 111 144 169 176 167 167 157 172 157 134 179 162 134 181 161 128 184 159 128 181 161 128 176 163 131 170 159 127 166 152 125 178 163 134 179 159 134 177 155 131 176 162 135 168 157 127 174 160 123 169 153 117 176 160 124 176 153 121 178 154 116 175 156 126 164 155 140 161 176 173 102 147 152 22 81 95 23 81 103 24 84 110 18 84 110 16 88 113 15 87 112 13 87 112 13 83 109 9 83 110 6 86 111 8 89 116 8 78 104 0 63 94 0 65 95 1 66 96 0 65 95 0 65 95 1 66 96 0 65 95 1 66 96 1 66 96 1 66 96 3 64 92 12 62 85 11 56 79 0 41 63 5 64 82 8 82 107 4 84 109 11 87 111 11 83 107 13 84 106 12 84 106 13 83 108 17 81 106 23 85 108 23 86 101 16 82 96 75 125 136 159 174 181 171 164 156 173 159 133 174 158 124 175 161 126 176 161 128 175 162 128 174 161 127 157 152 120 166 156 129 177 161 136 178 158 131 179 156 125 177 159 123 173 160 125 168 155 121 178 160 124 177 161 125 179 160 127 179 159 134 176 159 139 167 163 151 157 176 174 73 116 125 13 78 96 7 85 108 7 85 108 7 85 107 11 86 105 13 88 107 12 89 109 12 87 108 21 88 114 15 80 108 19 85 119 2 71 104 0 65 95 0 63 94 0 63 94 0 63 94 0 65 95 0 65 95 0 65 95 0 65 95 0 66 95 0 64 92 4 68 95 10 64 88 5 47 72 0 38 61 7 67 93 15 85 111 14 84 109 13 84 106 15 85 110 15 85 110 14 85 107 15 86 108 16 87 109 16 87 109 15 86 108 22 78 95 115 144 150 167 171 170 168 155 138 180 156 128 178 157 126 177 159 123 185 165 128 176 160 124 168 157 129 168 157 127 176 161 130 179 160 128 177 160 130 176 161 130 175 161 134 173 159 130 172 156 123 180 157 123 182 158 130 186 162 134 182 159 127 175 159 136 169 161 158 147 164 174 42 100 120 7 83 106 10 85 104 10 86 102 9 86 102 7 86 103 9 85 108 10 84 109 13 83 109 13 82 111 11 87 113 14 88 117 1 68 97 0 65 97 0 65 97 0 65 97 0 65 95 0 65 95 
0 65 95 0 65 95 1 66 96 0 65 97 0 63 91 5 61 88 6 44 65 2 43 61 2 53 74 20 82 105 8 75 92 5 74 90 6 75 91 6 75 91 7 71 98 8 72 99 8 76 97 8 76 95 4 77 94 8 73 91 51 98 116 152 172 179 160 157 140 155 135 100 143 119 71 146 119 64 148 119 63 145 120 64 138 118 67 155 139 90 146 128 80 133 111 61 146 118 71 143 116 69 140 122 76 155 141 92 148 127 72 137 115 57 138 113 56 142 116 59 141 109 50 147 120 73 163 151 125 165 176 170 105 145 153 15 77 92 12 68 93 10 67 94 9 71 94 7 72 92 7 72 90 9 71 94 10 72 95 6 70 97 0 76 99 6 84 106 8 78 104 0 63 94 0 65 95 1 66 96 0 65 95 1 66 96 0 65 95 0 65 95 1 66 96 1 66 96 1 66 96 4 64 92 11 53 75 4 40 62 4 40 62 11 59 81 16 87 109 0 75 99 6 72 96 8 73 93 7 73 89 7 72 92 10 70 94 10 70 94 7 68 86 11 72 90 12 78 94 76 124 138 164 175 179 165 153 139 153 132 87 143 118 61 140 118 61 140 119 62 140 120 61 136 119 63 161 148 103 132 119 75 137 115 68 144 116 66 147 116 61 149 118 61 167 147 96 131 113 63 136 114 56 139 115 55 140 113 58 139 112 67 153 130 96 168 157 139 159 175 172 78 121 130 9 74 92 1 77 101 0 74 97 3 74 96 6 72 88 7 73 85 5 74 89 6 73 90 10 73 91 12 72 96 17 82 114 2 71 104 0 63 94 0 63 94 0 63 94 0 63 94 0 65 95 0 67 96 0 65 95 0 65 95 1 66 96 0 63 94 4 68 95 7 59 81 11 43 66 4 36 59 11 68 95 17 83 109 8 70 91 6 71 89 6 71 91 5 70 88 6 71 89 6 71 89 6 71 89 3 69 91 6 77 99 15 74 90 110 139 147 165 167 162 170 153 125 154 127 84 142 114 64 143 117 60 143 117 56 142 120 62 147 129 83 159 142 98 141 120 67 142 120 63 142 120 63 141 119 69 150 133 90 166 145 102 136 111 57 148 115 61 150 117 64 145 112 59 142 112 58 159 137 96 170 161 146 151 168 176 42 103 124 3 81 104 6 74 95 6 73 89 4 76 88 3 77 90 6 74 95 6 72 96 8 72 97 8 72 99 7 74 101 11 82 110 1 68 97 0 65 97 0 64 99 0 65 97 0 65 97 0 65 95 
0 65 95 0 65 95 3 66 97 0 65 95 0 63 91 4 60 87 0 38 59 3 44 62 0 50 75 23 81 105 11 70 88 3 61 75 9 62 80 9 62 80 7 57 80 9 61 82 10 63 79 7 65 79 5 67 88 6 68 83 55 97 109 157 175 175 163 161 136 174 156 110 202 182 113 204 181 103 206 181 101 204 182 106 204 187 118 188 173 106 195 178 106 200 182 108 214 191 115 206 184 111 196 180 120 184 174 112 204 186 114 203 184 107 202 181 98 206 184 101 213 185 102 193 168 102 161 150 118 165 175 167 105 148 155 19 78 96 10 64 88 6 63 82 7 63 80 7 63 76 7 63 76 9 62 78 11 63 77 7 64 81 0 65 79 12 81 97 11 78 104 0 62 93 0 65 95 1 66 96 0 65 95 0 64 94 1 64 95 0 65 97 1 66 96 1 66 96 1 66 96 4 64 92 6 51 74 0 36 58 6 42 64 12 57 78 23 83 107 2 67 85 5 62 81 9 62 78 8 61 77 8 61 77 8 59 76 8 59 76 4 57 73 10 63 79 10 71 89 76 119 135 164 169 173 170 153 133 185 163 103 212 187 105 205 184 105 202 184 102 200 185 102 201 185 108 182 170 112 192 177 120 205 185 112 202 180 95 206 182 94 205 180 98 186 168 106 199 183 121 207 188 111 208 188 102 209 186 106 206 186 117 182 166 117 164 159 130 152 172 163 89 128 135 14 73 89 2 70 91 2 63 84 9 61 82 8 61 75 9 62 76 6 64 78 6 64 78 8 66 80 11 70 88 18 82 110 5 71 105 1 66 96 0 65 95 0 65 95 0 65 95 0 65 95 0 65 95 0 65 95 0 65 95 0 65 93 0 66 92 4 65 93 0 50 75 9 41 66 3 38 60 14 71 98 15 81 103 6 63 82 9 60 77 9 60 77 9 60 77 9 60 77 8 59 76 8 59 76 5 61 78 4 70 92 13 70 87 111 138 147 168 171 162 163 147 114 194 169 113 211 184 115 204 181 105 203 182 93 202 184 102 193 179 118 182 170 112 201 183 111 204 185 106 203 184 105 201 183 111 190 175 120 181 164 108 203 181 108 206 181 99 213 186 99 213 185 102 209 182 103 175 156 97 167 159 138 152 170 174 48 105 124 3 78 101 4 65 84 7 64 81 7 65 79 3 65 78 6 65 81 7 64 83 7 64 84 7 63 88 4 70 94 12 84 108 0 69 95 0 64 92 0 65 95 0 65 95 0 65 95 0 65 95 
0 65 95 0 65 95 1 64 95 0 65 95 0 62 90 5 61 88 6 44 65 2 43 61 0 49 72 25 81 106 15 70 91 11 58 76 15 62 78 18 61 78 14 60 76 16 59 76 14 60 75 14 62 74 10 66 81 15 68 82 63 103 111 153 173 172 158 157 129 179 168 114 254 237 159 255 237 142 255 236 141 254 237 147 254 241 163 199 187 113 235 219 141 255 244 155 255 237 143 255 236 149 250 238 164 195 185 114 233 216 134 254 237 147 253 234 139 253 234 132 254 234 135 228 207 128 160 151 110 155 167 157 101 144 153 17 76 94 12 69 88 9 65 80 15 64 78 16 62 75 14 64 73 14 63 77 13 61 73 11 63 77 0 62 71 18 84 98 11 78 104 0 63 94 0 65 95 1 66 96 0 65 95 0 65 95 0 65 95 0 65 95 1 66 96 1 66 96 1 66 96 4 64 92 11 56 79 4 40 62 4 40 62 11 56 77 25 82 101 10 69 87 9 60 77 11 58 74 12 61 75 12 61 75 13 60 76 13 60 76 13 62 77 15 68 84 13 71 91 75 118 135 169 170 174 167 151 125 207 183 111 254 244 149 255 236 141 253 237 139 253 237 139 252 238 149 193 182 118 243 229 164 255 236 147 255 240 137 255 236 133 250 229 136 198 181 112 246 231 166 255 240 149 255 242 140 253 241 141 255 238 156 202 186 127 158 153 121 159 175 165 86 120 129 18 73 93 12 70 90 11 62 83 12 58 74 15 61 76 18 62 75 14 63 78 12 64 78 9 62 76 10 66 83 17 83 107 5 72 101 1 66 96 0 65 95 0 65 95 0 65 95 0 65 95 0 65 95 0 65 95 0 65 95 1 66 94 0 66 93 3 64 92 0 46 70 8 40 65 5 41 63 14 71 100 17 79 100 13 64 85 17 63 79 17 63 79 16 62 78 16 62 78 14 60 76 14 60 76 11 62 79 3 69 91 11 70 88 112 141 149 171 173 160 162 148 103 229 206 138 254 243 161 254 234 137 255 236 131 255 242 148 233 217 155 193 181 121 254 238 153 255 239 143 255 240 139 254 238 151 231 215 156 201 182 124 255 240 155 254 241 139 255 241 136 255 238 134 255 240 145 186 169 99 166 159 133 152 170 172 48 105 122 7 75 98 7 64 83 14 61 79 13 62 77 13 62 77 13 62 77 13 62 79 13 61 81 8 63 83 7 69 90 15 83 106 0 69 94 0 66 92 0 65 95 0 65 95 0 65 95 0 65 95 
0 65 95 0 65 95 1 66 96 0 65 95 4 68 96 4 60 87 1 42 62 3 44 62 0 52 76 21 81 105 16 68 89 12 61 78 15 61 76 15 61 77 15 61 77 15 61 74 18 60 72 15 59 72 11 63 77 20 69 83 63 100 108 152 172 171 159 158 128 186 171 114 249 233 145 253 234 131 255 233 131 252 233 139 250 234 157 192 180 106 229 214 131 253 238 145 253 234 132 251 232 138 246 234 160 191 181 109 230 216 128 251 235 140 249 234 131 251 232 127 255 236 131 226 206 119 163 152 107 162 174 162 101 144 153 17 76 94 11 67 84 10 66 81 13 62 76 13 62 76 13 62 76 13 62 76 12 61 76 8 64 77 4 66 79 15 81 97 10 76 102 0 62 93 0 63 94 0 65 95 0 65 95 0 64 94 0 65 95 0 65 95 1 66 96 1 66 96 2 67 97 4 64 92 11 56 79 4 40 62 4 40 62 12 57 78 24 83 101 6 67 85 9 62 80 11 60 75 13 62 76 13 63 74 14 61 77 13 62 79 12 63 80 14 70 87 11 73 96 74 119 142 165 173 176 162 148 122 204 186 110 255 242 140 250 231 128 253 236 132 253 236 132 246 231 138 186 172 107 238 223 156 255 232 136 255 231 121 255 235 123 246 226 129 194 176 110 243 229 164 253 236 144 250 233 125 251 232 127 253 236 144 197 181 119 159 155 117 158 174 164 82 115 124 21 72 91 15 67 89 16 61 80 17 60 76 15 61 74 14 62 72 13 62 76 13 62 76 11 63 76 7 69 82 14 87 106 0 76 100 1 66 96 0 65 95 0 65 95 0 65 95 0 65 95 0 65 95 0 65 95 0 65 95 1 67 99 0 63 94 4 66 89 1 51 76 9 41 64 2 37 59 8 68 94 16 81 103 11 64 82 14 61 79 14 61 79 14 61 79 14 61 79 14 61 79 14 61 79 10 63 81 3 68 90 21 78 97 109 139 147 169 173 158 164 150 103 224 202 126 255 237 142 251 233 123 254 237 123 254 238 142 227 211 149 192 180 120 252 238 150 249 235 130 249 235 128 253 238 145 225 211 150 195 176 118 255 235 146 255 235 128 255 231 121 255 231 123 255 237 135 184 166 92 160 156 127 151 171 170 48 106 120 5 73 94 11 62 81 14 59 78 17 61 74 17 61 74 17 61 74 15 61 74 15 60 79 11 62 81 8 70 91 15 83 106 0 69 94 0 66 92 0 65 95 0 65 95 0 65 95 0 65 95 
0 65 95 0 64 94 2 67 97 0 65 95 3 67 95 4 60 87 1 42 62 2 43 61 0 52 76 20 82 107 16 68 89 12 61 78 14 61 77 15 61 76 14 62 76 15 61 76 18 60 72 15 59 72 11 63 77 18 70 83 63 100 106 152 172 170 158 159 128 183 173 112 249 234 141 253 235 125 254 233 126 252 233 138 249 233 158 192 179 109 229 214 131 252 240 142 255 234 129 251 233 133 246 232 157 193 181 107 230 215 124 251 236 135 251 234 128 250 232 124 255 237 129 227 205 119 163 152 107 162 174 162 101 144 153 14 76 91 12 67 87 13 64 81 13 62 77 13 62 76 12 64 77 11 63 77 12 61 76 10 63 79 3 65 76 15 81 97 10 76 102 0 63 94 0 63 94 0 65 95 0 65 95 0 65 95 0 65 95 0 65 95 1 66 96 1 66 96 1 66 96 4 64 92 11 56 79 3 39 61 4 40 62 12 57 78 24 83 101 8 66 86 10 63 79 11 60 75 13 62 76 13 62 76 14 61 77 13 62 77 8 66 78 12 69 86 12 72 96 74 121 139 166 174 177 161 150 120 204 186 110 254 243 138 252 231 126 254 236 128 254 238 127 247 231 136 186 171 104 241 224 155 253 233 134 255 231 121 255 235 123 246 226 129 194 176 110 242 227 160 253 237 141 250 234 123 253 232 123 254 238 142 197 183 118 159 155 117 158 173 166 82 115 124 19 70 89 15 67 89 15 61 77 17 61 74 14 62 74 13 63 74 13 62 76 13 62 76 11 63 76 9 68 82 12 87 106 1 77 100 1 66 96 0 65 95 0 65 95 0 65 95 0 65 95 0 65 95 0 65 95 0 65 95 0 66 98 0 62 93 4 66 89 1 51 76 9 41 64 2 37 59 8 68 94 16 81 103 9 64 84 14 61 79 14 61 79 14 61 79 14 61 79 14 61 79 14 61 79 9 62 80 5 67 90 20 77 94 110 139 147 168 172 157 164 150 103 225 203 127 254 240 135 251 234 120 255 235 120 255 236 141 225 211 148 194 179 120 253 240 148 249 235 128 250 237 125 252 240 142 225 209 147 195 177 115 254 235 141 254 236 126 255 232 120 254 230 120 255 239 135 182 166 89 161 158 127 150 170 169 46 104 116 5 71 93 11 62 79 14 60 76 16 62 77 17 61 74 17 61 70 15 61 74 14 60 76 11 62 81 8 70 93 13 83 108 0 69 95 0 65 93 0 65 95 0 65 95 0 65 95 0 65 95 
0 65 95 0 65 95 1 66 96 0 65 95 3 67 95 4 60 87 1 42 62 4 42 61 0 52 74 22 80 104 16 68 89 9 62 80 13 62 79 14 62 76 13 62 79 14 61 79 14 61 77 11 60 75 6 65 79 15 71 84 61 99 110 152 172 171 161 157 132 186 171 114 249 234 141 253 236 120 255 235 123 252 234 134 248 234 161 192 177 110 228 213 128 252 240 142 255 235 130 251 233 133 246 233 155 191 182 103 230 218 120 252 238 131 251 234 128 251 232 127 255 237 135 225 207 125 161 152 111 162 174 162 101 145 154 16 75 91 12 68 85 13 64 85 13 62 76 13 62 77 11 63 77 10 63 77 10 61 78 11 64 80 2 65 80 14 81 98 10 76 102 0 63 94 0 63 94 0 65 95 0 65 95 0 65 95 0 65 95 0 65 95 1 66 96 1 66 96 1 66 96 4 64 92 11 56 79 4 40 62 4 40 62 13 58 79 22 84 99 6 69 84 7 63 76 9 61 74 13 62 76 13 62 76 14 62 76 13 62 76 12 64 75 12 70 82 12 73 91 75 118 134 168 174 174 163 149 120 205 185 112 254 240 141 252 230 131 253 235 133 253 236 132 246 231 136 186 174 100 240 228 154 252 234 136 253 232 125 255 234 132 248 225 132 195 178 106 243 231 155 253 238 135 250 234 123 250 233 119 253 237 141 197 183 118 159 153 117 158 175 167 83 115 126 19 70 91 10 68 92 12 63 80 13 62 76 11 63 76 11 63 76 13 62 77 14 61 77 13 62 77 11 66 86 15 85 110 0 76 102 1 66 96 0 65 95 0 65 95 0 65 95 0 65 95 0 65 95 0 65 95 0 65 95 0 66 98 0 63 94 5 65 91 3 50 76 9 41 64 3 38 60 12 69 96 16 81 103 8 63 83 13 62 79 13 62 79 13 62 79 13 62 79 13 62 79 13 62 79 11 62 81 2 69 88 20 78 92 110 139 147 168 172 158 164 150 105 224 202 127 254 239 138 250 234 121 253 235 125 252 236 141 227 212 145 194 181 111 252 237 142 249 235 126 248 237 122 252 241 136 225 210 141 194 176 110 255 236 142 255 235 126 255 231 121 255 231 123 255 238 134 183 167 89 164 157 128 150 170 169 46 104 116 5 73 94 7 64 81 13 62 77 13 62 76 13 63 74 13 63 74 14 62 76 12 61 78 8 63 83 6 70 95 13 83 109 0 68 99 0 64 99 0 65 95 0 65 95 0 65 95 0 65 95 
0 65 95 0 65 95 1 66 96 0 65 95 3 67 95 4 60 87 1 42 62 4 42 61 0 50 75 23 81 105 16 68 90 9 60 77 13 62 79 13 62 79 14 61 79 13 62 79 13 62 77 8 59 76 5 64 82 18 71 87 62 100 113 152 172 171 161 159 134 185 170 113 250 234 136 252 237 120 253 236 120 252 234 132 247 233 158 191 178 108 228 213 128 252 238 139 250 236 127 251 233 131 246 233 154 193 182 100 229 217 119 252 238 129 251 234 126 250 233 127 255 237 137 225 206 129 161 152 113 162 173 165 100 145 151 14 73 89 12 68 85 12 63 82 13 62 79 11 63 77 13 62 77 13 62 77 12 61 78 8 64 79 2 65 80 14 81 98 10 76 102 0 63 94 0 63 94 0 65 95 0 65 95 0 65 95 0 65 95 0 65 95 1 66 96 1 66 96 1 66 96 4 64 92 10 55 78 3 39 61 4 40 62 13 58 79 22 84 99 7 70 85 7 63 78 11 60 74 13 62 76 13 62 77 13 62 76 14 62 76 14 64 75 16 70 80 15 73 87 76 120 129 165 174 171 163 149 120 205 185 112 254 240 141 250 230 131 253 235 133 253 236 132 245 230 135 186 174 100 239 227 153 252 234 136 253 232 125 255 234 132 248 225 132 195 179 104 243 232 153 253 238 135 250 235 120 250 234 121 254 235 140 197 182 117 159 155 120 159 174 167 82 116 126 16 71 91 9 69 93 8 66 80 11 63 76 13 62 76 11 63 76 14 61 77 14 61 79 14 61 79 11 66 87 16 83 109 1 75 102 1 66 96 0 65 95 0 65 95 0 65 95 0 65 95 0 65 95 0 65 95 0 65 95 0 66 98 0 63 94 5 65 91 3 50 76 8 40 63 3 38 60 10 70 94 15 79 104 10 63 79 13 62 77 13 62 79 13 62 79 13 62 79 13 62 79 13 62 79 10 63 79 3 68 86 19 77 89 109 136 143 168 172 157 166 149 105 224 202 127 254 239 138 248 235 123 253 235 125 252 236 141 227 212 145 194 181 111 251 236 141 249 236 124 249 236 122 252 241 136 222 212 140 192 180 108 252 235 143 254 236 128 253 232 123 249 231 123 255 237 135 183 167 90 164 157 128 150 170 169 46 104 116 5 73 94 7 64 81 12 61 76 11 63 76 11 64 72 11 64 70 11 63 76 11 62 79 8 63 83 6 70 95 13 82 111 0 68 99 0 65 97 0 65 95 0 65 95 0 65 95 0 65 95 
0 65 95 0 65 95 0 65 95 1 64 95 4 65 94 9 58 88 7 42 64 4 41 60 0 52 74 23 81 105 16 69 87 9 60 77 14 61 77 14 61 77 15 62 78 14 61 77 13 62 77 8 59 76 5 64 80 17 70 86 60 97 113 161 179 181 164 158 134 182 165 109 250 234 139 250 239 121 255 236 118 250 236 127 241 232 153 190 182 107 229 220 129 250 238 138 249 235 126 252 238 131 251 236 155 198 187 108 232 221 129 252 239 134 247 234 122 252 236 125 253 235 127 223 206 126 157 146 116 165 174 173 100 145 151 15 74 88 12 69 80 12 64 77 13 62 77 14 61 79 13 62 77 13 62 77 13 60 76 11 62 79 3 65 80 15 80 98 10 75 103 0 64 92 0 65 93 1 66 96 1 66 96 1 66 96 1 66 96 1 66 96 1 66 96 1 66 96 1 66 96 4 64 92 11 56 79 4 40 62 4 40 62 12 57 78 23 84 102 4 67 84 8 61 75 13 61 75 14 61 77 14 61 77 14 61 77 14 62 76 15 64 71 16 71 78 14 74 84 76 121 127 165 175 176 156 144 118 204 187 109 255 237 135 250 231 128 252 231 126 251 233 125 247 231 136 190 175 108 236 218 152 251 231 136 255 231 121 255 236 124 246 226 129 196 178 106 241 229 155 249 234 131 251 236 119 252 234 124 251 232 138 203 181 121 161 152 121 164 177 170 83 117 127 16 71 92 10 70 94 10 65 85 14 63 78 13 62 76 14 62 76 14 61 77 14 60 76 14 61 77 11 66 86 14 85 107 1 75 100 1 66 96 0 65 95 0 65 95 0 65 95 0 65 95 0 65 95 0 65 95 0 65 95 0 66 98 0 63 94 5 65 91 3 50 76 7 39 62 3 38 60 10 70 96 15 79 104 10 62 83 14 61 77 14 61 77 15 61 77 14 61 77 14 61 77 14 61 77 10 63 79 3 68 86 21 77 90 110 137 144 169 171 157 158 144 95 225 204 125 254 237 131 251 236 119 252 237 120 252 236 140 227 213 152 195 184 122 246 236 139 249 238 123 249 238 122 246 237 132 219 211 136 187 179 106 250 234 139 247 229 121 251 234 126 245 231 124 248 234 129 183 169 96 164 159 129 153 169 169 45 103 115 4 70 92 11 62 81 14 60 76 15 61 76 14 62 72 14 62 76 13 62 76 13 62 77 10 63 81 6 71 93 13 83 108 0 70 95 0 66 92 0 65 95 0 65 95 0 65 95 0 65 95 
0 65 95 0 65 95 0 65 95 1 64 95 4 65 94 8 57 87 7 42 64 4 41 60 0 52 74 22 82 106 16 69 87 12 61 78 14 61 79 15 61 76 14 62 76 13 61 75 14 63 78 8 59 76 6 65 81 18 69 88 59 95 111 150 170 169 165 157 136 184 168 119 252 240 158 253 243 146 254 240 143 255 239 152 250 241 174 184 180 116 220 212 139 252 240 156 249 233 145 253 236 156 252 236 174 193 179 118 227 215 139 249 239 154 255 239 151 250 233 143 255 244 155 230 211 142 157 145 119 165 175 176 98 144 157 15 74 88 12 69 80 14 64 75 14 61 77 15 60 79 13 62 77 13 62 77 13 60 76 11 62 79 6 63 80 16 81 101 9 76 103 0 63 91 0 65 93 1 66 96 1 66 96 1 66 96 1 66 96 1 66 96 1 66 96 1 66 96 1 66 96 4 64 92 11 56 79 4 40 62 4 40 62 12 57 78 22 83 104 5 66 85 10 59 76 13 59 75 14 61 79 14 61 79 14 61 77 14 62 76 16 63 71 19 69 78 16 73 84 76 121 127 168 177 182 161 149 123 205 188 118 254 238 150 253 236 148 252 235 147 252 235 147 251 233 157 185 172 119 242 229 176 252 235 157 254 230 142 255 236 144 246 227 148 184 172 112 241 229 169 252 237 154 253 238 145 254 237 147 253 234 158 207 186 131 160 151 118 163 176 169 84 117 126 20 71 90 13 69 94 13 64 85 15 62 78 14 62 76 14 62 76 15 61 77 15 61 77 14 61 77 11 66 86 17 85 108 1 75 100 1 66 96 0 65 95 0 65 95 0 65 95 0 65 95 0 65 95 0 65 95 0 65 95 0 66 98 0 63 94 5 65 91 3 50 76 7 39 62 3 38 60 10 70 96 14 78 103 10 63 79 14 62 76 14 62 76 14 62 76 14 62 74 14 62 76 14 62 76 11 62 79 6 67 88 24 77 95 110 137 144 169 171 157 159 146 101 222 202 131 255 237 150 253 237 142 255 240 145 253 240 162 224 214 165 188 177 131 249 241 160 252 242 145 254 241 145 249 242 154 221 217 154 183 177 115 254 241 163 252 235 147 253 239 150 253 239 150 255 241 156 178 168 99 164 158 132 153 169 169 46 104 118 4 70 92 11 62 81 17 60 77 15 61 74 15 61 74 14 62 76 14 62 76 13 62 76 10 63 79 6 71 93 13 83 108 0 71 93 0 66 92 0 65 95 0 65 95 0 65 95 0 65 95 
0 65 95 0 65 95 0 65 95 1 64 95 4 65 94 8 57 87 7 42 64 4 41 60 0 52 74 22 82 106 16 69 87 12 61 78 14 61 77 15 61 76 14 62 76 14 62 76 12 61 76 8 59 76 5 67 82 18 69 86 59 95 111 149 169 170 167 161 137 173 158 117 209 198 144 208 197 141 211 195 146 210 195 152 207 199 160 178 175 134 192 185 141 210 199 154 208 193 150 208 192 156 206 192 165 182 171 141 193 185 138 205 195 144 216 197 154 210 191 148 215 193 146 196 176 139 163 150 131 167 177 179 98 144 160 16 74 96 14 67 81 16 66 75 14 62 76 15 60 79 13 62 77 13 62 76 12 61 76 11 62 79 6 63 80 15 80 100 10 75 103 0 64 92 0 65 93 1 66 96 1 66 96 1 66 96 1 66 96 1 66 96 2 67 97 1 66 96 2 67 97 5 65 93 11 56 79 3 39 61 4 40 62 12 57 78 22 83 104 5 66 85 10 59 76 13 59 75 14 61 79 14 61 79 14 61 77 14 62 76 15 63 75 19 68 82 16 71 91 76 120 131 168 179 175 160 148 124 188 167 120 215 194 137 209 193 144 207 193 146 206 194 144 206 193 148 178 169 136 207 196 168 209 189 154 209 188 145 216 195 150 205 193 145 180 170 134 201 193 157 209 196 151 209 195 146 209 195 148 212 196 147 186 165 122 165 154 124 160 173 164 84 117 126 19 70 89 10 68 92 12 63 82 13 62 79 14 62 76 13 62 76 14 60 76 14 60 76 14 61 77 11 66 87 15 86 108 2 76 101 1 66 96 0 65 95 0 65 95 0 65 95 0 65 95 0 65 95 0 65 95 0 65 95 0 66 98 0 63 94 5 65 91 3 50 76 8 40 63 4 39 61 11 71 97 15 79 104 10 63 79 14 62 76 14 62 76 14 62 76 14 62 76 14 62 76 14 62 76 11 62 79 5 67 90 23 76 94 110 137 144 169 170 162 162 147 114 200 176 128 220 198 151 214 191 147 214 195 152 210 196 157 192 185 159 176 169 141 205 197 150 209 199 140 209 199 140 206 198 149 190 190 156 175 172 141 211 196 155 211 190 143 209 197 145 210 201 146 212 202 143 169 158 112 166 159 140 154 167 173 46 102 117 4 70 92 11 62 81 17 60 77 15 61 76 15 61 76 14 62 76 14 62 76 13 62 76 10 63 77 6 71 91 13 83 108 0 71 93 0 66 90 0 66 92 0 65 95 0 65 95 0 65 95 
0 65 95 0 65 95 0 65 95 1 64 95 4 65 94 8 57 87 7 42 64 4 41 60 1 53 75 22 82 106 16 69 87 12 61 78 14 61 77 15 61 76 14 62 76 14 62 76 13 62 77 8 59 76 6 65 81 18 69 86 59 95 111 156 174 176 171 163 142 158 140 100 131 117 68 131 118 66 134 117 71 132 117 74 121 114 72 157 154 113 142 135 91 130 119 74 134 119 78 129 113 79 122 108 81 161 150 120 138 130 83 128 118 67 136 119 75 136 115 72 136 112 66 145 123 84 166 153 134 165 174 171 97 143 158 15 73 95 14 65 82 14 63 78 14 61 77 15 60 79 13 62 77 13 62 76 13 60 76 11 62 79 6 63 80 15 80 100 10 75 103 0 64 92 0 65 93 1 66 96 1 66 96 1 66 96 1 66 96 1 66 96 1 66 96 1 66 96 1 66 96 4 64 92 12 57 80 4 40 62 4 40 62 12 57 78 22 83 104 5 66 85 10 59 76 13 59 75 14 61 79 14 61 79 14 61 77 14 61 77 15 63 77 16 69 83 14 72 92 75 118 134 163 174 168 172 160 134 149 128 85 137 116 61 129 115 68 129 117 69 130 116 67 128 117 71 159 151 115 131 122 89 129 113 79 132 113 71 139 121 75 142 125 81 163 157 121 130 122 86 130 119 74 131 118 73 131 119 71 134 117 71 153 134 91 170 161 132 154 167 158 85 115 125 19 70 89 9 67 89 11 62 81 13 60 76 14 62 76 14 62 76 13 60 76 14 60 76 14 61 77 11 66 86 15 86 108 1 75 100 1 66 96 0 65 95 0 65 95 0 65 95 0 65 95 0 65 95 0 65 95 0 65 95 0 66 98 0 63 94 5 65 91 3 50 76 8 40 63 3 38 60 10 70 96 15 79 104 10 63 79 14 62 76 14 62 76 14 62 76 14 62 76 14 62 76 14 62 76 11 62 79 5 67 92 23 75 96 110 137 144 169 171 158 169 154 121 143 119 75 137 114 70 139 117 76 134 117 74 130 116 79 140 130 103 156 149 120 131 120 75 130 119 63 130 119 63 127 119 72 139 134 104 155 152 121 128 115 73 128 111 65 135 121 72 134 123 69 135 120 63 147 134 90 165 158 142 153 168 173 46 102 115 6 70 95 13 61 83 17 60 79 14 60 76 15 61 76 14 62 76 14 62 76 13 62 76 10 63 79 6 71 91 13 83 108 0 71 93 0 66 90 0 65 93 0 65 95 0 65 95 0 65 95 
0 65 95 0 65 95 0 65 95 1 64 95 4 65 94 8 57 87 7 42 64 4 41 60 0 52 74 22 82 106 16 69 87 12 61 78 14 61 77 15 61 76 14 62 76 14 62 76 13 62 77 8 59 76 6 65 81 18 69 86 59 95 107 154 172 172 164 156 135 183 160 116 220 202 130 221 203 117 224 204 117 220 203 123 214 204 133 180 172 100 207 198 119 213 202 120 220 203 123 214 196 122 221 207 146 188 177 115 201 192 113 220 210 125 221 206 123 223 205 119 225 205 116 202 186 111 160 149 117 164 174 166 98 145 155 15 76 94 15 68 86 16 63 81 15 62 80 15 62 80 14 63 78 14 63 77 14 61 77 12 63 80 6 65 81 16 81 103 11 78 105 0 65 93 1 66 96 0 67 96 1 66 96 1 66 96 1 66 96 1 66 96 1 66 96 1 66 96 1 66 96 4 64 92 11 56 79 4 40 62 4 40 62 12 57 78 20 81 102 4 65 84 12 61 78 16 62 78 15 62 80 15 62 80 15 62 78 15 62 78 14 61 77 15 66 83 13 72 90 76 118 132 167 178 174 159 148 120 190 172 108 225 208 126 216 201 118 218 206 122 218 206 120 213 202 123 182 174 112 212 202 141 218 200 126 224 203 120 225 208 120 216 200 123 182 172 111 208 199 142 217 204 126 216 200 112 215 202 108 219 204 123 195 178 122 161 152 121 164 177 168 84 117 126 19 70 89 10 68 90 12 63 82 13 62 77 14 62 76 14 62 76 14 60 76 13 59 75 14 61 77 11 66 86 15 86 108 1 75 100 1 66 96 0 65 95 0 65 95 0 65 95 0 65 95 0 65 95 0 65 95 0 65 95 0 66 98 0 64 94 6 66 92 3 50 76 8 40 63 3 38 60 10 70 96 15 79 104 10 63 79 14 62 76 14 62 76 14 62 76 14 62 76 14 62 76 14 62 76 11 62 79 5 67 90 23 76 94 111 139 143 170 173 156 163 153 104 204 184 115 223 207 129 216 202 114 218 200 116 221 203 127 202 190 138 179 165 116 217 204 126 215 202 110 215 202 108 217 204 125 198 188 135 178 168 117 215 197 125 218 197 116 220 204 117 212 196 108 223 206 126 174 162 102 169 161 138 154 169 174 50 103 119 7 71 96 14 62 84 18 61 80 16 62 78 16 62 77 14 62 76 14 62 76 13 62 76 10 63 79 6 71 91 13 83 108 0 71 93 0 66 90 0 65 93 0 65 95 0 65 95 0 65 95 
0 65 95 0 66 95 0 65 95 1 64 95 4 65 94 8 57 87 7 42 64 4 41 60 0 52 74 22 82 106 16 69 87 12 61 78 14 61 77 15 61 76 14 62 76 14 62 76 13 62 77 8 59 76 4 66 81 18 69 88 58 94 106 154 172 172 164 156 135 183 162 109 255 238 150 255 240 136 255 239 133 255 238 138 254 242 158 198 186 104 227 214 118 255 240 137 254 239 138 255 237 143 254 235 158 200 182 106 237 222 129 255 241 136 255 237 135 255 236 131 255 245 137 226 210 123 166 154 112 164 171 163 99 146 152 15 74 90 14 65 82 15 62 78 15 62 80 15 62 80 14 63 78 14 63 77 14 61 77 12 63 80 6 65 81 16 81 101 11 76 104 0 65 93 1 66 96 0 67 96 1 66 96 1 66 96 1 66 96 1 66 96 1 66 96 1 66 96 1 66 96 4 64 92 11 56 79 4 40 62 4 40 62 12 57 78 20 81 102 3 64 83 12 61 78 16 62 78 15 62 82 15 62 80 14 63 78 15 62 78 14 61 77 15 66 83 13 71 91 75 119 132 160 171 167 160 149 119 209 193 116 255 241 142 247 236 131 252 241 136 253 240 135 248 233 140 188 179 104 241 229 155 255 240 145 255 239 135 253 236 132 248 233 138 188 179 104 245 237 162 255 242 146 251 241 130 252 240 128 255 242 146 197 181 121 161 152 121 165 178 169 84 117 126 19 70 89 10 68 90 12 63 82 13 62 79 14 62 76 14 62 76 14 60 76 13 59 75 14 61 77 11 66 86 15 86 108 0 74 99 1 66 96 0 65 95 0 65 95 0 65 95 0 65 95 0 65 95 0 65 95 0 65 95 0 66 98 0 62 93 5 65 91 3 50 76 8 40 63 2 37 59 8 68 94 15 79 104 10 63 79 14 62 76 14 62 76 14 62 76 14 62 76 14 62 76 14 62 76 11 62 79 5 67 90 23 76 94 114 137 145 169 172 153 164 153 97 228 210 128 255 247 148 250 236 131 255 245 139 255 240 147 228 214 151 199 181 119 255 240 148 254 237 129 252 239 127 255 242 146 227 217 146 205 187 125 255 242 153 254 235 132 254 246 137 254 241 137 255 239 144 189 171 105 168 161 135 154 169 174 50 103 119 7 71 96 14 62 84 18 61 80 16 61 80 16 62 77 14 62 76 14 62 76 13 63 74 10 63 79 6 71 91 13 83 108 0 71 93 0 66 88 0 65 93 0 65 95 0 65 95 0 65 95 
0 65 95 0 65 95 0 65 95 1 64 95 4 65 94 8 57 87 7 42 64 4 41 60 0 52 74 22 82 106 16 69 87 12 61 78 14 61 77 15 61 76 14 62 76 14 62 76 13 62 77 8 59 76 6 65 81 17 68 85 59 95 107 152 171 167 163 155 134 183 163 112 252 233 141 255 234 125 255 234 123 255 233 131 253 236 158 204 188 111 230 214 126 251 232 138 254 230 132 255 236 141 255 236 159 202 183 107 233 216 126 252 234 134 254 232 131 253 232 127 252 235 127 221 205 117 164 152 112 165 172 164 102 145 151 16 76 87 16 68 82 16 63 79 15 62 80 15 62 80 14 63 78 14 63 77 14 61 77 12 63 80 6 65 81 16 81 99 11 76 104 0 65 93 1 66 98 0 67 96 1 66 96 1 66 96 1 66 96 1 66 96 1 66 96 1 66 96 1 66 96 4 64 92 11 56 79 4 40 62 4 40 62 12 57 78 20 81 102 3 64 83 10 61 78 16 62 78 15 62 80 15 62 80 14 63 78 15 62 78 14 61 79 15 68 86 13 72 88 73 119 132 165 174 171 163 152 120 206 190 113 254 240 135 246 231 128 250 235 132 252 238 133 242 232 135 188 180 107 242 232 160 255 239 144 249 230 125 255 236 131 240 224 128 187 178 99 243 236 156 252 240 140 248 236 126 249 235 130 252 236 148 199 178 121 161 152 121 163 176 167 84 117 126 20 71 90 10 68 90 12 63 82 13 62 77 14 62 76 14 62 76 14 60 76 14 60 76 14 61 77 11 66 86 15 86 108 0 76 100 1 66 96 0 65 95 0 65 95 0 65 95 0 65 95 0 65 95 0 65 95 0 65 95 0 66 100 0 63 94 5 65 91 3 50 76 9 41 64 2 37 59 8 68 94 16 81 103 10 63 79 14 62 76 14 62 76 14 62 76 14 62 76 14 62 76 14 62 76 11 62 79 5 67 88 23 76 94 113 138 145 169 172 153 164 152 94 220 202 116 251 238 133 249 236 124 252 234 124 254 231 138 226 208 146 197 179 117 252 236 141 252 234 124 251 233 123 253 237 141 221 206 141 193 175 109 255 240 145 252 230 119 249 232 116 253 237 126 253 237 139 187 168 99 169 159 134 154 169 174 50 103 119 7 71 96 14 62 84 18 61 80 16 62 77 16 62 77 14 62 76 14 62 76 13 62 76 10 63 79 6 71 91 13 83 108 0 71 93 0 66 90 1 66 94 0 65 95 0 65 95 0 65 95 
0 65 95 0 65 95 0 65 95 1 64 95 4 65 94 8 57 87 7 42 64 5 40 60 0 52 74 23 81 105 16 69 87 12 61 78 14 61 77 14 60 75 14 62 76 14 61 77 14 61 77 8 59 76 6 65 81 20 69 86 59 95 107 152 171 169 163 155 132 181 164 108 252 233 141 255 235 123 255 234 125 255 234 133 253 234 155 197 184 106 227 211 124 252 233 139 255 233 132 255 232 138 253 231 155 201 182 106 235 218 128 254 236 138 255 234 133 255 234 129 255 239 133 222 208 120 166 153 111 166 171 164 101 144 150 15 74 88 17 66 80 15 63 77 15 62 78 15 62 78 14 63 77 14 63 77 14 61 77 12 63 80 6 65 81 16 81 99 11 78 104 0 65 93 1 66 96 0 67 96 1 66 96 1 66 96 1 66 96 1 66 96 1 66 96 1 66 96 1 66 96 4 64 92 11 56 79 4 40 62 4 40 62 11 56 77 20 81 102 3 66 83 10 61 78 17 63 79 15 62 78 15 62 78 15 62 78 15 62 78 14 61 79 15 68 86 11 72 91 73 119 134 166 177 173 163 153 118 204 189 108 255 237 135 246 232 127 251 237 132 250 236 131 244 229 134 188 178 107 236 226 155 251 235 140 252 234 126 250 232 124 241 226 125 191 175 97 242 231 149 251 238 136 248 234 125 248 233 130 251 237 149 197 181 122 161 152 121 163 176 167 86 116 124 19 70 87 10 68 90 12 63 82 14 61 77 14 62 76 15 61 76 14 60 76 14 60 76 14 61 77 11 66 86 15 86 108 1 75 100 1 66 96 0 65 95 0 65 95 0 65 95 0 65 95 0 65 95 0 65 95 0 65 95 0 65 95 0 63 91 4 64 88 3 50 76 9 41 62 1 37 59 8 68 94 15 81 105 10 63 79 14 62 76 14 62 76 14 62 76 14 62 76 14 62 76 14 62 76 11 62 79 5 67 88 23 76 94 110 137 144 169 172 155 165 154 98 221 203 117 250 238 130 245 233 115 255 238 124 254 231 138 225 207 145 196 177 118 251 235 139 248 231 123 248 232 121 250 234 139 225 210 143 201 183 117 255 236 141 251 229 118 253 240 125 254 233 124 255 233 137 189 170 101 170 160 133 154 170 170 50 103 121 5 71 93 12 63 82 15 60 81 16 62 78 15 63 77 14 62 76 14 62 76 14 62 76 10 63 79 6 71 91 13 83 108 0 70 95 0 66 92 1 66 96 0 65 95 0 65 95 0 65 95 
1 66 96 1 66 96 1 66 96 0 65 95 4 65 94 8 59 88 7 42 64 4 41 60 0 50 73 24 80 105 16 69 87 12 61 78 14 61 77 14 60 76 14 60 76 13 60 76 14 61 79 9 60 77 6 65 81 17 70 86 61 95 107 152 171 169 161 157 128 183 164 105 250 233 143 255 234 127 255 231 131 255 232 138 248 232 147 198 183 102 228 212 124 254 235 141 254 232 131 252 232 135 249 230 153 199 181 105 233 218 127 252 236 140 253 234 131 254 233 126 255 238 134 225 205 119 163 150 108 166 171 164 99 143 156 15 73 95 11 67 82 14 63 78 14 61 77 15 61 76 13 62 76 13 63 74 13 61 75 11 63 77 6 64 78 15 80 98 10 76 102 0 64 92 0 65 93 1 66 96 1 66 96 1 66 96 1 66 96 1 66 96 0 65 95 0 65 95 0 65 95 4 64 92 11 56 79 5 41 63 5 41 63 12 57 78 23 84 102 4 67 84 8 59 76 13 60 76 14 61 77 13 62 77 13 62 77 13 62 77 14 63 78 16 67 86 12 73 94 74 120 136 164 175 169 162 153 112 204 187 107 255 236 134 246 229 125 251 234 126 251 235 124 243 229 132 188 179 104 238 224 151 250 232 132 251 233 123 254 236 128 244 228 130 191 176 95 242 227 146 253 238 135 250 233 125 248 234 129 251 235 147 201 182 123 161 152 119 161 174 165 84 117 124 19 70 87 11 70 88 12 64 78 14 61 77 15 61 76 15 61 76 14 60 76 15 60 79 13 60 76 10 66 83 15 83 106 0 74 99 0 65 95 0 63 94 1 64 95 0 63 94 0 65 95 0 65 95 0 65 95 0 65 95 0 65 95 2 63 92 7 64 91 3 50 78 8 41 60 2 39 58 10 70 94 13 81 104 7 65 79 13 62 76 13 62 76 13 62 76 13 62 76 13 62 76 13 62 76 8 64 79 5 68 86 21 77 90 109 138 142 168 171 154 165 151 102 223 204 127 254 241 136 249 238 122 252 237 120 253 237 141 226 210 148 190 180 111 252 238 139 248 235 123 250 236 127 253 238 147 221 210 144 193 179 114 253 234 142 255 234 127 252 234 124 254 233 128 255 232 138 188 163 96 171 159 133 155 169 169 49 102 116 6 73 90 11 62 81 16 61 82 15 62 78 15 62 78 14 61 77 14 61 77 14 62 76 10 63 79 5 71 95 12 84 109 0 69 98 0 65 93 1 66 96 0 65 95 0 65 95 0 64 94 
1 66 96 2 65 96 2 67 97 0 65 95 2 66 94 8 59 88 5 43 64 4 41 60 0 50 73 25 79 103 16 69 87 9 60 77 13 62 77 14 59 78 14 60 76 14 61 79 14 61 79 8 61 79 6 65 83 17 70 86 58 96 109 152 171 167 161 158 127 181 165 105 250 233 143 255 234 129 255 232 130 253 233 136 245 233 147 196 183 104 225 214 124 252 236 141 252 233 130 252 232 135 249 230 153 199 181 107 233 217 129 251 235 139 255 234 129 254 233 126 255 239 133 225 204 121 164 146 106 167 172 166 100 142 156 15 73 95 11 67 82 12 64 77 14 61 77 14 62 76 14 62 74 13 63 74 13 61 75 13 62 77 5 64 78 15 80 98 10 76 102 0 64 92 0 65 93 1 66 96 1 66 96 1 66 96 1 66 96 1 66 96 0 65 95 0 65 95 0 65 95 4 64 92 10 55 78 5 41 63 5 41 63 12 57 78 23 84 102 4 67 84 8 59 76 13 60 76 14 62 76 13 62 76 13 62 77 13 62 77 11 64 78 13 71 85 11 73 94 74 120 136 165 174 171 162 152 117 205 186 109 255 236 134 249 230 125 253 235 127 252 234 124 244 228 130 190 178 104 238 224 151 252 232 133 255 231 121 254 236 128 246 227 132 192 175 97 243 226 148 254 236 138 250 232 124 249 235 126 252 237 144 202 184 122 160 151 118 163 176 167 83 118 124 18 71 87 11 70 88 12 63 80 14 61 77 15 61 76 15 61 76 14 60 76 14 61 79 12 61 76 10 66 83 12 83 105 0 74 99 1 64 95 0 63 94 0 63 94 0 63 94 0 65 95 0 66 95 0 65 95 0 65 95 1 65 93 2 63 92 7 64 93 3 50 76 8 41 60 2 39 55 9 71 94 13 81 104 7 65 79 13 62 76 13 62 76 13 62 76 13 62 76 14 62 76 13 62 76 8 64 79 5 68 86 23 76 90 110 138 142 169 171 157 164 152 102 224 202 126 254 241 136 252 240 122 252 236 123 252 238 141 223 212 146 192 179 109 252 240 138 248 238 117 248 236 124 252 239 143 220 211 144 191 181 112 254 235 141 255 233 129 254 233 126 254 233 128 255 231 141 188 163 96 170 158 132 154 168 169 46 102 115 5 72 89 12 63 82 15 62 78 12 64 77 15 64 78 14 61 77 14 61 79 15 61 77 11 62 79 5 71 97 10 84 109 0 69 98 0 65 95 1 66 96 0 65 95 0 65 95 0 64 92 
1 66 96 1 66 96 1 66 96 0 65 95 2 66 94 8 59 88 5 43 64 4 41 60 0 50 77 24 80 103 16 69 87 9 60 77 13 62 77 14 61 77 14 61 79 13 62 79 13 61 81 8 61 79 6 65 83 17 70 86 57 97 109 150 171 164 158 157 126 182 168 107 250 235 140 252 236 125 254 237 123 252 234 132 246 234 152 193 184 107 225 215 130 252 237 142 251 234 128 251 233 133 248 230 154 198 182 107 232 219 125 251 238 133 253 234 129 251 234 126 254 241 129 224 206 120 160 146 109 167 172 168 100 144 153 13 74 92 11 68 79 12 65 73 13 62 76 17 60 76 14 62 74 14 62 74 14 60 73 13 62 76 6 64 78 16 79 97 10 76 102 2 63 92 0 65 95 1 66 96 1 66 96 1 66 96 1 66 96 1 66 96 0 66 95 0 65 95 0 66 95 4 64 92 12 54 79 5 41 63 5 41 63 12 57 80 21 84 102 2 68 82 7 60 76 12 60 74 14 62 76 15 61 76 14 62 76 13 62 76 12 64 77 13 71 85 10 72 93 75 120 139 165 173 176 162 151 123 204 186 110 255 235 134 248 229 124 254 233 126 254 233 126 246 227 132 192 176 101 241 223 149 254 231 135 255 231 121 254 235 132 248 227 134 193 173 102 244 224 153 254 233 140 253 232 123 250 235 120 253 238 135 200 184 122 160 151 120 160 173 164 83 118 124 18 71 85 8 69 90 12 63 82 13 62 77 14 62 74 14 62 72 14 62 74 13 62 76 12 61 76 8 67 83 13 83 108 0 73 100 0 66 92 0 63 94 0 63 96 0 63 94 0 65 95 0 65 95 0 65 95 0 65 95 1 65 93 2 63 92 7 64 93 3 50 76 8 41 60 2 39 55 9 71 94 13 81 104 10 63 79 14 62 74 14 62 74 14 62 74 13 63 74 14 62 74 15 61 74 13 62 79 8 66 88 26 74 94 113 138 145 168 172 157 165 151 102 222 203 126 254 239 138 253 235 125 253 235 127 251 236 141 226 211 146 192 180 106 252 240 132 249 238 114 249 238 114 249 242 138 216 213 142 190 181 114 253 234 140 255 234 125 255 233 122 255 234 127 255 233 139 185 164 97 169 157 135 154 167 175 46 101 121 5 71 93 9 65 80 15 63 77 14 64 73 14 64 71 13 62 77 13 62 79 14 60 76 11 62 79 6 70 95 13 83 109 1 68 97 0 65 93 0 65 95 0 65 95 0 65 95 0 65 95 
1 66 96 1 66 96 1 66 96 0 65 95 2 66 94 8 59 88 5 43 64 4 41 60 0 50 75 23 81 105 13 70 89 5 64 80 7 65 79 8 64 81 8 64 81 6 63 82 8 65 84 1 64 81 1 67 83 13 72 88 55 99 112 148 173 169 157 156 126 179 166 113 248 232 154 246 235 143 249 234 141 248 233 152 241 231 170 191 182 123 220 213 145 247 235 159 245 233 147 247 231 153 244 230 169 192 182 121 227 218 139 244 237 149 246 234 148 248 232 144 255 238 148 221 205 130 161 146 113 167 172 168 100 144 153 13 76 91 8 70 81 5 67 78 9 62 78 11 62 79 11 63 77 11 63 76 9 62 76 10 63 79 2 66 78 13 81 100 7 77 103 0 64 92 0 65 93 1 66 96 1 66 96 1 66 96 1 66 96 1 66 96 0 65 95 0 65 95 0 65 95 6 63 92 12 54 79 5 41 63 5 41 63 13 58 81 20 85 103 0 69 85 3 62 76 9 60 77 12 64 78 11 63 77 11 62 79 10 63 79 7 66 80 11 73 88 11 74 92 75 121 137 166 174 177 162 151 129 200 186 125 252 234 152 245 227 141 249 231 145 249 231 147 242 226 151 186 176 115 235 223 163 249 229 156 249 228 145 252 233 154 244 225 156 189 172 120 241 224 168 252 232 161 248 230 146 247 232 139 251 236 153 200 183 127 160 151 120 157 174 168 80 117 126 12 73 91 6 71 91 7 66 84 7 65 79 7 65 76 7 65 76 7 65 77 8 64 79 6 64 78 6 67 88 13 83 109 0 74 103 0 66 92 0 63 94 0 63 96 0 64 94 0 65 95 0 65 95 0 65 95 0 65 95 1 65 93 3 62 92 7 64 93 3 50 76 8 41 60 2 39 55 9 71 94 13 81 104 4 66 81 8 64 77 8 64 77 8 64 77 8 64 77 8 64 77 8 64 77 7 64 81 6 66 92 22 74 95 110 137 146 168 172 158 162 151 106 221 202 136 255 237 160 251 233 147 250 232 150 251 234 162 222 213 158 188 179 120 247 240 152 247 235 135 245 235 138 246 240 156 213 212 155 186 181 125 250 232 156 253 231 146 251 231 142 251 231 142 253 232 151 183 164 106 168 156 140 154 167 176 46 101 122 5 72 98 7 66 84 9 65 78 9 66 77 7 67 77 6 65 81 10 63 81 11 62 79 7 64 81 3 73 98 10 84 109 1 68 97 0 63 94 0 65 95 0 65 95 0 65 95 0 65 95 
1 66 96 1 66 96 1 66 96 0 65 95 2 66 94 8 59 88 5 43 64 4 41 60 2 54 75 20 82 103 12 79 95 14 86 100 13 85 99 14 85 105 17 81 106 18 82 107 17 88 108 14 87 106 10 85 104 15 81 97 54 100 115 151 172 173 161 156 136 173 158 117 199 188 142 199 188 142 200 187 143 199 187 149 196 193 162 175 171 142 185 181 146 193 187 151 195 185 149 194 183 151 190 183 155 175 170 140 187 184 143 195 191 146 193 184 143 195 182 138 196 184 136 188 175 133 168 153 130 170 173 166 101 144 153 15 77 98 13 81 102 12 83 101 17 82 104 19 81 104 16 83 102 17 83 99 15 77 98 17 83 105 9 84 103 11 87 111 7 76 105 0 64 92 0 65 93 0 67 96 1 66 96 1 66 96 1 66 96 1 66 96 0 65 95 0 65 95 0 65 95 6 63 92 12 54 79 5 41 63 5 41 63 12 59 79 14 84 109 3 81 103 15 81 105 18 80 101 17 84 103 16 83 102 16 82 104 12 85 104 16 84 103 16 84 103 14 81 98 76 122 135 166 177 173 162 154 135 170 161 120 196 185 139 198 186 144 196 187 148 196 186 150 196 187 154 168 167 137 182 178 151 197 186 156 199 184 153 198 185 153 190 181 152 167 162 140 187 181 157 197 186 158 199 186 154 196 189 147 197 188 145 181 163 127 162 151 129 155 171 171 77 119 131 11 76 98 3 79 103 7 82 103 13 84 104 13 82 98 13 82 98 10 83 102 10 83 100 11 82 100 15 83 106 14 85 115 0 73 105 0 65 97 0 63 94 0 63 94 0 65 95 0 64 94 0 65 95 0 65 95 0 65 95 1 65 93 2 63 92 7 64 93 3 50 78 8 41 60 2 39 55 9 71 94 10 82 106 13 81 100 15 80 98 15 80 98 15 80 98 15 80 98 15 80 98 15 80 98 13 81 100 10 84 109 18 79 98 110 140 148 162 169 161 161 147 118 186 169 126 202 184 144 198 184 147 197 188 149 199 190 159 184 182 157 170 170 142 193 188 150 195 188 142 195 188 144 193 187 151 184 182 157 181 175 149 198 185 153 202 184 148 198 184 145 202 188 143 209 188 135 177 160 117 167 154 145 153 166 175 46 100 124 0 74 99 18 82 107 20 82 105 16 84 103 14 87 106 11 83 105 15 81 105 18 81 99 16 83 100 11 87 110 12 89 115 0 69 95 0 66 92 0 65 95 0 65 95 0 65 95 0 65 95 
1 66 96 1 66 96 1 66 96 0 65 95 2 66 94 8 59 88 5 43 64 3 41 60 0 50 69 19 81 102 11 78 94 13 80 96 8 80 94 12 79 96 14 79 99 14 79 99 13 80 97 12 81 97 9 82 101 13 79 95 55 98 114 150 172 170 164 164 136 159 144 105 149 138 92 151 139 97 151 136 97 149 136 104 143 136 108 160 159 131 148 145 112 141 133 97 152 140 102 144 131 99 142 134 111 163 155 132 152 148 113 145 137 100 150 138 98 147 134 92 147 132 89 153 139 100 163 148 127 167 174 167 100 144 153 15 80 100 11 77 101 12 78 102 13 78 100 15 77 100 13 78 96 13 78 96 12 74 95 10 76 100 6 81 102 10 86 110 6 77 105 0 64 92 0 65 93 0 67 96 1 66 96 1 66 96 1 66 96 1 66 96 0 65 95 0 65 95 0 65 95 6 63 92 12 54 79 5 41 63 5 41 63 12 59 79 15 85 111 0 77 103 9 75 101 12 74 97 11 76 98 10 76 98 10 76 98 11 76 98 10 76 98 12 78 100 11 76 98 75 122 132 161 173 169 160 152 131 152 140 102 151 138 94 149 137 95 146 138 102 147 136 108 143 136 108 164 163 142 139 137 114 149 135 109 152 138 111 145 134 106 148 138 113 161 156 137 147 139 120 145 135 110 146 135 105 142 136 102 145 137 101 157 141 107 166 156 131 159 175 172 77 119 131 14 79 99 6 81 104 12 80 101 14 81 98 11 77 99 8 79 99 8 80 102 9 80 102 9 75 97 12 79 105 15 86 116 2 73 105 0 65 97 0 63 96 0 63 94 0 65 95 0 65 95 0 65 95 0 65 95 0 65 95 1 65 93 2 63 92 7 64 93 3 50 76 8 41 60 2 39 55 9 71 94 10 82 106 9 75 97 12 74 97 10 75 97 10 75 97 10 75 97 10 75 97 10 75 97 6 77 97 5 81 104 14 77 95 110 140 148 164 169 162 164 150 123 156 136 99 149 135 100 155 142 108 145 134 102 144 134 107 147 142 123 157 156 136 144 138 106 146 138 101 146 138 101 144 138 104 148 146 121 161 156 134 139 128 98 148 133 102 152 137 104 150 132 92 159 139 88 161 142 102 167 155 141 153 166 172 46 103 122 0 75 99 14 76 101 16 76 100 13 78 96 8 79 99 8 80 102 8 79 99 14 80 96 12 79 96 5 81 104 7 84 110 0 69 98 0 65 93 0 65 95 0 65 95 0 65 95 0 65 95 
1 66 96 1 66 96 1 66 96 0 65 95 2 66 94 8 59 88 5 43 64 3 41 60 0 57 77 21 83 106 13 71 91 10 63 79 9 62 76 9 62 76 9 62 76 8 61 75 8 59 76 7 64 81 4 67 84 9 66 83 55 99 108 148 173 167 165 169 134 162 153 96 182 165 95 184 165 88 187 163 89 185 165 96 175 162 107 181 170 116 178 166 106 177 164 94 186 169 91 179 161 89 177 164 111 179 165 116 178 164 103 176 161 92 184 166 90 180 158 82 182 160 85 177 157 98 164 150 123 169 175 171 96 143 153 11 74 92 7 68 87 10 66 83 11 62 81 11 62 81 13 62 79 11 62 79 9 60 77 9 62 80 3 66 84 12 78 102 9 76 103 0 64 92 0 65 93 0 67 96 1 66 96 1 66 96 1 66 96 1 66 96 0 65 95 0 65 95 0 65 95 6 63 92 12 54 79 5 41 63 5 41 63 12 57 78 16 81 101 0 66 90 5 62 81 9 62 80 10 63 81 10 63 81 10 63 81 11 62 81 11 62 81 11 66 87 9 69 93 69 115 131 161 171 173 164 152 128 172 149 95 185 161 89 183 165 91 182 165 93 182 164 100 179 164 107 180 171 128 173 162 117 182 164 102 184 166 94 182 165 95 179 164 105 176 162 125 177 164 122 179 165 104 181 164 92 177 165 89 178 165 97 169 154 99 165 156 123 162 178 167 85 118 125 17 70 86 11 70 88 15 64 81 14 63 78 5 63 75 5 64 78 4 63 79 9 61 82 9 64 84 7 65 87 15 82 111 0 71 101 0 65 93 0 63 94 0 65 95 0 65 95 0 65 95 0 65 95 0 65 95 0 65 95 1 65 93 3 62 92 7 64 93 3 50 76 8 41 60 2 39 55 9 71 94 13 81 104 5 64 82 9 62 80 9 62 80 9 62 80 9 62 80 9 62 80 9 62 80 6 63 80 5 72 89 13 70 87 107 136 140 164 167 156 163 151 113 174 154 101 177 159 97 179 161 95 180 160 89 175 159 99 172 160 120 175 163 123 175 164 102 176 164 88 177 162 81 172 164 91 170 166 118 172 165 119 170 156 93 180 160 89 184 164 93 180 161 85 189 167 92 172 152 99 167 156 134 152 168 168 46 102 115 6 74 93 8 61 79 12 58 74 11 59 73 9 61 74 4 62 74 3 63 74 5 63 74 4 63 77 6 74 95 11 83 108 1 71 97 0 65 93 0 65 95 0 65 95 0 65 95 0 65 95 
1 66 96 0 67 96 2 65 96 0 65 95 5 64 94 8 59 88 7 42 64 3 41 60 0 50 73 22 82 106 16 69 85 11 58 74 15 63 77 18 62 73 18 62 75 15 61 74 13 59 74 14 63 80 13 66 84 17 70 86 54 97 104 149 176 167 161 164 133 182 172 111 254 238 151 255 238 138 255 236 137 254 237 145 253 236 164 198 184 119 232 216 139 255 244 155 255 237 137 255 239 143 255 237 171 197 179 117 235 219 141 255 244 154 255 245 147 255 237 137 253 243 148 233 211 138 164 151 119 161 172 166 98 146 158 14 77 95 15 68 84 15 64 79 13 60 78 14 59 78 13 60 76 13 61 75 13 59 75 9 58 75 7 64 81 17 79 100 11 75 103 1 65 92 0 65 93 0 67 96 1 66 96 1 66 96 1 66 96 1 66 96 0 65 95 0 65 95 0 65 95 4 64 92 11 55 80 5 41 63 5 41 63 12 57 78 26 87 106 5 67 88 7 60 78 13 59 75 14 61 77 14 61 77 15 60 79 14 60 76 13 59 75 17 66 83 13 72 90 73 119 135 161 171 173 165 151 125 209 184 118 255 242 154 255 239 141 254 240 143 255 240 149 252 239 161 188 178 119 246 235 173 255 242 154 255 238 140 255 239 143 247 226 143 185 166 110 247 228 172 255 237 153 255 239 143 254 240 141 253 239 151 205 189 127 156 150 114 163 177 162 84 118 120 21 71 82 15 68 86 16 62 78 16 59 75 14 64 75 14 63 77 14 63 78 15 62 80 14 61 79 9 64 84 20 87 114 3 74 104 0 65 93 0 63 94 0 65 95 0 65 95 0 65 95 0 65 95 0 65 95 0 65 95 1 65 93 1 62 91 7 64 93 3 50 76 7 40 59 2 39 55 9 71 94 14 80 104 10 63 81 14 61 77 14 61 77 14 61 77 14 61 77 14 61 77 14 61 77 11 62 79 11 73 88 22 72 83 113 141 144 171 175 160 161 148 104 227 206 139 255 244 162 252 235 143 253 234 139 255 238 156 229 214 159 192 179 126 255 241 160 255 242 143 255 244 138 254 244 149 220 214 152 188 182 122 254 238 151 255 237 139 253 233 134 255 239 143 255 243 157 187 167 106 165 158 132 152 168 168 47 103 116 8 73 91 14 63 78 19 61 73 21 61 71 16 63 71 12 62 73 9 63 73 12 62 73 9 62 76 6 74 95 11 83 108 1 68 97 0 65 93 0 65 95 0 65 95 0 65 95 0 65 95 
0 65 95 0 65 95 0 65 95 1 64 95 4 65 94 8 57 87 7 42 64 4 41 60 0 52 74 21 81 105 15 68 86 12 61 76 15 61 76 14 60 75 15 61 76 14 62 76 15 62 78 11 62 79 6 65 83 16 73 84 58 98 110 152 172 171 162 158 131 185 168 112 248 233 142 249 235 126 254 234 122 251 233 131 248 234 159 192 179 109 222 211 131 250 237 141 249 235 128 247 233 134 242 233 156 186 178 105 225 217 132 249 234 139 249 237 129 248 234 125 255 237 135 225 208 130 159 149 113 162 173 165 99 147 157 16 78 93 15 68 82 16 63 79 14 61 79 15 60 79 13 60 76 14 62 76 15 62 78 13 62 79 6 63 80 15 80 100 9 74 102 0 65 93 1 66 94 1 66 96 1 66 96 1 66 96 1 66 96 1 66 96 0 65 93 0 65 93 0 65 93 4 64 90 10 55 76 4 42 61 4 42 61 13 58 77 22 83 104 6 68 89 11 62 79 14 60 76 15 62 78 14 61 79 14 61 77 14 61 77 14 62 76 15 64 79 14 75 96 74 120 136 163 171 174 163 152 124 206 188 116 255 241 144 244 230 125 248 236 128 247 235 135 242 227 142 183 175 103 234 226 151 250 234 138 252 234 124 252 233 128 243 224 132 189 174 109 241 227 164 251 235 147 248 234 129 248 234 125 252 237 144 202 183 124 159 150 117 164 177 168 85 118 125 19 70 87 11 68 87 12 61 78 12 58 74 13 62 76 13 62 76 14 62 74 14 61 77 12 61 76 10 66 83 16 83 109 0 73 100 0 65 93 0 65 95 0 65 95 0 65 95 0 65 95 0 65 95 0 65 95 0 65 95 0 65 95 0 62 93 5 65 93 3 50 76 7 40 59 2 39 57 10 70 96 14 80 104 10 63 81 14 62 76 14 62 76 14 62 76 14 62 76 14 62 76 14 62 76 11 63 77 11 70 86 25 74 88 118 142 146 170 173 154 163 150 97 226 204 128 255 238 146 251 234 130 251 234 128 254 238 143 226 212 149 192 178 117 250 237 145 245 233 125 246 234 122 247 237 139 219 214 148 187 182 116 250 235 140 251 235 124 251 234 126 248 231 127 255 232 139 185 166 100 166 159 133 150 170 169 47 105 119 8 75 94 10 61 80 14 60 76 14 62 76 15 61 76 13 62 77 13 62 77 14 62 76 10 63 79 5 71 93 14 84 109 0 70 96 0 63 91 0 65 95 0 65 95 0 65 95 0 65 95 
0 65 95 0 65 95 0 64 94 1 64 95 4 65 94 8 57 87 7 42 64 3 41 60 0 52 74 21 81 107 15 68 86 9 60 77 14 61 77 14 60 75 15 63 77 14 62 76 14 63 78 11 62 79 6 65 81 18 71 87 61 99 112 152 171 169 164 156 135 188 168 115 249 232 140 252 234 122 254 235 117 251 234 128 251 235 158 191 181 109 222 212 127 250 236 139 249 235 126 247 234 129 244 233 151 188 179 104 229 214 129 249 236 134 249 237 127 248 236 124 254 240 135 225 209 131 159 149 113 162 174 162 100 147 153 15 77 90 16 68 82 16 63 79 15 60 79 14 61 79 13 62 77 13 62 76 15 62 78 12 63 80 6 63 80 15 80 100 9 74 102 0 65 95 1 66 96 1 66 96 1 66 96 1 66 96 1 66 96 1 66 96 0 65 93 1 65 93 0 65 93 4 64 90 10 55 76 4 42 61 2 43 61 13 58 77 22 83 104 6 68 89 14 61 77 14 60 76 14 61 79 14 61 79 13 60 76 14 62 76 15 61 74 13 65 76 17 76 94 74 120 135 162 172 174 162 151 123 205 189 114 255 242 140 245 232 120 249 236 124 249 235 128 243 231 133 183 175 100 235 226 147 250 235 132 252 235 119 254 234 122 244 224 129 189 174 107 244 226 160 251 236 141 250 233 125 251 234 126 254 237 145 203 183 124 159 150 119 166 177 169 86 119 128 19 70 89 6 67 88 11 62 81 11 60 75 13 62 76 13 62 76 14 62 76 14 62 76 13 63 74 9 65 82 15 85 110 0 73 100 0 64 92 0 65 95 0 65 95 0 65 95 0 65 95 0 65 95 0 65 95 0 65 95 1 66 96 0 63 96 6 65 95 4 51 79 8 40 61 3 40 59 10 70 98 15 79 106 10 63 81 14 62 76 14 62 76 14 61 77 14 62 76 14 62 76 14 62 76 11 63 77 11 70 88 25 72 88 120 140 147 171 172 156 164 151 99 225 204 125 255 240 139 254 234 122 254 234 119 253 237 139 227 213 148 192 178 115 251 236 143 247 233 126 247 234 120 250 238 138 221 214 146 190 181 114 250 236 137 251 233 121 251 235 124 248 231 125 255 233 139 186 167 98 166 161 132 150 170 171 47 105 119 7 75 98 8 63 83 15 60 79 13 62 77 13 62 77 13 62 79 14 61 77 14 60 76 11 62 79 5 71 93 14 84 109 0 70 96 0 64 91 0 65 95 0 65 95 0 65 95 0 65 95 
0 65 95 0 65 95 0 65 95 1 64 95 4 65 94 8 57 87 7 42 64 4 41 60 0 52 74 21 81 105 15 68 86 12 61 78 14 61 77 15 61 76 14 62 76 14 62 76 14 63 78 13 62 79 5 64 80 18 71 87 60 97 113 153 171 171 164 156 135 188 168 115 251 231 142 254 233 124 255 233 121 254 233 128 251 234 156 196 179 107 226 210 123 251 235 137 252 234 126 250 232 130 247 231 153 191 177 102 230 214 126 250 235 134 250 236 127 248 234 125 255 237 138 224 208 133 159 148 116 161 172 166 100 148 152 16 76 87 15 68 82 15 62 80 14 61 79 14 61 79 13 62 77 13 62 76 15 62 78 11 62 79 6 63 80 15 80 100 9 74 102 0 65 93 1 66 96 1 66 96 1 66 96 1 66 96 1 66 96 1 66 96 0 65 93 0 65 93 0 65 93 3 63 89 10 55 76 4 42 61 4 42 61 13 58 77 22 83 104 7 68 89 13 62 79 14 60 76 14 61 79 14 61 79 14 61 77 14 62 76 14 63 68 13 66 70 17 75 89 75 119 132 164 172 175 162 150 124 204 188 111 255 242 137 246 230 119 251 235 124 251 235 124 243 229 132 186 174 98 238 224 149 252 235 129 254 234 121 255 233 122 246 223 129 193 174 108 244 226 162 252 236 138 251 233 121 250 232 122 254 235 143 203 183 124 159 150 117 166 177 169 87 120 129 18 69 88 9 67 89 13 62 79 11 60 77 13 62 76 13 62 76 14 62 76 14 62 76 13 62 76 10 66 83 15 85 110 0 73 100 1 66 96 0 65 95 0 65 95 0 65 95 0 65 95 0 65 95 0 65 95 0 65 95 1 66 96 0 63 94 5 64 94 4 51 79 8 40 61 3 40 59 10 70 96 15 79 106 10 62 83 14 62 76 14 62 76 14 62 76 13 62 76 14 62 76 14 62 76 11 62 79 8 69 90 25 73 93 120 140 151 171 171 161 165 151 106 225 203 128 255 240 139 251 236 117 255 234 119 255 237 137 230 212 150 195 176 117 252 235 143 249 233 122 249 234 119 250 237 135 222 213 146 190 181 116 253 234 139 253 232 123 254 233 128 252 228 130 255 230 137 186 166 97 166 159 133 150 170 171 46 105 119 6 74 97 8 63 83 14 61 79 12 64 78 13 62 77 12 61 78 14 61 79 14 60 76 11 62 79 5 71 93 14 84 109 0 70 96 0 64 91 0 65 95 0 65 95 0 65 95 0 65 95 
0 65 95 0 65 95 0 65 95 1 64 95 4 65 94 8 57 87 7 42 64 4 41 60 0 52 74 21 81 105 15 68 86 12 61 78 14 61 77 15 61 76 14 62 76 14 62 76 14 63 78 11 62 79 6 65 81 19 70 87 61 98 114 153 171 171 164 156 135 188 168 115 251 231 142 254 233 126 255 233 122 254 232 130 253 236 156 196 180 103 226 210 122 251 235 137 254 233 128 250 232 130 245 233 149 190 179 100 230 215 124 252 234 132 251 234 126 250 233 125 255 238 138 225 208 130 160 147 115 163 172 167 102 145 151 16 75 89 14 65 82 15 62 80 14 61 79 14 61 79 13 62 77 13 62 76 15 62 78 11 62 79 6 63 80 15 80 100 9 74 102 0 65 93 1 66 96 1 66 96 1 66 96 1 66 96 1 66 96 1 66 96 0 65 93 0 65 93 0 65 93 4 64 90 10 55 76 4 42 61 4 42 61 13 58 77 22 83 104 7 68 89 13 62 79 14 60 76 14 61 79 14 61 79 14 61 77 14 62 76 13 62 67 13 66 74 16 75 89 75 119 132 164 172 175 161 150 122 205 189 111 255 242 137 246 229 121 251 235 124 251 235 122 243 229 130 186 174 98 238 225 147 252 234 132 255 235 123 255 233 124 246 223 129 192 173 107 245 228 158 253 238 135 251 233 121 250 232 124 255 235 146 202 182 123 161 150 118 167 179 167 87 120 129 18 69 88 8 66 88 9 60 77 10 59 74 13 62 76 13 62 76 14 62 76 14 62 76 13 62 76 10 66 83 15 85 110 0 73 100 1 66 96 0 65 95 0 65 95 0 65 95 0 65 95 0 65 95 0 65 95 0 65 95 1 66 96 0 63 94 5 64 94 4 51 81 8 40 61 3 40 59 10 70 96 15 79 106 10 63 81 14 62 76 14 62 76 14 62 76 13 62 76 14 62 76 14 62 76 11 62 79 9 69 93 22 72 97 120 139 154 170 172 161 164 150 105 225 203 128 255 242 140 251 236 119 252 235 119 255 237 137 230 212 150 192 176 116 255 236 144 250 232 122 250 233 117 250 237 133 222 213 146 189 180 115 253 234 139 253 232 123 254 233 126 251 229 127 255 232 139 187 167 98 166 159 133 150 170 171 46 105 119 7 75 98 8 63 83 14 61 79 14 61 77 13 62 77 13 62 79 14 61 79 14 60 76 11 62 79 5 71 93 14 84 109 0 70 96 0 64 91 0 65 95 0 65 95 0 65 95 0 65 95 
0 65 95 0 65 95 0 65 95 1 64 95 4 65 94 8 57 87 7 42 64 4 41 60 0 52 74 21 81 105 15 68 86 12 61 78 14 61 77 15 61 76 14 62 76 14 62 76 15 63 77 11 63 77 6 65 81 19 70 87 59 97 110 157 176 174 165 158 132 186 166 113 251 234 146 255 236 131 255 235 130 255 235 136 250 235 152 199 186 107 224 213 121 245 231 132 255 237 135 250 234 138 248 237 155 193 182 102 232 219 125 253 240 136 245 231 126 249 235 128 255 241 134 221 204 122 161 148 113 166 173 166 101 145 154 17 76 94 14 65 82 15 63 77 14 61 79 14 61 79 13 62 77 13 62 76 15 62 78 11 62 79 6 63 80 15 80 100 9 74 102 0 65 93 1 66 96 1 66 96 1 66 96 1 66 96 1 66 96 1 66 96 0 65 93 0 65 93 0 65 93 4 64 90 10 55 76 4 42 61 4 42 61 13 58 77 22 83 102 7 68 89 13 62 79 14 60 76 14 61 79 14 61 79 14 61 77 14 61 77 14 62 76 15 64 81 14 74 98 74 120 136 171 179 181 158 147 117 204 188 110 255 238 132 243 229 122 248 234 125 248 235 123 240 231 126 189 182 101 237 226 146 251 235 137 248 230 122 255 236 133 248 228 133 189 172 102 246 234 160 251 238 136 250 234 123 250 233 127 254 234 148 200 180 121 163 152 120 160 172 162 87 120 129 17 70 88 8 66 88 9 60 77 10 59 74 13 62 76 13 62 76 14 62 76 14 62 76 13 62 76 10 66 83 15 85 110 0 73 100 1 66 96 0 65 95 0 65 95 0 65 95 0 65 95 0 65 95 0 65 95 0 65 95 1 66 96 0 63 94 5 64 94 4 51 79 8 40 61 3 40 59 10 70 96 15 79 106 10 63 81 14 62 76 14 62 76 14 62 76 14 62 76 14 62 76 14 62 76 11 62 79 7 69 94 22 74 96 117 141 153 170 172 159 163 151 101 220 203 123 252 241 136 253 240 126 252 235 119 253 235 137 225 210 145 192 176 114 250 235 140 253 237 126 253 236 118 250 238 138 219 211 146 193 185 120 249 234 131 251 234 118 255 238 124 254 233 128 254 231 137 185 166 100 166 159 133 151 169 173 48 106 120 7 75 98 8 63 83 15 60 79 14 61 77 14 61 77 13 62 79 14 61 79 14 60 76 11 62 79 4 70 92 16 86 111 0 67 94 0 66 92 0 65 95 0 65 95 0 65 95 0 65 95 
0 65 95 0 65 95 0 65 95 1 64 95 4 65 94 8 57 87 7 42 64 4 41 60 0 52 74 21 81 105 15 68 86 12 61 78 14 61 77 15 61 76 14 62 76 14 62 76 14 63 77 11 63 77 6 65 79 19 71 85 59 97 110 148 166 166 164 157 131 189 168 121 251 233 159 252 234 148 253 233 147 254 233 154 248 235 165 191 182 113 223 214 137 250 239 157 251 234 152 246 230 153 246 238 173 189 184 118 223 214 137 253 238 155 252 237 156 250 236 147 255 244 152 224 206 132 158 146 106 167 174 167 103 147 158 20 77 97 16 67 84 17 64 80 14 61 79 14 61 79 13 62 77 13 62 76 15 62 78 11 62 79 6 63 80 15 80 100 9 74 102 0 65 93 1 66 96 1 66 96 1 66 96 1 66 96 1 66 96 1 66 96 0 65 93 0 65 93 0 65 93 4 64 90 10 55 76 4 42 61 4 42 61 13 58 77 22 83 104 7 68 89 13 62 79 14 60 76 14 61 79 14 61 79 14 61 77 14 61 77 14 61 79 13 64 85 14 74 100 73 118 137 164 173 172 157 146 118 204 187 118 255 240 149 248 232 144 253 238 147 252 239 147 242 235 147 179 174 106 241 234 166 252 237 156 249 232 144 255 234 151 246 224 151 186 174 116 237 226 164 252 240 154 251 236 143 250 233 145 255 237 161 202 185 129 160 150 115 164 174 165 87 120 129 20 71 90 10 68 92 12 63 80 12 61 76 13 62 76 13 62 76 14 62 76 14 62 76 13 62 76 10 66 83 15 85 110 0 73 100 1 66 96 0 65 95 0 65 95 0 65 95 0 65 95 0 65 95 0 65 95 0 65 95 1 66 96 0 63 94 5 64 94 4 51 79 8 40 61 3 40 59 10 70 96 15 79 106 10 63 81 14 62 76 14 62 76 14 62 76 14 62 76 14 62 76 14 62 76 11 62 79 8 70 95 19 76 96 114 143 151 169 173 159 161 150 104 223 205 133 251 241 154 247 232 139 252 235 143 255 238 160 225 214 158 189 178 122 248 237 158 252 237 144 251 239 141 246 239 151 215 210 155 189 184 129 254 240 152 255 241 142 247 231 135 252 235 143 255 239 152 181 165 105 166 160 136 151 169 173 48 106 120 8 74 98 11 62 83 15 60 79 14 61 77 14 61 77 13 62 79 14 61 81 14 60 76 11 62 79 4 70 92 16 86 111 0 67 94 0 66 92 0 65 95 0 65 95 0 65 95 0 65 95 
0 65 95 0 65 95 0 65 95 1 64 95 4 65 94 8 57 87 7 42 64 4 41 60 0 52 74 21 81 105 15 68 86 12 61 78 14 61 77 15 61 76 14 62 76 14 62 76 14 63 77 11 63 77 6 65 79 20 72 85 59 97 110 147 165 165 166 159 133 177 158 118 224 206 160 224 208 159 225 207 159 225 206 163 221 212 173 181 172 139 197 188 145 224 214 165 221 207 160 225 212 170 219 212 183 178 172 140 202 193 150 219 207 159 221 208 163 221 205 154 231 208 156 206 183 141 166 152 125 164 171 163 102 145 161 17 75 99 15 65 88 16 63 81 14 61 79 14 61 79 13 62 77 13 62 76 15 62 78 11 62 79 6 63 80 15 80 100 9 74 102 0 65 93 1 66 96 1 66 96 1 66 96 1 66 96 1 66 96 1 66 96 0 65 93 0 65 93 0 65 93 4 64 90 10 55 76 4 42 61 4 42 61 13 58 77 22 83 104 7 68 89 13 62 79 15 61 77 14 61 79 14 61 79 14 61 77 14 61 77 14 62 76 13 64 81 16 73 100 73 118 137 158 167 166 165 153 131 194 171 127 229 207 150 220 205 146 221 210 154 222 211 157 216 205 159 173 168 130 213 205 166 223 210 166 231 210 165 229 206 164 220 200 163 180 169 139 218 207 175 226 213 168 225 207 157 225 207 157 229 213 161 187 166 119 161 151 116 165 175 167 85 119 128 20 71 90 8 69 90 12 63 82 12 61 75 13 62 76 13 62 76 14 62 76 14 62 76 13 62 76 10 66 83 15 85 110 0 73 100 1 66 96 0 65 95 0 65 95 0 65 95 0 65 95 0 65 95 0 65 95 0 65 95 1 66 96 0 63 94 5 64 94 4 51 79 8 40 61 3 40 59 10 70 96 15 79 106 10 63 81 14 62 76 14 62 76 14 62 76 14 62 76 14 62 76 14 62 76 10 63 79 6 71 91 19 75 92 115 144 150 167 173 159 164 152 112 206 184 135 227 207 157 226 206 156 230 209 162 223 208 167 203 194 165 182 173 144 222 211 165 223 210 157 223 211 151 219 212 160 196 196 162 179 174 142 227 215 163 221 207 146 225 208 152 226 210 151 226 206 147 175 163 113 166 159 140 151 169 173 48 106 120 8 74 98 11 62 83 15 60 79 14 61 77 14 61 77 13 62 79 14 61 79 14 60 76 11 62 79 4 70 92 16 86 111 0 67 94 0 66 92 0 65 95 0 65 95 0 65 95 0 65 95 
0 65 95 0 65 95 0 65 95 1 64 95 4 65 94 8 57 87 7 42 64 4 41 60 0 52 74 21 81 105 15 68 86 12 61 78 14 61 77 15 61 76 14 62 76 14 62 76 14 63 77 11 63 77 6 65 79 19 71 85 59 97 110 152 171 169 168 161 133 160 141 101 141 124 78 140 126 77 145 124 77 142 125 82 137 126 96 159 149 122 147 138 99 134 121 79 143 126 82 138 125 83 134 124 97 161 154 126 147 135 95 140 127 82 139 127 79 144 126 78 146 122 74 148 125 83 168 154 127 161 169 158 103 147 158 20 76 103 16 68 89 17 64 84 14 61 79 14 61 77 13 62 77 13 62 76 15 62 78 11 62 79 6 63 82 15 80 98 9 75 101 0 65 95 1 66 96 1 66 96 1 66 96 1 66 96 1 66 96 1 66 96 0 65 93 0 65 93 0 65 93 4 64 90 11 56 77 4 42 61 5 42 61 13 58 77 23 84 105 7 68 87 13 62 77 15 61 76 14 61 77 14 61 79 14 61 77 14 62 76 14 62 74 13 65 79 16 74 98 73 118 137 162 173 169 167 155 131 156 133 89 148 126 69 140 123 67 142 129 74 144 128 77 135 124 79 158 152 116 138 130 93 140 125 82 144 121 79 145 122 81 146 126 93 168 156 130 134 123 95 141 129 87 143 122 77 140 124 75 148 128 78 153 135 87 164 154 119 159 169 161 86 114 125 21 74 92 11 69 89 12 63 80 12 61 75 13 62 76 13 62 76 14 62 76 14 62 76 13 62 76 10 66 83 15 85 110 0 73 100 1 66 96 0 65 95 0 65 95 0 65 95 0 65 95 0 65 95 0 65 95 0 65 95 1 66 96 0 64 92 5 65 93 4 51 77 8 40 61 3 40 59 10 70 96 15 79 104 10 63 79 14 62 76 14 62 76 14 62 76 14 62 76 14 62 76 14 62 76 10 63 79 6 71 89 18 77 91 114 143 147 167 173 159 162 149 115 150 128 81 142 120 73 145 127 77 138 119 76 137 123 86 146 136 111 163 153 126 138 125 80 142 126 75 140 127 72 138 127 81 136 131 101 155 152 121 139 127 79 144 125 69 137 121 69 144 124 71 142 121 64 155 137 91 166 159 140 151 169 173 48 106 120 8 74 98 10 62 83 15 60 79 14 61 77 14 62 76 13 62 77 14 61 77 14 60 75 11 62 79 4 70 92 16 86 111 0 67 94 0 66 92 0 65 95 0 65 95 0 65 95 0 65 95 
1 66 96 1 66 96 1 66 96 0 65 95 4 65 94 8 59 88 7 42 64 3 41 60 0 52 74 21 81 105 15 68 86 12 61 78 14 61 77 15 61 76 14 62 76 14 62 76 14 63 77 11 63 77 5 64 78 19 71 85 59 97 110 150 169 167 166 159 133 183 162 115 197 183 110 200 183 103 201 183 101 200 182 108 194 179 124 181 172 117 189 179 117 199 187 115 204 185 108 205 187 113 196 184 126 176 165 111 187 169 105 203 187 112 204 187 107 201 184 102 202 182 96 189 170 101 160 147 112 167 174 167 102 146 155 18 77 95 15 68 86 17 64 82 15 62 80 15 62 78 14 63 77 13 62 76 15 63 77 11 63 77 6 63 80 15 80 98 9 73 100 0 63 94 0 65 95 0 65 95 0 65 95 0 65 95 0 65 95 0 65 95 1 66 96 1 66 96 1 66 96 4 64 92 11 56 79 4 40 62 4 40 62 12 57 78 23 84 102 7 68 87 13 62 77 15 61 76 14 61 77 14 61 77 14 62 76 14 62 76 13 63 74 15 64 79 14 75 96 73 119 134 166 178 174 163 152 122 183 164 95 209 188 99 201 184 96 205 189 102 206 187 108 197 183 110 175 164 108 198 187 131 198 180 106 202 181 98 202 181 100 199 179 110 176 162 113 193 181 133 204 187 118 200 183 105 202 183 104 207 187 114 184 163 106 160 152 116 170 181 173 85 115 125 24 72 92 12 70 90 12 63 80 13 61 75 13 62 77 13 62 77 14 61 77 14 61 77 13 62 77 10 65 85 15 85 111 0 73 102 1 66 96 0 65 95 0 65 95 0 65 95 0 65 95 0 65 95 0 65 95 0 65 95 1 66 94 0 64 92 5 65 91 4 52 74 8 40 61 3 40 59 10 70 94 15 80 102 10 63 79 14 62 76 14 62 76 14 62 76 14 62 76 14 62 76 14 62 76 10 63 79 5 72 89 17 76 92 114 143 149 169 173 159 161 148 104 187 166 103 203 184 107 199 183 98 198 180 96 191 181 109 184 173 127 179 165 120 199 182 110 202 184 98 203 182 99 197 183 110 185 174 128 177 166 121 202 184 112 204 186 100 203 182 103 207 185 109 203 175 101 167 146 89 166 160 136 151 169 173 48 106 120 8 74 98 11 62 83 15 60 79 14 61 77 14 62 76 13 62 76 14 62 76 15 62 72 11 63 77 5 71 93 13 83 108 0 70 96 0 64 92 0 65 95 0 65 95 0 65 95 0 65 95 
1 66 96 1 66 96 2 67 97 0 65 95 2 66 94 8 59 88 5 43 64 1 42 60 0 52 74 21 81 105 15 68 86 12 61 78 14 61 77 15 61 76 14 62 76 14 62 76 14 63 77 11 63 77 6 65 79 19 71 85 59 95 107 151 170 168 163 155 132 183 163 112 255 241 156 255 242 140 255 242 140 255 242 148 255 243 169 198 188 119 224 210 135 255 240 155 255 239 143 255 243 151 255 242 172 197 183 118 240 218 142 254 237 147 255 238 140 254 236 134 254 241 137 224 207 127 168 155 120 167 174 167 100 144 153 15 74 90 13 64 81 14 61 79 15 62 78 15 62 78 14 63 77 14 64 75 15 63 77 11 63 77 6 64 78 15 80 98 9 73 100 0 63 94 1 64 95 0 65 95 0 65 95 0 65 95 0 65 95 0 65 95 1 66 96 1 66 96 1 66 96 3 63 91 11 56 79 4 40 62 5 40 62 12 57 78 23 84 102 7 68 87 13 62 77 15 61 76 14 61 77 14 61 77 14 62 76 14 62 76 14 62 74 11 67 80 14 75 94 72 120 134 159 171 169 160 149 119 208 189 112 255 243 141 255 236 134 255 242 138 255 241 142 254 234 147 190 176 111 247 232 167 255 246 153 254 239 136 255 240 139 251 231 144 197 179 115 249 235 174 255 243 159 254 239 144 255 239 143 255 244 155 202 180 120 161 148 114 165 172 165 86 116 126 23 71 91 12 69 88 15 64 79 12 61 75 13 62 77 13 62 77 14 61 77 14 61 77 13 62 77 10 65 85 15 85 111 0 73 102 1 66 96 0 65 95 0 65 95 0 65 95 0 65 95 0 65 95 0 65 95 0 65 95 1 66 96 0 64 92 5 65 89 4 52 74 8 40 61 3 40 59 10 70 94 15 80 100 10 63 79 14 62 76 14 62 76 14 62 76 14 62 76 14 62 76 14 62 76 10 63 79 5 72 89 17 76 92 114 143 151 168 172 158 160 147 102 224 204 131 253 247 151 255 241 134 255 243 138 255 242 150 227 215 155 193 181 121 255 240 149 254 241 137 255 241 140 255 239 152 228 216 156 199 184 127 255 245 158 255 242 143 255 236 141 255 239 151 255 235 149 188 164 102 167 157 130 150 168 172 47 105 119 7 73 97 9 61 82 14 59 78 13 60 76 14 60 75 13 62 76 14 62 72 15 62 70 11 63 76 5 71 93 13 83 109 0 69 98 0 64 92 0 65 95 0 65 95 0 65 95 0 65 95 
1 66 96 1 66 96 1 66 96 0 65 95 2 66 94 8 59 88 5 43 64 3 41 60 1 51 74 21 81 105 15 68 84 11 60 77 14 61 77 16 62 77 14 62 76 14 62 76 14 63 77 11 63 77 6 65 79 18 71 85 59 97 110 151 170 168 164 157 131 182 165 109 247 231 143 250 233 129 251 232 129 248 232 137 253 244 169 193 183 114 227 214 136 252 236 148 254 232 133 245 226 132 253 236 164 196 181 114 233 215 133 252 233 141 253 234 132 250 233 127 253 236 132 221 204 122 168 155 120 167 174 167 102 146 155 17 76 92 15 66 83 16 63 79 15 62 78 15 62 78 14 63 77 14 64 75 15 63 77 11 63 77 5 64 78 17 80 98 10 74 101 0 63 94 0 65 95 0 65 95 0 65 95 0 65 95 0 65 95 0 65 94 1 66 96 1 66 96 1 66 96 4 64 92 11 56 79 3 41 62 3 41 62 13 58 79 23 84 102 7 68 87 13 62 77 15 61 76 13 60 76 14 61 77 14 62 76 14 62 76 13 63 74 10 66 79 14 75 94 72 120 134 168 178 177 159 148 116 200 181 104 255 237 135 248 231 125 252 235 131 252 234 132 246 229 141 186 171 104 235 220 153 252 233 139 255 234 129 255 235 130 242 223 131 192 177 110 229 219 150 250 235 144 247 232 129 249 232 126 253 234 140 211 187 125 163 150 116 164 171 163 88 118 129 21 69 89 11 68 87 15 62 78 13 61 75 13 62 77 11 63 77 14 61 77 14 61 77 14 61 77 10 67 86 14 86 111 0 73 102 1 66 96 0 65 95 0 65 95 0 65 95 0 65 95 0 65 95 0 65 95 0 65 95 1 66 96 0 63 94 5 65 89 4 52 74 8 41 60 3 40 59 10 70 94 17 80 98 10 63 79 15 61 76 14 62 76 14 62 76 14 62 76 14 62 76 14 62 76 10 63 79 5 72 89 20 77 94 114 143 151 169 173 158 164 147 101 221 199 126 253 234 140 249 232 126 246 232 123 250 235 140 223 212 146 187 174 106 248 232 136 251 233 123 253 232 123 250 231 136 221 210 148 194 182 122 249 229 140 252 231 126 251 231 134 248 225 132 255 230 143 187 166 101 167 157 132 150 168 172 47 105 119 7 73 97 10 61 80 15 60 79 13 60 76 13 61 75 13 63 74 14 62 74 15 62 70 11 63 77 5 71 93 13 83 109 2 69 98 0 64 92 0 65 95 0 65 95 0 65 95 0 65 95 
0 67 96 1 66 96 1 66 96 0 65 95 2 66 94 8 59 88 5 43 64 3 41 60 0 52 74 21 81 105 15 68 86 12 61 78 14 61 77 15 61 76 14 62 76 14 62 76 14 63 77 11 63 77 7 66 80 19 71 85 59 97 110 151 170 168 164 157 131 182 165 109 247 233 144 251 234 128 251 232 127 247 233 136 250 238 164 198 186 112 222 209 130 251 236 145 254 232 131 251 232 137 251 235 160 195 181 110 233 215 131 252 233 139 251 234 130 248 234 127 255 239 133 220 205 122 164 152 114 162 169 161 101 146 152 17 76 92 15 66 83 16 63 79 15 62 78 15 62 78 14 63 77 14 64 75 14 62 76 11 63 77 5 64 78 17 80 98 10 74 101 0 63 94 0 65 95 0 65 95 0 65 95 0 65 95 0 65 95 0 65 95 1 66 96 1 66 96 1 66 96 4 64 92 11 56 79 4 40 62 4 40 62 12 57 78 23 84 102 7 68 87 13 62 77 15 61 76 14 61 77 14 61 77 14 62 76 14 62 76 13 63 74 10 66 79 14 75 94 72 120 134 156 168 166 159 148 116 205 186 109 254 239 136 249 230 125 252 235 129 252 235 131 246 229 137 191 176 109 239 229 157 255 237 143 254 233 126 253 232 125 242 223 128 192 180 104 236 226 155 251 236 143 248 234 127 249 233 122 253 234 140 204 185 119 165 152 117 170 177 169 88 121 128 20 68 88 10 67 86 13 62 77 14 62 76 14 61 77 13 62 77 13 60 76 14 61 77 13 62 77 12 67 87 12 86 111 0 73 102 1 66 96 0 65 95 0 65 95 0 65 95 0 65 95 0 65 95 0 65 95 0 65 95 1 66 96 0 64 92 5 65 89 4 52 74 8 40 61 3 40 59 11 71 95 15 80 100 10 63 79 14 62 76 14 62 76 14 62 76 14 62 76 14 62 76 14 62 76 10 63 79 4 73 89 20 77 94 113 142 150 169 173 159 164 150 105 227 205 132 255 240 145 249 232 126 250 237 125 249 236 134 223 213 142 193 183 112 250 235 132 253 236 120 255 235 122 252 234 134 222 206 144 201 187 126 254 239 146 251 230 125 253 234 132 255 233 139 255 230 138 189 165 101 167 156 134 150 167 174 47 105 119 7 73 99 12 63 84 14 59 78 13 59 75 13 61 75 13 63 74 14 62 74 15 62 70 11 63 77 5 71 93 13 83 109 2 69 98 0 63 91 0 65 95 0 65 95 0 65 95 0 65 95 
1 66 96 1 66 96 0 67 96 0 65 97 2 66 94 8 59 88 5 43 64 3 41 60 0 52 74 21 81 105 15 68 86 12 61 78 14 61 77 15 61 76 14 61 77 14 62 76 13 63 74 11 63 76 6 65 81 19 71 85 60 96 108 151 170 166 164 157 129 182 165 109 249 234 141 252 235 127 252 234 126 250 235 134 249 238 159 193 183 111 227 216 134 254 239 144 252 233 130 251 233 133 251 235 158 195 181 108 235 217 131 254 236 138 253 236 132 252 235 127 254 240 133 223 206 126 159 147 109 165 172 165 101 145 154 16 75 91 14 65 82 15 62 78 14 61 77 14 61 77 13 62 76 13 63 74 15 63 77 11 63 77 5 64 78 17 80 98 12 73 101 0 62 93 0 65 95 0 65 95 0 65 95 0 65 95 0 65 95 0 65 95 1 66 96 1 66 96 1 66 96 4 64 92 11 56 79 4 40 62 4 40 62 12 57 80 23 84 102 7 68 87 13 62 77 15 61 76 15 61 77 14 61 77 14 62 76 14 62 74 13 63 74 10 66 79 13 76 94 72 120 134 161 173 171 160 149 117 206 187 110 255 237 134 249 231 121 253 236 128 253 236 132 247 230 138 190 175 106 240 228 154 255 237 139 253 232 123 255 234 125 248 230 132 192 178 103 243 231 157 252 237 142 249 235 126 251 235 124 255 236 141 203 182 115 166 152 117 167 174 167 90 120 130 20 68 88 10 67 86 13 62 77 14 62 76 13 62 77 13 62 77 13 60 76 14 61 77 13 62 77 11 66 86 14 86 111 0 73 102 1 66 96 0 65 95 0 65 95 0 65 95 0 65 95 0 65 95 0 65 95 0 65 95 1 66 96 0 64 92 5 65 89 3 51 73 8 40 61 3 40 59 10 70 94 15 80 100 10 63 79 14 62 76 14 62 76 15 63 77 14 62 76 14 62 76 14 62 76 8 64 79 4 71 88 20 79 93 113 140 149 170 174 160 165 151 106 225 203 130 255 239 144 252 235 129 249 236 122 252 241 136 229 217 143 194 182 108 251 237 132 249 232 116 251 231 116 252 235 131 224 215 146 192 181 115 254 238 143 255 234 127 254 235 133 254 231 135 254 233 142 187 164 97 166 156 131 151 166 171 46 102 117 6 72 96 11 62 83 16 59 78 15 58 75 13 61 75 13 63 74 14 62 74 15 62 70 12 64 78 5 71 93 14 84 110 2 69 98 0 64 92 0 65 95 0 65 95 0 65 95 0 65 95 
1 66 96 1 66 96 1 66 96 0 65 95 2 66 94 8 59 88 5 43 64 3 41 60 0 52 73 21 81 105 14 67 85 12 61 78 14 61 77 15 61 76 14 62 76 14 62 76 14 64 75 11 63 76 8 64 77 19 71 84 60 96 108 151 170 166 164 157 129 184 165 107 249 234 141 253 235 125 253 235 125 250 235 132 248 235 156 193 184 107 227 217 132 254 239 144 254 233 128 251 233 133 250 235 154 195 181 106 235 218 128 254 236 138 253 236 132 252 235 127 254 240 133 223 206 126 158 146 108 165 172 165 100 144 153 15 74 90 13 64 81 14 61 77 13 60 76 14 61 77 13 62 76 13 63 74 15 63 77 11 63 77 5 64 78 17 80 98 11 75 102 0 63 94 0 65 95 0 65 95 0 65 95 0 65 95 0 65 95 1 66 96 0 65 95 1 66 96 1 66 98 4 64 92 11 56 79 4 40 62 3 39 61 12 57 78 23 84 102 7 68 89 13 62 77 15 61 76 14 61 77 14 62 76 14 62 76 14 62 76 13 63 74 10 66 79 13 76 94 72 120 134 161 173 171 161 150 118 206 187 110 255 238 134 250 232 122 253 237 126 253 236 128 247 231 136 191 179 105 240 227 149 254 236 138 253 232 123 255 234 125 248 230 130 192 178 103 243 231 157 252 237 142 249 235 126 251 235 124 255 236 141 203 182 115 161 152 113 164 176 166 88 118 129 21 69 89 8 65 84 12 61 76 14 62 74 14 61 77 13 62 77 14 61 77 15 61 77 13 62 77 10 67 86 14 86 111 0 73 102 1 66 96 0 65 95 0 65 95 0 65 95 0 65 95 0 65 95 0 65 95 0 65 95 1 66 98 0 64 92 5 65 89 4 52 74 8 40 61 3 40 59 10 70 94 15 80 100 10 63 79 14 62 76 14 62 76 14 62 76 13 61 75 14 62 76 14 62 76 10 63 79 4 71 88 20 79 95 112 141 149 170 174 160 166 152 107 225 203 130 255 239 144 252 235 129 249 236 122 252 241 135 229 217 141 195 183 109 253 238 135 251 234 118 252 232 117 255 237 137 227 214 144 192 181 115 255 239 143 255 234 127 255 236 131 254 232 131 255 235 140 188 165 97 166 156 129 151 166 171 46 102 117 8 72 97 13 61 84 16 59 78 13 59 75 14 60 75 14 64 75 13 63 74 15 62 70 11 63 77 5 71 93 13 83 109 2 69 98 0 64 92 0 65 95 0 65 95 0 65 95 0 65 95 
1 66 96 1 66 96 1 66 96 0 65 95 2 66 94 8 59 88 5 43 64 3 41 60 0 52 74 21 81 105 15 67 88 12 61 76 15 62 78 15 61 76 14 62 76 14 62 76 14 64 75 11 63 76 7 65 77 21 70 84 61 97 109 154 170 167 165 158 130 186 167 109 250 235 140 252 236 123 254 237 123 250 235 132 249 238 158 193 184 105 227 215 129 254 239 144 254 233 128 251 233 131 250 234 156 195 182 104 235 218 128 254 236 138 253 236 128 252 236 125 255 241 134 223 206 126 159 146 111 165 172 165 100 144 153 15 74 90 13 64 81 14 61 79 14 61 77 13 62 77 13 62 76 13 63 74 15 63 77 11 63 77 5 64 78 17 79 100 10 74 101 2 63 94 0 65 95 0 65 95 0 65 95 0 65 95 0 65 95 0 65 95 1 66 96 1 66 96 1 66 96 4 64 92 11 56 79 4 40 62 4 40 62 12 57 78 23 84 103 7 68 89 13 62 77 15 61 76 14 61 77 14 61 77 14 62 76 14 62 76 13 63 74 10 66 79 14 77 95 72 121 135 160 172 170 161 150 118 208 186 110 255 238 132 250 232 122 253 238 123 253 236 128 247 231 135 190 176 101 240 229 150 255 237 137 254 232 121 255 233 127 248 229 134 192 180 106 241 231 159 253 238 145 249 235 128 251 234 126 255 236 143 202 183 115 161 152 113 164 176 164 87 117 128 21 69 89 8 65 84 10 62 75 15 63 75 13 62 76 13 62 77 13 62 77 14 61 77 12 61 76 10 67 86 14 86 111 0 73 102 1 66 96 0 65 95 0 65 95 0 65 95 0 65 95 0 65 95 0 65 95 0 65 95 0 67 96 0 64 92 6 66 90 4 52 74 8 40 61 3 40 59 10 70 94 17 79 100 10 63 79 14 62 76 14 62 76 14 62 76 14 62 76 14 62 76 14 62 76 10 63 79 3 70 87 20 82 97 111 140 148 171 175 161 166 152 107 225 203 130 254 238 143 252 235 129 249 236 124 252 238 139 229 216 146 194 181 111 255 240 139 252 235 119 255 235 122 254 238 140 227 214 146 193 182 116 255 239 143 255 234 125 255 236 131 254 232 130 254 234 137 187 164 96 166 156 129 151 166 171 46 102 117 7 71 96 14 62 84 16 59 78 13 59 75 14 60 75 14 62 74 14 62 74 15 62 70 11 63 76 5 71 93 13 83 108 2 69 98 0 64 92 0 65 95 0 65 95 0 65 95 0 65 95 
1 66 96 1 66 96 0 67 96 0 65 95 4 65 94 8 59 86 5 43 62 3 41 60 0 53 74 21 81 107 9 67 89 6 63 80 10 63 81 10 63 81 7 64 81 6 63 80 9 65 80 6 65 81 3 66 83 16 72 87 61 97 109 152 171 167 163 159 132 180 167 115 250 233 153 252 233 138 252 234 134 250 233 143 252 236 161 195 180 111 228 215 136 254 238 150 251 232 138 250 230 141 251 235 160 197 180 110 235 217 135 254 234 148 254 235 141 252 234 136 254 238 142 221 205 130 159 146 114 164 170 166 100 144 155 14 75 94 10 67 86 8 63 83 10 63 81 7 64 81 7 65 79 7 65 79 9 65 80 7 64 81 0 66 82 13 81 102 9 74 102 0 63 94 0 65 95 0 65 95 0 65 95 0 65 95 0 65 95 0 65 95 1 66 96 1 66 96 1 66 96 4 64 92 11 56 79 4 40 62 4 40 62 11 58 78 22 84 107 3 72 88 7 64 81 11 62 79 10 63 79 10 63 81 10 63 81 7 65 79 7 65 79 9 66 83 13 75 96 71 120 134 161 173 171 160 151 122 205 186 117 255 237 143 249 231 133 253 235 137 253 234 139 246 229 141 190 175 106 243 226 154 255 235 146 253 230 137 255 232 139 249 229 143 194 176 112 243 229 164 252 235 153 249 232 140 249 233 138 254 236 152 201 182 124 158 152 118 163 176 167 86 120 129 17 74 93 4 66 87 6 63 80 8 64 79 7 64 81 7 64 83 10 63 81 9 62 80 7 64 81 6 67 86 14 86 111 0 72 104 1 66 96 0 65 95 0 65 95 0 65 95 0 65 95 0 65 95 0 65 95 0 65 95 0 65 95 0 63 91 5 65 91 4 52 74 7 40 59 2 39 58 10 72 95 13 81 104 6 65 83 10 63 79 10 63 79 7 65 79 7 65 79 7 65 79 7 65 79 4 65 83 0 70 92 18 79 97 111 140 148 170 174 160 164 151 107 224 203 136 254 238 153 252 233 139 249 233 137 252 236 148 229 215 152 195 180 115 255 239 151 255 237 139 255 238 140 255 238 152 228 214 151 195 181 118 254 238 151 255 234 141 254 235 143 255 231 143 255 234 151 187 167 108 165 158 132 150 168 170 47 103 120 6 73 99 7 65 85 9 61 82 9 62 80 6 63 80 7 65 79 7 65 79 7 65 77 4 66 81 2 74 96 10 84 109 2 69 98 0 63 94 0 65 95 0 65 95 0 65 95 0 65 95 
1 66 98 1 66 96 0 65 93 1 65 93 4 65 94 7 58 85 5 43 62 4 39 58 1 49 71 19 79 105 15 79 106 12 79 105 12 77 105 12 79 106 6 81 104 6 82 105 7 81 106 5 81 105 5 80 103 15 76 95 58 100 112 154 174 173 160 163 142 161 152 111 196 176 123 198 177 110 198 178 109 198 177 110 200 180 121 182 163 105 183 163 102 201 180 117 197 177 108 203 182 115 195 175 116 173 152 95 195 175 116 196 175 112 197 176 109 197 177 106 202 183 107 181 165 105 172 158 132 171 175 174 101 145 158 16 78 101 16 80 107 9 75 101 8 78 103 9 82 101 9 80 102 9 79 104 9 81 103 6 81 104 4 82 105 4 82 105 1 75 102 0 66 95 4 69 99 2 67 97 0 65 95 0 64 94 0 65 95 0 65 95 1 66 96 1 66 96 1 66 96 4 64 92 10 55 78 0 37 56 1 38 57 11 59 81 15 85 110 6 82 106 8 80 102 10 78 99 10 76 98 12 78 102 9 80 102 8 80 104 11 83 105 14 82 105 13 77 102 81 127 143 161 173 171 162 156 132 172 159 107 200 181 115 199 179 110 199 179 110 199 179 110 199 178 113 176 155 98 198 176 119 209 188 125 202 178 114 196 175 112 195 173 113 174 155 99 202 181 126 197 182 117 200 181 115 201 182 113 197 181 121 172 161 116 152 152 124 159 174 167 78 119 125 6 77 97 5 85 110 13 83 109 11 78 104 8 78 104 8 78 104 9 80 102 8 79 99 12 78 100 12 80 103 9 83 108 1 75 102 1 66 96 0 65 95 0 65 95 0 65 95 0 65 95 0 65 95 0 65 95 0 65 95 0 65 97 1 61 95 7 64 94 3 50 76 7 44 62 3 46 65 7 73 97 13 87 114 9 79 104 9 80 102 9 80 102 7 79 101 6 81 100 6 81 100 5 82 100 5 81 104 8 85 113 15 77 102 109 139 147 163 171 158 166 153 118 182 166 107 196 175 112 199 179 108 206 186 117 199 178 111 188 169 113 181 162 106 201 180 117 203 180 113 202 179 112 202 180 120 191 169 119 181 161 108 207 187 126 199 177 117 197 177 116 207 185 125 198 176 118 168 156 106 160 163 136 151 178 173 49 108 124 4 79 108 7 79 104 9 79 104 9 79 104 5 80 103 6 81 104 6 81 104 7 82 101 6 83 103 5 85 108 7 84 110 2 68 100 0 63 96 0 65 95 0 65 95 0 65 95 0 65 95 
0 65 97 1 66 96 0 65 95 1 65 93 3 64 92 8 58 83 7 42 61 4 39 58 0 46 69 22 82 108 19 86 115 10 84 109 12 86 115 11 84 116 7 87 112 8 90 114 8 88 115 10 87 113 9 86 112 16 81 101 53 97 108 149 175 176 149 157 142 163 162 134 164 153 121 167 152 113 167 152 111 166 151 110 165 150 111 167 153 114 167 154 112 163 150 108 162 148 109 163 150 108 168 154 115 167 153 114 165 151 114 165 151 114 167 152 113 166 153 111 166 152 105 165 153 113 166 157 142 158 168 169 97 141 154 16 78 101 19 91 116 8 77 106 13 85 110 11 87 111 10 86 110 10 86 110 10 87 113 10 87 113 7 87 110 10 87 113 8 77 106 0 63 94 0 63 94 0 65 95 0 65 95 0 65 95 0 65 95 0 65 95 1 66 96 1 66 96 1 66 94 4 64 90 8 55 75 1 38 54 2 39 55 10 58 78 14 84 109 7 84 112 8 83 106 11 83 107 11 83 107 11 83 107 9 83 108 9 85 111 8 84 108 10 84 109 13 77 104 76 122 138 153 167 168 166 164 149 169 160 129 162 150 108 165 150 111 165 150 111 165 150 109 165 150 111 166 152 115 167 153 114 165 151 114 163 149 114 164 150 113 164 151 116 164 150 115 164 152 112 166 154 112 165 153 111 166 153 111 163 154 115 159 154 125 156 163 145 150 171 166 76 121 127 6 77 99 6 87 114 14 89 118 13 87 116 11 82 112 11 82 112 9 83 108 11 83 107 14 84 109 13 88 111 13 87 112 0 74 99 1 66 96 0 65 95 0 65 95 0 65 95 0 65 95 0 65 95 0 65 95 0 65 95 1 64 97 2 62 96 5 64 96 4 51 79 3 40 58 1 42 62 8 70 93 11 85 112 11 85 112 10 86 110 10 86 110 9 87 110 12 90 112 11 89 111 7 88 109 5 85 110 13 90 118 8 69 97 109 139 150 162 169 162 161 156 134 163 148 115 164 146 106 165 150 107 167 150 107 165 152 110 168 154 115 171 153 115 166 151 110 165 150 109 165 150 111 166 151 112 167 153 116 165 151 114 168 154 119 164 151 117 162 150 112 163 151 113 167 154 119 161 154 126 156 164 143 150 179 174 42 101 117 9 83 110 5 81 107 7 85 108 7 84 112 8 85 113 8 85 113 8 85 111 8 86 109 8 86 109 9 87 110 10 84 111 3 68 100 0 62 95 0 65 95 0 65 95 0 65 95 0 65 95 
3 63 99 3 63 99 1 64 97 1 64 95 4 65 94 8 58 83 7 42 61 7 40 57 3 50 70 22 82 106 13 83 109 8 82 107 12 88 114 12 88 114 11 85 110 11 86 109 13 85 109 11 86 109 15 85 110 18 79 98 57 100 117 149 178 184 158 173 168 168 171 162 173 175 164 175 175 163 175 176 160 174 175 161 173 173 163 168 172 158 168 170 156 172 174 160 176 178 164 169 171 157 170 172 161 169 171 158 170 173 162 172 174 163 172 174 161 172 173 159 175 172 155 176 172 160 173 173 173 156 173 180 101 148 156 18 80 95 18 83 105 16 81 109 14 84 109 15 85 110 11 86 109 11 85 110 13 87 112 12 86 111 15 86 114 16 85 114 10 75 105 0 63 94 0 63 94 0 65 95 0 65 97 0 65 95 0 65 95 0 65 95 1 66 96 1 66 96 1 67 93 4 64 90 7 54 74 0 42 56 0 42 56 7 59 73 14 85 105 11 87 110 13 85 107 15 86 108 15 86 108 14 84 109 15 85 111 17 84 111 21 93 118 13 83 108 14 74 98 79 125 141 161 180 186 169 174 170 175 175 163 177 178 162 174 175 161 173 174 160 173 174 160 172 174 161 172 174 163 171 173 162 173 175 162 178 180 167 172 174 161 170 172 159 176 178 165 168 172 158 173 177 162 172 176 159 172 176 159 172 176 161 169 177 164 157 170 163 158 183 187 85 127 139 11 78 95 8 84 108 13 83 109 11 78 105 14 84 110 15 85 111 17 82 110 17 82 110 14 81 107 14 81 107 14 84 109 4 76 100 0 65 95 0 65 95 0 65 95 0 65 95 0 65 95 0 65 95 0 65 95 0 65 95 0 65 97 0 63 96 7 63 96 4 51 79 3 40 59 4 43 60 18 67 97 21 85 113 15 85 110 12 87 110 12 87 110 11 86 109 14 88 113 13 87 112 13 87 112 11 85 110 10 84 109 18 79 98 117 146 162 169 178 187 173 172 168 175 168 158 174 172 159 181 179 164 176 177 161 173 175 161 172 174 161 172 172 160 171 172 158 170 171 157 172 170 157 169 171 157 175 179 164 175 177 163 168 170 157 166 170 156 174 178 163 170 174 159 170 174 159 168 174 160 165 177 165 150 178 179 51 99 119 12 75 106 17 82 110 14 84 110 14 83 112 15 84 113 16 88 113 19 86 112 19 86 112 19 86 112 19 86 113 20 85 115 6 69 102 0 62 95 0 65 95 0 65 95 0 65 95 0 65 95 
3 63 100 3 63 100 1 64 99 1 64 97 5 64 94 6 60 88 7 42 62 8 40 55 2 45 62 11 62 81 1 59 81 3 65 88 0 62 87 0 61 86 1 62 83 4 63 81 1 62 80 9 68 86 17 76 94 21 72 89 38 80 92 81 111 119 86 106 105 93 109 106 92 106 109 93 107 110 93 107 110 92 107 110 92 106 109 91 105 106 90 106 106 91 107 107 91 107 107 91 106 109 94 109 112 92 107 112 90 105 110 92 107 112 92 107 114 93 107 110 97 107 109 94 104 105 92 103 105 86 109 115 58 101 107 20 73 81 16 72 87 15 72 91 5 63 83 7 66 84 4 64 88 4 64 88 0 61 86 0 60 86 3 60 87 1 61 89 3 67 95 0 65 95 5 70 100 1 66 96 0 65 95 0 65 95 1 66 96 0 65 95 1 66 96 1 66 96 0 65 93 4 64 90 5 52 70 1 43 57 1 43 57 9 55 70 5 61 78 1 61 85 4 63 81 4 63 81 3 61 83 3 61 81 4 60 85 5 59 87 7 65 87 20 77 97 15 66 83 56 96 106 80 110 112 90 106 105 95 106 108 97 107 109 94 108 108 94 108 108 94 108 108 92 106 109 89 104 109 91 104 110 92 106 109 89 102 108 94 109 114 93 106 112 88 103 108 94 109 112 87 106 104 87 106 104 89 105 104 89 105 102 88 103 100 85 104 102 84 112 116 49 90 96 22 76 88 16 78 93 10 73 91 3 61 85 3 61 85 4 61 81 8 60 82 3 61 85 5 61 86 0 58 80 0 66 90 0 70 94 0 65 95 0 65 95 0 65 95 0 65 95 0 65 95 0 65 95 0 65 95 0 65 95 0 64 96 0 63 96 7 64 94 4 51 79 9 46 65 7 39 60 10 52 77 9 56 84 6 63 83 5 63 83 5 63 83 2 63 84 1 59 79 0 61 82 7 65 85 9 67 89 19 80 98 29 78 95 72 100 112 95 112 122 95 102 108 100 108 110 101 109 111 96 108 108 94 108 108 94 110 109 93 106 112 93 107 110 95 109 110 95 109 109 95 109 109 95 109 109 92 108 107 89 105 104 93 109 108 90 106 105 91 109 109 95 114 112 96 112 111 93 109 108 91 107 107 88 113 118 41 79 98 18 69 90 18 73 94 14 69 90 7 63 88 2 59 86 12 64 88 11 63 85 11 63 85 8 64 87 0 57 86 4 65 94 0 63 96 1 66 98 0 65 95 0 65 95 0 65 95 0 65 95 
1 65 101 1 63 100 0 64 99 1 64 97 5 64 98 8 59 90 7 42 62 11 40 58 6 39 58 4 39 58 5 42 61 3 41 60 3 39 61 4 39 59 3 38 57 3 39 55 3 41 54 8 44 58 25 63 76 31 68 77 26 59 64 28 59 61 30 59 54 33 58 54 33 57 61 33 56 62 33 57 61 33 57 61 34 54 61 33 53 60 30 55 59 31 56 60 31 56 60 31 56 60 34 57 63 31 56 61 30 55 62 31 56 63 31 56 61 31 56 60 31 56 60 33 57 57 30 56 53 25 57 54 26 62 58 27 69 67 29 66 72 17 50 65 2 39 55 3 40 59 5 37 60 5 37 58 4 38 63 1 37 61 1 39 60 0 50 77 3 65 90 0 65 93 0 65 97 0 65 95 0 65 95 0 65 95 0 65 95 0 64 94 1 66 96 1 66 96 0 65 95 6 63 90 7 54 74 4 41 59 11 44 63 4 37 56 2 40 59 3 40 59 3 40 59 3 40 59 0 39 56 5 42 61 5 40 59 1 36 55 18 55 71 35 71 85 30 68 77 28 63 67 27 57 55 31 56 52 31 56 60 31 56 61 31 56 61 30 55 60 33 54 59 33 54 59 31 54 60 33 55 66 33 56 64 30 55 62 31 56 63 33 58 65 28 55 62 31 56 61 28 58 60 29 57 60 29 57 60 31 57 58 31 58 53 29 56 51 27 55 56 26 56 58 33 68 70 28 69 75 16 52 74 1 36 58 0 38 57 1 37 53 4 37 54 3 36 53 0 37 58 1 43 65 0 53 79 2 66 94 0 65 95 0 65 95 0 65 95 0 65 95 0 65 95 0 65 95 0 65 95 0 65 95 0 67 96 1 64 97 6 63 93 0 48 71 6 39 58 9 38 56 8 39 60 7 39 60 7 40 59 6 39 58 6 39 58 4 41 57 3 39 55 3 40 49 0 38 51 21 57 71 36 70 80 33 66 75 34 56 67 30 53 59 26 54 57 29 55 56 33 54 59 33 54 59 30 55 59 30 55 59 32 52 59 32 52 59 30 55 59 30 55 59 30 55 59 30 55 59 28 56 59 31 56 60 25 53 56 26 54 58 28 56 59 28 56 59 29 54 58 33 53 60 27 48 53 31 54 60 30 64 76 25 63 76 31 68 77 6 46 54 1 39 50 4 43 58 5 38 57 5 35 59 6 38 59 3 39 63 0 44 71 0 57 87 2 65 98 0 66 98 0 65 95 0 65 95 0 65 95 0 65 95 
0 66 100 1 64 99 0 64 99 1 64 99 5 63 100 7 57 90 3 43 68 7 42 62 4 41 60 5 40 59 7 39 60 9 40 61 7 40 59 9 40 60 12 40 54 9 38 52 10 39 53 17 44 53 37 60 74 39 66 73 37 67 67 38 68 68 38 67 62 39 68 64 38 66 69 41 64 70 41 65 69 41 65 69 39 64 69 39 62 68 38 63 67 39 64 68 39 64 68 40 65 69 42 65 71 39 64 68 38 63 70 39 64 71 39 64 69 39 64 69 39 64 69 37 65 68 38 64 61 34 65 57 35 66 60 41 71 69 39 69 69 31 61 69 8 41 58 8 40 63 9 39 63 9 39 65 7 41 66 7 43 69 10 52 74 11 61 84 2 63 91 0 65 95 0 66 95 0 65 95 0 65 95 0 65 95 0 65 95 0 65 95 1 66 96 1 66 96 1 64 95 6 63 92 8 54 77 1 43 65 6 42 66 3 39 65 8 40 65 8 40 63 8 40 65 8 40 61 6 39 58 9 40 58 11 40 56 11 37 52 29 56 65 45 70 75 38 66 70 38 66 67 36 65 60 37 66 62 38 66 70 38 65 72 38 66 70 39 64 69 39 64 68 37 65 69 39 64 71 39 66 75 40 67 76 37 64 71 39 66 73 41 68 75 37 64 71 36 65 69 37 67 69 37 67 69 37 67 69 37 67 67 37 68 63 38 64 61 38 64 61 41 63 61 37 63 60 38 66 70 23 52 70 5 37 60 10 41 62 9 41 62 10 41 59 9 42 59 4 42 61 10 57 77 10 66 93 3 64 93 0 65 95 0 65 95 0 65 95 0 65 95 0 65 95 0 65 95 0 65 95 0 65 95 1 66 98 0 63 96 4 63 93 0 50 75 2 43 63 9 42 61 7 42 62 9 41 62 9 41 64 9 40 60 10 41 59 12 41 57 11 40 56 12 40 51 14 43 51 31 58 65 49 68 75 45 65 72 42 63 68 36 64 67 33 67 68 35 70 66 39 67 70 41 65 69 43 67 71 42 66 70 41 64 70 41 64 70 42 66 70 42 66 70 42 66 70 39 67 70 39 67 70 40 68 72 39 64 69 38 65 72 39 67 71 39 67 71 41 64 70 44 68 72 46 67 72 43 64 69 41 64 70 39 67 71 37 68 73 17 50 59 4 40 52 10 46 58 10 41 61 12 40 62 9 42 61 7 42 64 11 55 84 6 63 93 1 66 98 0 66 98 0 65 95 0 65 95 0 65 95 0 65 95 
1 66 94 0 66 95 0 63 96 3 63 99 4 64 98 3 62 96 3 54 83 4 54 77 6 56 81 6 56 81 6 56 83 9 56 84 4 54 77 8 54 78 9 50 68 5 44 61 7 42 61 10 41 59 28 49 66 29 51 62 24 52 56 23 52 50 27 52 49 29 51 49 30 50 51 31 49 53 31 51 50 30 50 49 30 48 52 29 47 51 29 47 49 30 48 50 30 48 50 29 47 49 32 50 52 30 48 52 29 46 53 29 48 55 29 49 50 29 49 48 29 49 48 29 51 49 28 50 47 24 50 51 26 50 52 28 49 54 24 52 56 19 51 62 8 53 74 4 54 79 4 54 81 3 54 85 5 56 87 6 57 88 7 62 92 8 68 96 1 65 93 0 65 95 0 65 95 0 65 95 0 65 95 0 65 95 0 65 95 0 65 95 0 65 93 1 66 96 1 64 95 3 64 93 6 63 90 2 56 80 6 55 85 6 55 85 5 55 82 5 55 82 5 55 82 7 54 82 8 54 77 6 47 67 10 43 62 14 42 54 19 42 48 27 51 51 26 45 52 30 49 53 28 50 48 26 50 50 31 48 58 30 48 58 30 50 51 28 50 48 30 48 50 30 48 52 29 48 54 30 49 53 30 52 50 29 49 50 29 49 50 32 51 55 29 49 50 27 52 49 28 50 48 26 51 47 27 52 48 29 51 49 24 52 53 24 50 51 25 50 47 29 49 47 31 52 47 25 53 56 18 53 75 9 50 78 8 54 80 7 54 82 5 55 78 4 56 77 4 60 85 6 62 89 4 65 94 2 67 97 0 65 95 0 65 95 0 65 95 0 65 95 0 65 95 0 65 95 0 65 95 0 65 95 2 67 97 2 65 98 1 64 95 1 58 85 1 55 79 6 54 77 6 53 81 4 54 79 3 55 77 2 57 77 6 54 74 7 54 70 7 46 63 8 41 56 13 43 53 23 51 55 28 52 54 32 52 51 30 50 51 27 51 53 24 55 50 24 55 50 30 52 49 30 50 48 31 51 49 33 51 51 31 49 53 31 49 53 33 51 51 33 51 51 32 50 52 31 51 52 31 51 52 33 52 58 29 47 57 30 49 56 31 50 57 31 50 54 30 49 53 31 50 54 31 49 53 30 48 50 31 50 48 28 54 53 21 54 59 13 56 63 8 57 72 7 57 80 6 54 76 7 54 80 8 54 78 5 55 80 6 66 94 3 64 93 1 66 98 1 66 98 0 65 95 0 65 95 0 65 95 0 65 95 
0 64 92 0 65 95 3 64 95 4 64 98 3 63 99 0 62 95 2 63 91 10 70 96 6 66 92 7 67 95 6 65 95 6 65 95 6 67 95 9 67 91 7 55 75 0 40 58 7 42 62 6 35 51 15 38 52 14 33 47 10 37 44 12 40 43 18 39 42 18 37 41 19 38 42 21 36 39 21 36 39 21 36 39 18 36 36 19 35 35 19 34 37 20 36 36 19 37 37 18 37 35 21 39 41 18 36 40 17 35 37 18 36 40 18 36 40 18 36 40 18 36 40 20 38 42 19 36 43 15 36 41 15 39 43 15 38 44 18 41 47 12 46 56 13 63 86 7 67 95 3 67 95 5 66 95 5 68 99 2 67 97 4 65 96 0 63 94 0 65 95 0 65 95 0 65 95 0 65 95 0 65 95 0 65 95 0 65 95 0 65 95 0 65 93 0 64 94 0 65 95 1 64 95 1 65 93 4 65 93 6 65 95 6 65 95 5 66 97 5 66 97 5 66 97 8 65 95 11 65 93 9 54 77 7 42 61 10 38 52 13 37 41 21 41 42 19 36 43 26 43 50 16 37 40 18 37 41 21 38 46 21 38 46 22 40 44 21 36 39 21 36 39 20 38 40 22 37 42 22 40 44 23 41 45 20 38 42 21 39 43 23 41 45 21 39 43 23 38 41 18 38 37 19 39 38 22 40 40 17 41 41 19 40 43 15 39 43 17 36 40 18 38 37 19 37 37 12 41 45 7 48 70 14 65 96 8 62 96 7 64 94 2 66 94 2 66 94 3 67 95 2 66 94 1 64 95 2 65 96 0 65 95 0 65 95 0 65 95 0 65 95 0 65 95 0 65 95 0 65 95 0 65 95 2 65 96 2 63 94 1 66 94 3 66 97 4 66 91 5 65 93 8 63 94 6 65 95 2 66 94 2 67 89 5 65 89 9 64 84 8 49 67 7 43 59 9 41 52 11 38 47 21 40 46 23 41 43 21 41 42 19 40 43 12 41 39 14 38 38 17 37 35 18 37 35 21 37 36 20 36 36 19 35 35 19 34 39 20 36 36 20 36 36 21 36 41 22 35 41 18 36 40 21 38 45 15 34 40 17 34 42 19 36 43 19 36 43 17 35 39 17 35 39 17 35 37 19 37 37 21 39 39 20 42 40 8 43 49 12 58 71 11 68 87 4 64 88 4 64 92 4 64 92 6 64 88 4 64 92 3 64 93 0 61 92 0 63 94 2 67 97 0 65 95 0 65 95 0 65 95 0 65 95 
0 65 95 0 65 95 1 64 95 1 64 95 0 65 97 0 65 95 1 65 93 1 65 93 1 65 92 1 65 93 1 64 95 1 64 95 4 65 94 4 66 91 10 58 78 2 43 61 12 41 59 16 37 56 19 38 53 19 38 52 16 40 50 16 41 48 17 40 46 20 39 46 21 38 45 21 39 43 21 39 43 21 39 43 21 39 43 21 39 43 21 39 43 21 39 41 19 40 43 19 40 43 19 40 43 21 40 46 20 39 45 20 39 43 20 39 45 20 39 45 21 38 48 21 37 50 19 37 47 19 39 46 19 42 48 17 42 47 17 42 49 15 47 62 11 61 84 3 64 92 4 63 95 2 66 94 3 64 95 1 64 95 2 65 96 2 65 98 0 64 94 0 65 95 0 65 95 0 65 95 0 65 95 0 65 95 0 65 95 0 65 95 0 65 95 1 66 96 0 65 95 0 65 95 0 65 97 1 65 93 1 64 95 1 65 93 1 65 93 0 63 94 1 64 95 3 64 95 9 62 93 8 53 76 10 41 59 12 40 54 17 40 46 19 40 45 19 38 44 20 39 45 19 40 45 19 40 45 20 39 45 20 39 46 20 39 43 20 38 42 21 39 43 19 40 43 20 39 45 20 39 45 20 39 45 20 39 45 20 39 43 21 40 46 20 39 45 19 40 43 19 40 43 17 41 43 19 40 43 20 39 45 19 38 44 19 38 44 19 38 44 19 38 44 25 42 49 13 42 50 6 55 72 10 67 94 3 64 92 1 64 95 1 64 95 0 65 95 0 65 95 0 65 95 0 65 95 0 65 95 0 65 95 0 65 95 0 65 95 0 65 95 0 65 95 0 65 95 0 65 95 0 65 95 0 65 95 0 65 95 0 65 95 0 65 95 1 65 93 1 65 93 1 64 95 1 64 95 1 66 98 0 65 95 1 65 90 7 64 84 6 47 67 9 40 60 12 39 56 16 40 52 17 40 46 23 38 45 21 38 45 20 39 45 20 39 45 20 39 45 21 38 45 21 39 43 21 38 45 21 38 45 21 38 45 21 38 45 21 38 46 21 38 45 19 38 44 21 38 45 21 38 45 21 38 45 20 39 45 21 38 45 22 40 44 21 38 45 21 38 45 21 38 45 19 39 46 20 39 45 21 41 42 17 40 46 7 41 50 8 55 71 4 65 86 2 66 94 1 65 93 1 65 93 1 65 93 1 65 93 1 64 95 0 65 95 0 65 97 0 65 95 0 65 95 0 65 95 0 65 95 0 65 95 
0 65 95 1 64 95 0 65 95 0 65 95 0 65 95 0 65 95 0 65 95 0 65 95 1 64 95 1 65 93 0 65 97 1 64 97 1 66 96 4 66 89 7 57 80 2 43 61 12 41 59 19 38 55 19 38 53 19 38 53 19 38 52 19 39 50 19 39 50 19 39 50 19 39 48 19 39 48 19 39 48 19 39 48 19 39 48 19 39 48 19 39 48 17 40 48 16 41 48 16 41 48 16 41 46 16 41 48 16 41 48 16 41 48 16 41 48 16 40 52 19 38 52 17 39 53 19 38 52 19 39 50 15 37 48 12 40 51 14 43 59 13 51 70 8 62 86 4 65 93 0 65 93 1 65 93 0 63 94 0 65 95 0 63 94 1 64 95 0 65 95 0 66 95 0 65 95 0 65 95 0 65 95 0 65 95 1 66 96 0 65 95 0 64 94 0 65 95 0 65 95 0 65 93 0 65 95 0 65 95 0 65 95 1 66 96 0 65 93 0 65 95 1 65 100 3 64 95 10 63 94 7 53 77 9 41 62 11 38 55 16 40 50 16 41 48 15 40 47 16 41 48 16 41 48 16 41 48 16 41 48 16 41 48 19 39 48 19 39 48 19 39 48 19 39 48 19 39 48 20 40 49 19 39 48 18 38 47 19 39 48 19 39 48 19 39 48 20 38 48 19 39 48 19 39 48 19 39 48 19 39 48 18 38 47 19 39 48 15 40 47 13 40 47 11 40 48 7 45 58 6 57 78 6 68 93 1 65 93 0 65 95 0 65 95 0 65 95 0 65 95 0 65 95 1 64 95 0 65 95 0 65 95 0 65 95 0 65 95 0 65 95 0 65 95 0 65 95 0 65 95 0 65 95 0 65 97 0 65 93 0 65 95 0 65 95 0 65 95 0 65 95 0 65 95 0 65 95 0 66 98 1 66 96 0 65 93 6 64 84 8 45 72 9 40 60 11 40 56 13 41 55 16 41 48 20 38 50 20 38 52 20 38 50 20 38 50 20 38 50 20 38 50 20 38 50 20 38 50 20 38 50 20 38 50 20 38 50 20 38 50 20 38 48 20 38 50 19 37 47 19 37 47 19 37 47 20 37 47 19 38 45 19 37 47 20 38 50 19 37 47 17 40 48 21 41 52 17 41 51 10 39 47 10 39 53 8 50 66 8 61 79 3 65 88 1 66 94 0 65 95 0 65 95 0 65 95 0 65 95 0 66 95 0 65 97 0 65 95 0 65 95 0 65 95 0 65 95 0 65 95 0 65 95 
0 65 95 0 65 95 0 65 95 0 65 95 0 65 95 0 65 95 0 65 95 0 65 95 0 65 93 0 65 93 0 65 97 0 65 97 0 67 94 1 67 93 7 59 81 1 44 63 11 40 58 18 36 56 16 37 56 16 39 53 17 39 53 16 40 52 16 40 52 14 40 53 13 40 57 13 40 57 13 40 57 13 40 57 13 40 57 13 40 57 13 40 57 13 40 57 12 41 57 12 41 57 12 41 57 12 41 57 12 41 57 12 41 57 12 41 57 12 41 57 13 41 55 14 40 53 16 39 53 16 37 56 14 39 61 5 37 60 4 49 72 13 63 90 6 63 90 3 64 92 1 65 93 1 65 93 0 66 95 0 65 95 1 64 95 0 65 95 0 65 95 0 65 95 0 65 95 0 65 95 0 65 95 0 65 95 0 65 95 0 65 95 0 65 95 0 65 95 0 65 95 0 65 95 0 65 95 0 65 95 0 65 95 0 65 95 0 65 93 0 67 94 1 66 98 1 64 95 11 66 97 7 52 81 5 43 64 9 40 60 10 41 59 13 40 57 14 40 57 13 40 57 13 40 57 13 40 57 13 40 57 13 40 57 13 40 57 13 40 57 13 40 57 13 40 57 13 40 57 13 40 57 13 40 57 13 40 57 13 40 57 13 40 57 13 40 57 13 40 57 13 40 57 13 40 57 13 40 57 13 40 57 11 38 59 12 40 54 11 40 54 8 42 51 1 43 59 5 53 73 7 63 88 2 66 93 0 65 93 0 65 95 0 65 95 0 65 95 0 65 95 0 65 95 0 65 95 0 65 95 0 65 95 0 65 95 0 65 95 0 65 95 0 65 95 0 65 95 0 65 95 0 65 95 0 65 95 0 65 95 0 65 95 0 65 95 0 65 95 0 65 95 0 65 95 0 65 95 1 66 96 0 65 93 1 67 91 6 64 84 5 47 69 8 40 61 9 40 58 13 40 57 14 40 57 14 40 57 16 39 57 16 39 57 17 38 57 17 38 57 16 39 57 16 39 57 16 39 57 16 39 57 16 39 57 16 39 57 16 39 57 16 39 57 16 39 57 16 39 53 14 40 53 14 40 53 14 40 53 14 40 53 14 40 53 14 40 53 14 40 53 16 39 53 16 42 55 14 41 60 6 37 57 5 46 64 11 58 84 7 64 91 1 65 93 1 66 96 0 65 95 0 65 95 0 65 95 0 65 95 0 65 95 0 65 95 0 65 95 0 65 95 0 65 95 0 65 95 0 65 95 0 65 95 
0 65 95 0 65 95 0 65 95 0 65 95 0 65 95 0 65 95 0 65 95 0 65 95 0 65 93 0 65 95 1 66 98 0 65 97 0 67 96 2 66 93 2 60 84 0 45 68 5 43 64 9 42 61 9 42 59 9 42 61 9 42 61 9 42 61 9 42 61 7 42 61 5 43 64 5 43 64 5 43 64 5 43 64 5 43 64 5 43 64 5 43 64 5 43 64 5 43 64 5 43 64 5 43 64 5 43 64 5 43 64 5 43 64 5 43 64 5 43 64 3 45 61 6 43 61 9 42 61 9 41 62 5 40 62 8 52 77 11 62 93 5 64 94 3 64 92 3 64 92 1 65 93 1 65 93 0 65 95 0 65 95 1 64 95 1 64 95 0 65 95 0 65 95 0 65 95 0 65 95 0 65 95 0 65 95 0 65 95 0 65 95 0 65 95 0 65 95 0 65 95 0 65 95 0 65 95 0 65 95 0 65 95 0 65 95 1 66 96 0 67 94 1 66 96 1 64 95 8 65 95 4 54 81 0 45 68 1 42 62 5 43 64 7 42 64 7 42 64 7 42 64 7 42 64 7 42 64 7 42 64 7 42 64 7 42 64 7 42 64 7 42 64 7 42 64 7 42 64 7 42 64 7 42 64 7 42 64 7 42 64 9 41 64 7 42 64 7 42 64 7 42 64 9 41 64 7 42 64 5 43 64 6 42 66 4 40 62 6 41 60 1 44 61 1 56 76 5 65 91 7 68 96 0 62 89 0 65 95 0 65 95 0 65 95 0 65 95 0 65 95 0 65 95 0 65 95 0 65 95 0 65 95 0 65 95 0 65 95 0 65 95 0 65 95 0 65 95 0 65 95 0 65 95 0 65 95 0 65 95 0 65 95 0 65 95 0 65 95 0 65 95 0 65 95 0 65 95 0 65 95 0 65 93 0 66 92 3 65 88 1 48 74 1 43 65 1 42 62 4 42 61 5 43 62 5 43 64 5 43 64 5 43 64 5 43 64 5 43 64 5 43 64 5 43 64 5 43 64 5 43 64 5 43 64 5 43 64 5 43 64 5 43 64 5 43 64 5 44 61 5 43 62 5 43 62 5 43 62 5 43 62 3 44 62 5 43 62 6 43 62 7 42 62 8 41 60 3 39 63 0 45 68 7 57 84 8 65 94 5 66 95 1 64 95 0 65 95 0 65 95 0 65 95 0 65 95 0 65 95 0 65 95 0 65 95 0 65 95 0 65 95 0 65 95 0 65 95 0 65 95 0 65 95 
0 65 95 0 65 95 0 65 95 0 65 95 0 65 95 0 65 95 0 65 95 0 65 95 0 65 95 0 65 95 1 64 97 0 65 97 2 65 96 1 66 94 4 63 93 2 56 82 2 56 80 5 55 78 5 55 78 5 55 78 5 55 78 5 55 78 5 55 78 5 55 78 2 56 80 2 56 80 2 56 80 2 56 80 2 56 80 2 56 80 2 56 80 2 56 80 2 56 80 2 56 80 2 56 80 2 56 80 2 56 80 2 56 80 2 56 80 2 56 80 2 57 78 2 57 78 2 57 78 4 56 78 7 58 85 6 61 91 5 64 94 3 64 95 3 64 93 1 65 92 1 65 93 1 65 93 0 65 95 0 65 95 1 64 95 1 64 95 0 65 95 0 65 95 0 65 95 0 65 95 0 65 95 0 65 95 0 65 95 0 65 95 0 65 95 0 65 95 0 65 95 0 65 95 0 65 95 0 65 95 0 65 95 0 65 95 0 65 95 0 65 95 0 65 95 1 64 95 2 63 92 4 61 88 2 58 83 4 56 78 3 57 83 6 56 83 6 56 83 6 56 83 5 55 82 5 55 80 5 55 80 5 55 80 5 55 80 5 55 80 5 55 80 5 55 80 5 55 80 5 55 80 5 55 80 5 55 80 5 55 80 5 55 80 5 55 80 5 55 80 5 55 80 7 54 80 4 56 80 1 57 80 2 57 78 2 56 80 5 56 77 2 57 78 3 64 92 1 64 95 3 63 97 3 63 97 0 65 95 0 65 95 0 65 95 0 65 95 0 65 95 0 65 95 0 65 95 0 65 95 0 65 95 0 65 95 0 65 95 0 65 95 0 65 95 0 65 95 0 65 95 0 65 95 0 65 95 0 65 95 0 65 95 0 65 95 0 65 95 0 65 95 0 65 95 0 65 95 1 66 98 0 65 97 0 65 95 1 65 93 2 58 85 1 58 85 0 58 80 2 56 80 2 56 80 2 56 82 2 56 82 2 56 82 2 56 82 2 56 82 2 56 82 2 56 82 2 56 82 2 56 82 2 56 82 2 56 82 2 56 82 2 56 82 2 56 82 2 56 80 2 56 80 2 56 80 2 56 80 2 56 80 1 57 80 2 56 80 2 56 80 4 56 80 7 57 82 6 61 82 2 64 89 2 63 92 1 64 95 1 64 97 3 64 95 3 64 93 0 65 95 0 65 95 0 65 95 0 65 95 0 65 95 0 65 95 0 65 95 0 65 95 0 65 95 0 65 95 0 65 95 0 65 95 
0 65 95 0 65 95 0 65 95 0 65 95 0 65 95 0 65 95 0 65 95 0 65 95 0 65 95 0 65 95 1 64 97 0 65 97 1 66 96 1 66 96 2 65 96 3 64 93 1 65 92 3 65 88 3 65 86 3 64 92 3 64 92 3 64 95 3 64 93 3 64 93 3 64 93 4 63 93 4 63 93 4 63 93 4 63 93 4 63 93 4 63 93 3 64 93 3 64 93 3 64 93 3 64 93 3 64 93 3 64 93 3 64 93 3 64 93 3 64 93 0 66 93 0 66 92 1 65 93 1 65 92 2 66 93 2 65 96 2 65 98 1 64 95 1 65 93 1 65 92 1 65 93 1 65 93 0 65 95 0 65 95 1 64 95 1 64 95 0 65 95 0 65 95 0 65 95 0 65 95 0 65 95 0 65 95 0 65 95 0 65 95 0 65 95 0 65 95 0 65 95 0 65 95 0 65 95 0 65 95 0 65 95 0 65 95 1 64 97 0 65 97 1 64 95 0 63 94 4 65 94 4 65 93 3 65 88 3 65 88 2 66 93 4 65 93 4 65 94 4 65 94 3 64 93 3 64 93 3 64 93 3 64 93 3 64 93 3 64 93 3 64 93 3 64 93 3 64 93 3 64 93 3 64 93 3 64 93 3 64 93 3 64 93 3 64 93 3 64 93 3 64 93 3 64 93 3 64 93 1 65 93 3 64 92 3 64 92 4 64 92 3 64 92 0 66 95 0 66 98 1 64 99 1 64 99 0 65 97 0 65 95 0 65 95 0 65 95 0 65 95 0 65 95 0 65 95 0 65 95 0 65 95 0 65 95 0 65 95 0 65 95 0 65 95 0 65 95 0 65 95 0 65 95 0 65 95 0 65 95 0 65 95 0 65 95 0 65 95 0 65 95 0 65 95 0 65 95 1 64 97 1 64 97 0 65 97 0 65 95 1 66 96 1 66 94 1 66 94 1 66 94 2 66 94 2 65 96 4 65 96 4 65 96 4 65 96 4 65 96 4 65 96 4 65 96 4 65 96 4 65 96 4 65 96 4 65 96 4 65 96 4 65 96 4 65 96 4 65 94 4 65 94 4 65 94 4 65 94 4 65 94 4 65 94 4 65 94 4 65 94 4 65 94 4 65 93 2 66 93 0 65 95 1 67 99 0 64 99 0 65 97 0 64 94 3 64 95 0 65 95 0 65 95 0 65 95 0 65 95 0 65 95 0 65 95 0 65 95 0 65 95 0 65 95 0 65 95 0 65 95 0 65 95 
0 65 95 0 65 95 0 65 95 0 65 95 0 65 95 0 65 95 0 65 95 0 65 95 0 67 98 1 64 97 0 65 95 1 64 95 0 67 98 0 66 98 0 65 97 1 66 96 4 65 93 2 67 89 2 66 93 2 66 91 2 66 94 2 65 96 2 65 98 2 65 96 2 65 96 4 65 96 4 65 96 4 65 96 4 65 96 4 65 96 4 65 96 2 65 96 1 66 96 1 66 96 1 66 96 1 66 96 1 66 96 1 66 96 1 66 96 1 66 96 1 68 97 2 68 94 0 68 91 1 67 93 1 66 94 1 64 95 0 63 96 3 63 97 1 65 93 1 65 92 1 65 93 1 65 93 0 65 95 0 65 95 1 64 95 1 64 95 0 65 95 0 65 95 0 65 95 0 65 95 0 65 95 0 65 95 0 65 95 0 65 95 0 65 95 0 65 95 0 65 95 0 65 95 0 65 95 0 65 95 0 65 95 0 65 95 0 66 100 0 66 98 0 65 95 1 64 95 2 67 95 2 66 94 3 67 94 4 68 96 2 66 94 2 65 96 2 65 96 2 65 96 2 65 96 2 65 96 2 65 96 2 65 96 1 66 96 1 66 96 1 66 96 1 66 96 1 66 96 1 66 96 1 66 96 1 66 96 1 66 96 1 66 96 1 66 96 1 66 96 1 66 96 1 66 96 1 66 96 1 66 96 2 66 93 4 65 94 4 65 96 4 65 96 0 65 95 0 66 98 0 64 99 0 64 99 0 65 97 0 65 95 0 65 95 0 65 95 0 65 95 0 65 95 0 65 95 0 65 95 0 65 95 0 65 95 0 65 95 0 65 95 0 65 95 0 65 95 0 65 95 0 65 95 0 65 95 0 65 95 0 65 95 0 65 95 0 65 95 0 65 95 0 65 95 0 65 95 0 65 95 0 64 94 1 64 95 0 65 95 0 63 94 0 65 93 0 65 93 0 63 94 0 63 94 0 63 96 0 63 96 0 63 96 0 63 96 0 63 96 0 63 96 0 63 96 0 63 96 0 63 96 0 63 96 0 63 96 0 63 96 0 63 96 0 63 96 0 63 94 0 63 94 0 63 94 0 63 94 0 63 94 0 63 94 0 63 94 0 63 94 0 63 94 1 66 96 1 66 98 1 67 99 0 66 100 0 64 99 0 66 98 0 65 95 1 64 95 0 65 95 0 65 95 0 65 95 0 65 95 0 65 95 0 65 95 0 65 95 0 65 95 0 65 95 0 65 95 0 65 95 0 65 95 
0 65 95 0 65 95 0 65 95 0 65 95 0 65 95 0 65 95 0 65 95 0 65 95 0 66 98 0 65 97 1 64 95 1 64 95 0 66 98 0 66 98 0 67 98 0 66 98 0 65 93 0 66 92 0 66 92 0 65 93 0 65 95 0 65 95 0 65 97 0 65 97 1 64 95 1 64 95 1 64 95 1 64 95 1 64 95 1 64 95 1 64 95 1 64 95 1 66 96 1 66 96 1 66 96 1 66 96 1 66 96 1 66 96 1 66 96 1 66 96 0 66 93 0 67 94 0 65 93 0 65 93 0 65 91 0 65 95 1 64 97 1 64 97 1 65 93 1 65 93 1 65 93 1 65 93 0 65 95 0 65 95 1 64 95 1 64 95 0 65 95 0 65 95 0 65 95 0 65 95 0 65 95 0 65 95 0 65 95 0 65 95 0 65 95 0 65 95 0 65 95 0 65 95 0 65 95 0 65 95 0 65 95 0 65 95 0 66 98 0 66 98 0 65 95 0 65 95 1 62 91 0 63 91 2 66 94 3 67 95 0 65 95 0 65 95 0 65 95 0 65 95 0 65 95 0 65 95 0 65 95 0 65 95 1 66 96 1 66 96 1 66 96 1 66 96 1 66 96 1 66 96 1 66 96 1 66 96 1 66 96 1 66 96 1 66 96 1 66 96 1 66 96 1 66 96 1 66 96 1 66 96 0 65 93 1 65 93 1 64 97 1 64 97 0 65 95 0 65 95 0 66 98 0 66 98 0 65 95 0 65 95 0 65 95 0 65 95 0 65 95 0 65 95 0 65 95 0 65 95 0 65 95 0 65 95 0 65 95 0 65 95 0 65 95 0 65 95 0 65 95 0 65 95 0 65 95 0 65 95 0 65 95 0 65 95 0 65 95 0 65 95 0 65 95 0 65 95 0 66 92 0 65 93 1 64 95 0 65 93 0 65 95 1 66 96 0 66 98 0 67 98 0 65 95 0 65 97 0 65 97 0 65 97 0 65 97 0 65 97 0 65 97 0 65 97 0 65 97 0 65 97 0 65 97 0 65 97 0 65 97 0 65 97 0 65 97 0 65 97 0 65 95 0 65 95 0 65 95 0 65 95 0 65 95 0 65 95 0 65 95 0 65 95 0 65 97 0 63 98 0 65 99 1 65 100 0 64 99 0 66 100 0 65 95 0 65 95 0 65 95 0 65 95 0 65 95 0 65 95 0 65 95 0 65 95 0 65 95 0 65 95 0 65 95 0 65 95 0 65 95 0 65 95 
0 65 95 0 65 95 0 65 95 0 65 95 0 65 95 0 65 95 0 65 95 0 65 95 0 65 95 0 65 93 0 65 95 0 65 95 0 65 95 0 65 95 1 66 96 1 64 95 0 65 95 0 65 93 0 65 93 0 65 95 0 65 95 0 65 97 0 65 95 0 65 95 0 65 95 0 65 95 0 65 95 0 65 95 0 65 95 0 65 95 0 65 95 0 65 95 0 65 95 0 65 95 0 65 95 0 65 95 0 65 95 0 65 95 0 65 95 0 65 95 1 66 96 1 66 96 0 65 95 0 65 95 0 65 95 0 65 95 0 65 97 0 65 95 1 65 93 1 65 93 0 65 95 0 65 95 0 65 97 0 65 97 0 65 97 0 65 97 0 65 95 0 65 95 0 65 95 0 65 95 0 65 95 0 65 95 0 65 95 0 65 95 0 65 95 0 65 95 0 65 95 0 65 95 0 65 95 0 65 95 0 65 95 0 65 95 0 64 94 0 65 95 0 64 94 1 64 97 0 65 95 0 65 95 0 65 95 0 65 95 0 65 95 0 65 95 0 65 95 0 65 95 0 65 95 0 65 95 0 65 95 0 65 95 0 65 95 0 65 95 0 65 95 0 65 95 0 65 95 0 65 95 0 65 95 0 65 95 0 65 95 0 65 95 0 65 95 0 65 95 0 65 95 0 65 95 0 65 95 0 65 95 0 65 95 0 65 95 0 65 95 0 65 95 0 65 95 0 65 95 0 65 95 1 64 95 0 65 95 0 65 95 0 65 95 0 65 95 0 65 95 0 65 95 0 65 95 0 65 95 0 65 95 0 65 95 0 65 95 0 65 95 0 65 95 0 65 95 0 65 95 0 65 95 0 65 95 0 65 95 0 65 95 0 65 95 0 65 95 0 65 95 0 65 95 0 65 95 0 65 95 0 65 95 0 65 95 0 65 95 0 65 97 0 65 95 0 65 95 0 65 95 0 65 95 0 65 95 0 65 95 0 65 95 0 65 95 0 65 95 0 65 95 0 65 95 0 65 95 0 65 95 0 65 95 0 65 95 0 65 95 0 65 95 0 65 95 0 65 95 0 65 95 0 65 95 0 65 95 0 65 95 0 65 95 0 65 95 0 65 95 0 65 95 0 65 95 0 65 97 0 65 97 0 65 97 0 65 97 0 65 93 0 65 95 0 65 95 0 65 95 0 65 95 0 65 95 0 65 95 0 65 95 0 65 95 0 65 95 0 65 95 0 65 95 0 65 95 0 65 95 0 65 95 
0 65 95 0 65 95 0 65 95 0 65 95 0 65 95 0 65 95 0 65 95 0 65 95 0 65 95 0 65 95 0 65 95 0 66 95 0 64 94 0 65 95 1 64 95 0 65 95 0 65 95 0 65 93 0 65 95 0 65 95 0 65 95 0 65 95 0 65 93 0 65 95 0 65 95 0 65 95 0 65 95 0 65 95 0 65 95 0 65 95 0 65 95 0 65 95 0 65 95 0 65 95 0 65 95 0 65 95 0 65 95 0 65 95 0 65 95 0 65 95 0 65 95 0 65 95 0 65 95 1 66 96 0 65 95 0 66 95 0 65 95 0 65 95 1 65 93 1 65 93 0 65 95 0 66 95 0 65 97 0 65 97 0 65 97 0 65 97 0 65 95 0 65 95 0 65 95 0 65 95 0 65 95 0 65 95 0 65 95 0 65 95 0 65 95 0 65 95 0 65 95 0 65 95 0 65 95 0 65 95 0 65 95 0 65 95 0 65 95 0 65 95 0 64 94 0 65 95 1 64 95 0 65 95 0 65 95 0 65 95 0 65 95 0 65 95 0 65 93 0 65 95 0 66 95 0 66 95 0 65 95 0 65 95 0 65 95 0 65 95 0 65 95 0 65 95 0 65 95 0 65 95 0 65 95 0 65 95 0 65 95 0 65 95 0 65 95 0 65 95 0 65 95 0 65 95 0 65 95 0 65 95 0 65 95 0 65 95 0 64 94 0 65 95 0 65 95 0 66 95 0 65 97 0 65 95 0 65 93 0 65 95 0 65 95 0 65 95 0 65 95 0 65 95 0 65 95 0 65 95 0 65 95 0 65 95 0 65 95 0 65 95 0 65 95 0 65 95 0 65 95 0 65 95 0 65 95 0 65 95 0 65 95 0 65 95 0 65 95 0 65 95 0 65 95 0 65 95 0 64 94 0 65 95 0 65 95 0 65 95 0 65 95 0 66 95 0 65 93 0 65 95 0 65 95 0 65 95 0 65 95 0 65 95 0 65 95 0 65 95 0 65 95 0 65 95 0 65 95 0 65 95 0 65 95 0 65 95 0 65 95 0 65 95 0 65 95 0 65 95 0 65 95 0 65 95 0 65 95 0 65 95 0 65 95 0 65 95 0 65 95 0 66 95 0 65 95 0 65 95 1 66 96 0 65 95 0 65 95 0 65 95 0 64 94 1 64 95 0 65 95 0 65 95 0 65 95 0 65 95 0 65 95 0 65 95 0 65 95 0 65 95 0 65 95 0 65 95 0 65 95 0 65 95 
0 65 95 0 65 95 0 65 95 0 65 95 0 65 95 0 65 95 0 65 95 0 65 95 0 65 95 0 65 95 0 65 95 0 65 95 0 65 95 0 65 95 0 65 95 0 65 95 0 65 95 0 65 95 0 65 95 0 65 95 0 65 95 0 65 95 0 65 95 0 65 95 0 65 95 0 65 95 0 65 95 0 65 95 0 65 95 0 65 95 0 65 95 0 65 95 0 65 95 0 65 95 0 65 95 0 65 95 0 65 95 0 65 95 0 65 95 0 65 95 0 65 95 0 65 95 0 65 95 0 65 95 0 65 95 0 65 95 0 65 95 0 65 95 1 65 93 1 65 93 0 65 95 0 65 95 0 66 98 0 66 98 0 65 97 0 65 97 0 65 95 0 65 95 0 65 95 0 65 95 0 65 95 0 65 95 0 65 95 0 65 95 0 65 95 0 65 95 0 65 95 0 65 95 0 65 95 0 65 95 0 65 95 0 65 95 0 65 95 0 65 95 0 65 95 0 65 95 0 65 95 0 65 95 0 65 95 0 65 95 0 65 95 0 65 95 0 65 95 0 65 95 0 65 95 0 65 95 0 65 95 0 65 95 0 65 95 0 65 95 0 65 95 0 65 95 0 65 95 0 65 95 0 65 95 0 65 95 0 65 95 0 65 95 0 65 95 0 65 95 0 65 95 0 65 95 0 65 95 0 65 95 0 65 95 0 65 95 0 65 95 0 65 95 0 65 95 0 65 95 0 65 95 0 65 95 0 65 95 0 65 95 0 65 95 0 65 95 0 65 95 0 65 95 0 65 95 0 65 95 0 65 95 0 65 95 0 65 95 0 65 95 0 65 95 0 65 95 0 65 95 0 65 95 0 65 95 0 65 95 0 65 95 0 65 95 0 65 95 0 65 95 0 65 95 0 65 95 0 65 95 0 65 95 0 65 95 0 65 95 0 65 95 0 65 95 0 65 95 0 65 95 0 65 95 0 65 95 0 65 95 0 65 95 0 65 95 0 65 95 0 65 95 0 65 95 0 65 95 0 65 95 0 65 95 0 65 95 0 65 95 0 65 95 0 65 95 0 65 95 0 65 95 0 65 95 0 65 95 0 65 95 0 65 95 0 65 95 0 65 95 0 65 95 0 65 95 0 65 95 0 65 95 0 65 95 0 65 95 0 65 95 0 65 95 0 65 95 0 65 95 0 65 95 0 65 95 0 65 95 0 65 95 0 65 95 0 65 95 0 65 95 0 65 95 0 65 95 0 65 95 0 65 95 
0 65 95 0 65 95 0 65 95 0 65 95 0 65 95 0 65 95 0 65 95 0 65 95 0 65 95 0 65 95 0 65 95 0 65 95 0 65 95 0 65 95 0 65 95 0 65 95 0 65 95 0 65 95 0 65 95 0 65 95 0 65 95 0 65 95 0 65 95 0 65 95 0 65 95 0 65 95 0 65 95 0 65 95 0 65 95 0 65 95 0 65 95 0 65 95 0 65 95 0 65 95 0 65 95 0 65 95 0 65 95 0 65 95 0 65 95 0 65 95 0 65 95 0 65 95 0 65 95 0 65 95 0 65 95 0 65 95 0 65 95 0 65 95 1 65 93 1 65 93 0 65 95 0 65 95 0 66 98 0 66 98 0 65 97 0 65 97 0 65 95 0 65 95 0 65 95 0 65 95 0 65 95 0 65 95 0 65 95 0 65 95 0 65 95 0 65 95 0 65 95 0 65 95 0 65 95 0 65 95 0 65 95 0 65 95 0 65 95 0 65 95 0 65 95 0 65 95 0 65 95 0 65 95 0 65 95 0 65 95 0 65 95 0 65 95 0 65 95 0 65 95 0 65 95 0 65 95 0 65 95 0 65 95 0 65 95 0 65 95 0 65 95 0 65 95 0 65 95 0 65 95 0 65 95 0 65 95 0 65 95 0 65 95 0 65 95 0 65 95 0 65 95 0 65 95 0 65 95 0 65 95 0 65 95 0 65 95 0 65 95 0 65 95 0 65 95 0 65 95 0 65 95 0 65 95 0 65 95 0 65 95 0 65 95 0 65 95 0 65 95 0 65 95 0 65 95 0 65 95 0 65 95 0 65 95 0 65 95 0 65 95 0 65 95 0 65 95 0 65 95 0 65 95 0 65 95 0 65 95 0 65 95 0 65 95 0 65 95 0 65 95 0 65 95 0 65 95 0 65 95 0 65 95 0 65 95 0 65 95 0 65 95 0 65 95 0 65 95 0 65 95 0 65 95 0 65 95 0 65 95 0 65 95 0 65 95 0 65 95 0 65 95 0 65 95 0 65 95 0 65 95 0 65 95 0 65 95 0 65 95 0 65 95 0 65 95 0 65 95 0 65 95 0 65 95 0 65 95 0 65 95 0 65 95 0 65 95 0 65 95 0 65 95 0 65 95 0 65 95 0 65 95 0 65 95 0 65 95 0 65 95 0 65 95 0 65 95 0 65 95 0 65 95 0 65 95 0 65 95 0 65 95 0 65 95 0 65 95 0 65 95 0 65 95 0 65 95 0 65 95 0 65 95 
0 65 95 0 65 95 0 65 95 0 65 95 0 65 95 0 65 95 0 65 95 0 65 95 0 65 95 0 65 95 0 65 95 0 65 95 0 65 95 0 65 95 0 65 95 0 65 95 0 65 95 0 65 95 0 65 95 0 65 95 0 65 95 0 65 95 0 65 95 0 65 95 0 65 95 0 65 95 0 65 95 0 65 95 0 65 95 0 65 95 0 65 95 0 65 95 0 65 95 0 65 95 0 65 95 0 65 95 0 65 95 0 65 95 0 65 95 0 65 95 0 65 95 0 65 95 0 65 95 0 65 95 0 65 95 0 65 95 0 65 95 0 65 95 1 65 93 1 65 93 0 65 95 0 65 95 0 66 98 0 66 98 0 65 97 0 65 97 0 65 95 0 65 95 0 65 95 0 65 95 0 65 95 0 65 95 0 65 95 0 65 95 0 65 95 0 65 95 0 65 95 0 65 95 0 65 95 0 65 95 0 65 95 0 65 95 0 65 95 0 65 95 0 65 95 0 65 95 0 65 95 0 65 95 0 65 95 0 65 95 0 65 95 0 65 95 0 65 95 0 65 95 0 65 95 0 65 95 0 65 95 0 65 95 0 65 95 0 65 95 0 65 95 0 65 95 0 65 95 0 65 95 0 65 95 0 65 95 0 65 95 0 65 95 0 65 95 0 65 95 0 65 95 0 65 95 0 65 95 0 65 95 0 65 95 0 65 95 0 65 95 0 65 95 0 65 95 0 65 95 0 65 95 0 65 95 0 65 95 0 65 95 0 65 95 0 65 95 0 65 95 0 65 95 0 65 95 0 65 95 0 65 95 0 65 95 0 65 95 0 65 95 0 65 95 0 65 95 0 65 95 0 65 95 0 65 95 0 65 95 0 65 95 0 65 95 0 65 95 0 65 95 0 65 95 0 65 95 0 65 95 0 65 95 0 65 95 0 65 95 0 65 95 0 65 95 0 65 95 0 65 95 0 65 95 0 65 95 0 65 95 0 65 95 0 65 95 0 65 95 0 65 95 0 65 95 0 65 95 0 65 95 0 65 95 0 65 95 0 65 95 0 65 95 0 65 95 0 65 95 0 65 95 0 65 95 0 65 95 0 65 95 0 65 95 0 65 95 0 65 95 0 65 95 0 65 95 0 65 95 0 65 95 0 65 95 0 65 95 0 65 95 0 65 95 0 65 95 0 65 95 0 65 95 0 65 95 0 65 95 0 65 95 0 65 95 0 65 95 0 65 95 0 65 95 0 65 95 0 65 95 0 65 95 
0 65 95 0 65 95 0 65 95 0 65 95 0 65 95 0 65 95 0 65 95 0 65 95 0 65 95 0 65 95 0 65 95 0 65 95 0 65 95 0 65 95 0 65 95 0 65 95 0 65 95 0 65 95 0 65 95 0 65 95 0 65 95 0 65 95 0 65 95 0 65 95 0 65 95 0 65 95 0 65 95 0 65 95 0 65 95 0 65 95 0 65 95 0 65 95 0 65 95 0 65 95 0 65 95 0 65 95 0 65 95 0 65 95 0 65 95 0 65 95 0 65 95 0 65 95 0 65 95 0 65 95 0 65 95 0 65 95 0 65 95 0 65 95 1 65 93 1 65 93 0 65 95 0 65 95 0 66 98 1 66 98 0 65 97 0 65 97 0 65 95 0 65 95 0 65 95 0 65 95 0 65 95 0 65 95 0 65 95 0 65 95 0 65 95 0 65 95 0 65 95 0 65 95 0 65 95 0 65 95 0 65 95 0 65 95 0 65 95 0 65 95 0 65 95 0 65 95 0 65 95 0 65 95 0 65 95 0 65 95 0 65 95 0 65 95 0 65 95 0 65 95 0 65 95 0 65 95 0 65 95 0 65 95 0 65 95 0 65 95 0 65 95 0 65 95 0 65 95 0 65 95 0 65 95 0 65 95 0 65 95 0 65 95 0 65 95 0 65 95 0 65 95 0 65 95 0 65 95 0 65 95 0 65 95 0 65 95 0 65 95 0 65 95 0 65 95 0 65 95 0 65 95 0 65 95 0 65 95 0 65 95 0 65 95 0 65 95 0 65 95 0 65 95 0 65 95 0 65 95 0 65 95 0 65 95 0 65 95 0 65 95 0 65 95 0 65 95 0 65 95 0 65 95 0 65 95 0 65 95 0 65 95 0 65 95 0 65 95 0 65 95 0 65 95 0 65 95 0 65 95 0 65 95 0 65 95 0 65 95 0 65 95 0 65 95 0 65 95 0 65 95 0 65 95 0 65 95 0 65 95 0 65 95 0 65 95 0 65 95 0 65 95 0 65 95 0 65 95 0 65 95 0 65 95 0 65 95 0 65 95 0 65 95 0 65 95 0 65 95 0 65 95 0 65 95 0 65 95 0 65 95 0 65 95 0 65 95 0 65 95 0 65 95 0 65 95 0 65 95 0 65 95 0 65 95 0 65 95 0 65 95 0 65 95 0 65 95 0 65 95 0 65 95 0 65 95 0 65 95 0 65 95 0 65 95 0 65 95 0 65 95 0 65 95 0 65 95 0 65 95 0 65 95 
0 65 95 0 65 95 0 65 95 0 65 95 0 65 95 0 65 95 0 65 95 0 65 95 0 65 95 0 65 95 0 65 95 0 65 95 0 65 95 0 65 95 0 65 95 0 65 95 0 65 95 0 65 95 0 65 95 0 65 95 0 65 95 0 65 95 0 65 95 0 65 95 0 65 95 0 65 95 0 65 95 0 65 95 0 65 95 0 65 95 0 65 95 0 65 95 0 65 95 0 65 95 0 65 95 0 65 95 0 65 95 0 65 95 0 65 95 0 65 95 0 65 95 0 65 95 0 65 95 0 65 95 0 65 95 0 65 95 0 65 95 0 65 95 1 65 93 1 65 93 0 65 95 0 65 95 1 66 98 1 66 98 0 65 97 0 65 97 0 65 95 0 65 95 0 65 95 0 65 95 0 65 95 0 65 95 0 65 95 0 65 95 0 65 95 0 65 95 0 65 95 0 65 95 0 65 95 0 65 95 0 65 95 0 65 95 0 65 95 0 65 95 0 65 95 0 65 95 0 65 95 0 65 95 0 65 95 0 65 95 0 65 95 0 65 95 0 65 95 0 65 95 0 65 95 0 65 95 0 65 95 0 65 95 0 65 95 0 65 95 0 65 95 0 65 95 0 65 95 0 65 95 0 65 95 0 65 95 0 65 95 0 65 95 0 65 95 0 65 95 0 65 95 0 65 95 0 65 95 0 65 95 0 65 95 0 65 95 0 65 95 0 65 95 0 65 95 0 65 95 0 65 95 0 65 95 0 65 95 0 65 95 0 65 95 0 65 95 0 65 95 0 65 95 0 65 95 0 65 95 0 65 95 0 65 95 0 65 95 0 65 95 0 65 95 0 65 95 0 65 95 0 65 95 0 65 95 0 65 95 0 65 95 0 65 95 0 65 95 0 65 95 0 65 95 0 65 95 0 65 95 0 65 95 0 65 95 0 65 95 0 65 95 0 65 95 0 65 95 0 65 95 0 65 95 0 65 95 0 65 95 0 65 95 0 65 95 0 65 95 0 65 95 0 65 95 0 65 95 0 65 95 0 65 95 0 65 95 0 65 95 0 65 95 0 65 95 0 65 95 0 65 95 0 65 95 0 65 95 0 65 95 0 65 95 0 65 95 0 65 95 0 65 95 0 65 95 0 65 95 0 65 95 0 65 95 0 65 95 0 65 95 0 65 95 0 65 95 0 65 95 0 65 95 0 65 95 0 65 95 0 65 95 0 65 95 0 65 95 0 65 95 0 65 95 0 65 95 0 65 95 0 65 95 
0 65 95 0 65 95 0 65 95 0 65 95 0 65 95 0 65 95 0 65 95 0 65 95 0 65 95 0 65 95 0 65 95 0 65 95 0 65 95 0 65 95 0 65 95 0 65 95 0 65 95 0 65 95 0 65 95 0 65 95 0 65 95 0 65 95 0 65 95 0 65 95 0 65 95 0 65 95 0 65 95 0 65 95 0 65 95 0 65 95 0 65 95 0 65 95 0 65 95 0 65 95 0 65 95 0 65 95 0 65 95 0 65 95 0 65 95 0 65 95 0 65 95 0 65 95 0 65 95 0 65 95 0 65 95 0 65 95 0 65 95 0 65 95 1 65 93 1 65 93 0 65 95 0 65 95 1 66 96 1 66 96 0 65 95 0 65 95 0 65 95 0 65 95 0 65 95 0 65 95 0 65 95 0 65 95 0 65 95 0 65 95 0 65 95 0 65 95 0 65 95 0 65 95 0 65 95 0 65 95 0 65 95 0 65 95 0 65 95 0 65 95 0 65 95 0 65 95 0 65 95 0 65 95 0 65 95 0 65 95 0 65 95 0 65 95 0 65 95 0 65 95 0 65 95 0 65 95 0 65 95 0 65 95 0 65 95 0 65 95 0 65 95 0 65 95 0 65 95 0 65 95 0 65 95 0 65 95 0 65 95 0 65 95 0 65 95 0 65 95 0 65 95 0 65 95 0 65 95 0 65 95 0 65 95 0 65 95 0 65 95 0 65 95 0 65 95 0 65 95 0 65 95 0 65 95 0 65 95 0 65 95 0 65 95 0 65 95 0 65 95 0 65 95 0 65 95 0 65 95 0 65 95 0 65 95 0 65 95 0 65 95 0 65 95 0 65 95 0 65 95 0 65 95 0 65 95 0 65 95 0 65 95 0 65 95 0 65 95 0 65 95 0 65 95 0 65 95 0 65 95 0 65 95 0 65 95 0 65 95 0 65 95 0 65 95 0 65 95 0 65 95 0 65 95 0 65 95 0 65 95 0 65 95 0 65 95 0 65 95 0 65 95 0 65 95 0 65 95 0 65 95 0 65 95 0 65 95 0 65 95 0 65 95 0 65 95 0 65 95 0 65 95 0 65 95 0 65 95 0 65 95 0 65 95 0 65 95 0 65 95 0 65 95 0 65 95 0 65 95 0 65 95 0 65 95 0 65 95 0 65 95 0 65 95 0 65 95 0 65 95 0 65 95 0 65 95 0 65 95 0 65 95 0 65 95 0 65 95 0 65 95 0 65 95 0 65 95 0 65 95 0 65 95 
0 65 95 0 65 95 0 65 95 0 65 95 0 65 95 0 65 95 0 65 95 0 65 95 0 65 95 0 65 95 0 65 95 0 65 95 0 65 95 0 65 95 0 65 95 0 65 95 0 65 95 0 65 95 0 65 95 0 65 95 0 65 95 0 65 95 0 65 95 0 65 95 0 65 95 0 65 95 0 65 95 0 65 95 0 65 95 0 65 95 0 65 95 0 65 95 0 65 95 0 65 95 0 65 95 0 65 95 0 65 95 0 65 95 0 65 95 0 65 95 0 65 95 0 65 95 0 65 95 0 65 95 0 65 95 0 65 95 0 65 95 0 65 95 1 64 95 1 64 95 0 65 95 0 65 95 1 66 96 1 66 94 0 65 93 0 65 93 0 65 95 0 65 95 0 65 95 0 65 95 0 65 95 0 65 95 0 65 95 0 65 95 0 65 95 0 65 95 0 65 95 0 65 95 0 65 95 0 65 95 0 65 95 0 65 95 0 65 95 0 65 95 0 65 95 0 65 95 0 65 95 0 65 95 0 65 95 0 65 95 0 65 95 0 65 95 0 65 95 0 65 95 0 65 95 0 65 95 0 65 95 0 65 95 0 65 95 0 65 95 0 65 95 0 65 95 0 65 95 0 65 95 0 65 95 0 65 95 0 65 95 0 65 95 0 65 95 0 65 95 0 65 95 0 65 95 0 65 95 0 65 95 0 65 95 0 65 95 0 65 95 0 65 95 0 65 95 0 65 95 0 65 95 0 65 95 0 65 95 0 65 95 0 65 95 0 65 95 0 65 95 0 65 95 0 65 95 0 65 95 0 65 95 0 65 95 0 65 95 0 65 95 0 65 95 0 65 95 0 65 95 0 65 95 0 65 95 0 65 95 0 65 95 0 65 95 0 65 95 0 65 95 0 65 95 0 65 95 0 65 95 0 65 95 0 65 95 0 65 95 0 65 95 0 65 95 0 65 95 0 65 95 0 65 95 0 65 95 0 65 95 0 65 95 0 65 95 0 65 95 0 65 95 0 65 95 0 65 95 0 65 95 0 65 95 0 65 95 0 65 95 0 65 95 0 65 95 0 65 95 0 65 95 0 65 95 0 65 95 0 65 95 0 65 95 0 65 95 0 65 95 0 65 95 0 65 95 0 65 95 0 65 95 0 65 95 0 65 95 0 65 95 0 65 95 0 65 95 0 65 95 0 65 95 0 65 95 0 65 95 0 65 95 0 65 95 0 65 95 0 65 95 0 65 95 0 65 95 0 65 95 0 65 95 
0 65 95 0 65 95 0 65 95 0 65 95 0 65 95 0 65 95 0 65 95 0 65 95 0 65 95 0 65 95 0 65 95 0 65 95 0 65 95 0 65 95 0 65 95 0 65 95 0 65 95 0 65 95 0 65 95 0 65 95 0 65 95 0 65 95 0 65 95 0 65 95 0 65 95 0 65 95 0 65 95 0 65 95 0 65 95 0 65 95 0 65 95 0 65 95 0 65 95 0 65 95 0 65 95 0 65 95 0 65 95 0 65 95 0 65 95 0 65 95 0 65 95 0 65 95 0 65 95 0 65 95 0 65 95 0 65 95 0 65 95 0 65 95 0 63 94 1 64 95 0 65 97 0 65 95 0 65 93 0 65 93 0 66 92 0 66 92 0 65 95 0 65 95 0 65 95 0 65 95 0 65 95 0 65 95 0 65 95 0 65 95 0 65 95 0 65 95 0 65 95 0 65 95 0 65 95 0 65 95 0 65 95 0 65 95 0 65 95 0 65 95 0 65 95 0 65 95 0 65 95 0 65 95 0 65 95 0 65 95 0 65 95 0 65 95 0 65 95 0 65 95 0 65 95 0 65 95 0 65 95 0 65 95 0 65 95 0 65 95 0 65 95 0 65 95 0 65 95 0 65 95 0 65 95 0 65 95 0 65 95 0 65 95 0 65 95 0 65 95 0 65 95 0 65 95 0 65 95 0 65 95 0 65 95 0 65 95 0 65 95 0 65 95 0 65 95 0 65 95 0 65 95 0 65 95 0 65 95 0 65 95 0 65 95 0 65 95 0 65 95 0 65 95 0 65 95 0 65 95 0 65 95 0 65 95 0 65 95 0 65 95 0 65 95 0 65 95 0 65 95 0 65 95 0 65 95 0 65 95 0 65 95 0 65 95 0 65 95 0 65 95 0 65 95 0 65 95 0 65 95 0 65 95 0 65 95 0 65 95 0 65 95 0 65 95 0 65 95 0 65 95 0 65 95 0 65 95 0 65 95 0 65 95 0 65 95 0 65 95 0 65 95 0 65 95 0 65 95 0 65 95 0 65 95 0 65 95 0 65 95 0 65 95 0 65 95 0 65 95 0 65 95 0 65 95 0 65 95 0 65 95 0 65 95 0 65 95 0 65 95 0 65 95 0 65 95 0 65 95 0 65 95 0 65 95 0 65 95 0 65 95 0 65 95 0 65 95 0 65 95 0 65 95 0 65 95 0 65 95 0 65 95 0 65 95 0 65 95 0 65 95 0 65 95 0 65 95 0 65 95 0 65 95 
0 65 95 0 65 95 0 65 95 0 65 95 0 65 95 0 65 95 0 65 95 0 65 95 0 65 95 0 65 93 0 65 93 0 65 95 0 65 95 0 65 95 0 65 95 0 65 95 0 65 95 0 65 95 0 65 95 0 65 95 0 65 95 0 65 95 0 65 95 0 65 95 0 65 95 0 65 95 0 65 95 0 65 95 0 65 95 0 65 95 0 65 95 0 65 95 0 65 95 0 65 95 0 65 95 0 65 95 0 65 95 0 65 95 0 65 95 0 65 95 0 65 95 0 65 95 0 65 95 0 65 95 0 65 95 0 65 95 0 65 95 0 65 95 1 64 95 1 64 95 0 65 95 0 65 95 0 65 93 0 65 93 0 66 92 0 65 93 0 65 95 0 65 95 0 65 95 0 65 95 0 65 95 0 65 95 0 65 95 0 65 95 0 65 95 0 65 95 0 65 95 0 65 95 0 65 95 0 65 95 0 65 95 0 65 95 0 65 95 0 65 95 0 65 95 0 65 95 0 65 95 0 65 95 0 65 95 0 64 94 0 65 95 0 65 95 0 65 95 0 65 95 0 65 95 0 65 95 0 65 95 0 65 95 0 65 95 0 65 95 0 65 95 0 65 95 0 65 95 0 65 95 0 65 95 0 65 95 0 65 95 0 65 95 0 65 95 0 65 95 0 65 95 0 65 95 0 65 95 0 65 95 0 65 95 0 65 95 0 65 97 0 64 94 0 65 95 0 65 95 0 65 95 0 65 95 0 65 95 0 65 95 0 65 95 0 65 95 0 65 95 0 65 95 0 65 95 0 65 95 0 65 95 0 65 95 0 65 95 0 65 95 0 65 95 0 65 95 0 65 95 0 65 95 0 65 95 0 65 95 0 65 95 0 65 95 0 65 95 0 65 95 0 65 95 0 65 95 0 65 95 0 65 95 0 65 95 0 65 95 0 65 95 0 65 95 0 65 95 1 64 95 0 65 95 0 65 95 0 65 95 0 65 95 0 65 95 0 65 95 0 65 95 0 65 95 0 65 95 0 65 95 0 65 95 0 65 95 0 65 95 0 65 95 0 65 95 0 65 95 0 65 95 0 65 95 0 65 95 0 65 95 0 65 95 0 65 95 0 65 95 0 65 95 0 65 95 0 65 95 0 65 95 0 65 95 0 65 95 0 65 95 0 65 95 0 65 95 0 65 95 0 65 95 0 65 95 0 65 95 0 65 95 0 65 95 0 65 95 0 65 95 0 65 95 0 65 95 0 65 95 0 65 95 
0 65 95 0 65 95 0 65 95 0 65 95 0 65 95 0 65 95 0 65 95 0 65 95 0 65 95 0 65 95 0 65 95 0 65 95 0 65 95 0 65 95 0 65 95 0 65 93 0 65 95 0 65 95 0 65 95 0 65 95 0 65 95 0 65 95 0 65 95 0 65 95 0 65 95 0 65 95 0 65 95 0 65 95 0 65 95 0 65 95 0 65 95 0 65 95 0 65 95 0 65 95 0 65 95 0 65 95 0 65 95 0 65 95 0 65 95 0 65 95 0 65 95 0 65 95 0 65 95 0 65 95 0 65 95 0 65 95 0 65 95 0 65 95 1 64 95 1 64 95 0 65 95 0 65 95 0 65 93 0 65 93 0 66 92 0 65 93 0 65 95 0 65 95 0 65 95 0 65 95 0 65 95 0 65 95 0 65 95 0 65 95 0 65 95 0 65 95 0 65 95 0 65 95 0 65 95 0 65 95 0 65 95 0 65 95 0 65 95 0 65 95 0 65 95 0 65 95 0 65 95 0 65 95 0 65 95 0 65 95 0 65 95 0 65 95 0 65 95 0 65 95 0 65 95 0 65 95 0 65 95 0 65 95 0 65 95 0 65 95 0 65 95 0 65 95 0 65 95 0 65 95 0 65 95 0 65 95 0 65 95 0 65 95 0 65 95 0 65 95 0 65 95 0 65 95 0 65 95 0 65 95 0 65 95 0 65 95 0 65 95 0 65 95 0 65 95 0 65 95 0 65 95 0 65 95 0 65 95 0 65 95 0 65 95 0 65 95 0 65 95 0 65 95 0 65 95 0 65 95 0 65 95 0 65 95 0 65 95 0 65 95 0 65 95 0 65 95 0 65 95 0 65 95 0 65 95 0 65 95 0 65 95 0 65 95 0 65 95 0 65 95 0 65 95 0 65 95 0 65 95 0 65 95 0 65 95 0 65 95 0 65 95 0 65 95 0 65 95 0 65 95 0 65 95 0 65 95 0 65 95 0 65 95 0 65 95 0 65 95 0 65 95 0 65 95 0 65 95 0 65 95 0 65 95 0 65 95 0 65 95 0 65 95 0 65 95 0 65 95 0 65 95 0 65 95 0 65 95 0 65 95 0 65 95 0 65 95 0 65 95 0 65 95 0 65 95 0 65 95 0 65 95 0 65 95 0 65 95 0 65 95 0 65 95 0 65 95 0 65 95 0 65 95 0 65 95 0 65 95 0 65 95 0 65 95 0 65 95 0 65 95 0 65 95 0 65 95 0 65 95 0 65 95 
0 65 95 0 65 95 0 65 95 0 65 95 0 65 95 0 65 95 0 65 95 0 65 95 0 65 95 0 65 95 0 65 95 0 65 95 0 65 95 0 65 95 0 65 95 0 65 93 0 65 95 0 65 95 0 65 95 0 65 95 0 65 95 0 65 95 0 65 95 0 65 95 0 65 95 0 65 95 0 65 95 0 65 95 0 65 95 0 65 95 0 65 95 0 65 95 0 65 95 0 65 95 0 65 95 0 65 95 0 65 95 0 65 95 0 65 95 0 65 95 0 65 95 0 65 95 0 65 95 0 65 95 0 65 95 0 65 95 0 65 95 0 65 95 1 65 93 1 64 95 0 65 95 0 65 95 0 65 93 0 65 93 0 66 92 0 65 93 0 65 95 0 65 95 0 65 95 0 65 95 0 65 95 0 65 95 0 65 95 0 65 95 0 65 95 0 65 95 0 65 95 0 65 95 0 65 95 0 65 95 0 65 95 0 65 95 0 65 95 0 65 95 0 65 95 0 65 95 0 65 95 0 65 95 0 65 95 0 65 95 0 65 95 0 65 95 0 65 95 0 65 95 0 65 95 0 65 95 0 65 95 0 65 95 0 65 95 0 65 95 0 65 95 0 65 95 0 65 95 0 65 95 0 65 95 0 65 95 0 65 95 0 65 95 0 65 95 0 65 95 0 65 95 0 65 95 0 65 95 0 65 95 0 65 95 0 65 95 0 65 97 0 65 95 0 65 95 0 65 95 0 65 95 0 65 95 0 65 95 0 65 95 0 65 95 0 65 95 0 65 95 0 65 95 0 65 95 0 65 95 0 65 95 0 65 95 0 65 95 0 65 95 0 65 95 0 65 95 0 65 95 0 65 95 0 65 95 0 65 95 0 65 95 0 65 95 0 65 95 0 65 95 0 65 95 0 65 95 0 65 95 0 65 95 0 65 95 0 65 95 0 65 95 0 65 95 0 65 95 0 65 95 0 65 95 0 65 95 0 65 95 0 65 95 0 65 95 0 65 95 0 65 95 0 65 95 0 65 95 0 65 95 0 65 95 0 65 95 0 65 95 0 65 95 0 65 95 0 65 95 0 65 95 0 65 95 0 65 95 0 65 95 0 65 95 0 65 95 0 65 95 0 65 95 0 65 97 0 65 95 0 65 95 0 65 95 0 65 95 0 65 95 0 65 95 0 65 95 0 65 95 0 65 95 0 65 95 0 65 95 0 65 95 0 65 95 0 65 95 0 65 95 0 65 95 0 65 95 0 65 95 0 65 95 
0 65 95 0 65 95 0 65 95 0 65 95 0 65 95 0 65 95 0 65 95 0 65 95 0 65 95 0 65 95 0 65 95 0 65 95 0 65 95 0 65 95 0 65 95 0 65 95 0 65 95 0 65 95 0 65 95 0 65 95 0 65 95 0 65 95 0 65 95 0 65 95 0 65 95 0 65 95 0 65 95 0 65 95 0 65 95 0 65 95 0 65 95 0 65 95 0 65 95 0 65 95 0 65 95 0 65 95 0 65 95 0 65 95 0 65 95 0 65 95 0 65 95 0 65 95 0 65 95 0 65 95 0 65 95 0 65 95 0 65 95 0 65 95 1 64 95 1 64 95 0 65 95 0 65 95 0 65 93 0 65 93 0 66 92 0 65 93 0 65 95 0 65 95 0 65 95 0 65 95 0 65 95 0 65 95 0 65 95 0 65 95 0 65 95 0 65 95 0 65 95 0 65 95 0 65 95 0 65 95 0 65 95 0 65 95 0 65 95 0 65 95 0 65 95 0 65 95 0 65 95 0 65 95 0 65 95 0 65 95 0 65 95 0 65 95 0 65 95 0 65 95 0 65 95 0 65 95 0 65 95 0 65 95 0 65 95 0 65 95 0 65 95 0 65 95 0 65 95 0 65 95 0 65 95 0 65 95 0 65 95 0 65 95 0 65 95 0 65 95 0 65 95 0 65 95 0 65 95 0 65 95 0 65 95 0 65 95 0 65 95 0 65 95 0 65 95 0 65 95 0 65 95 0 66 95 0 65 95 0 65 95 0 65 95 0 65 95 0 65 95 0 65 95 0 65 95 0 65 95 0 65 95 0 65 95 0 65 95 0 65 95 0 65 95 0 65 95 0 65 95 0 65 95 0 65 95 0 65 95 0 65 95 0 65 95 0 65 95 0 65 95 0 65 95 0 65 95 0 65 95 0 65 95 0 65 97 0 65 95 0 65 95 0 65 95 0 65 95 0 65 95 0 65 95 0 65 95 0 65 95 0 65 95 0 65 95 0 65 95 0 65 95 0 65 95 0 65 95 0 65 95 0 65 95 0 65 95 0 65 95 0 65 95 0 65 95 0 65 95 0 65 95 0 65 95 0 65 95 0 65 95 0 65 95 0 65 95 0 65 95 0 65 95 0 65 95 0 65 95 0 65 95 0 65 95 0 65 95 0 65 95 0 65 95 0 65 95 0 65 95 0 65 95 0 65 95 0 65 95 0 65 95 0 65 95 0 65 95 0 65 95 0 65 95 0 65 95 0 65 95 0 65 95 
0 65 95 0 65 95 0 65 95 0 65 95 0 65 95 0 65 95 0 65 95 0 65 95 0 65 95 0 65 95 0 65 95 0 65 95 0 65 95 0 65 95 0 65 95 0 65 95 0 65 95 0 65 95 0 65 95 0 65 95 0 65 95 0 65 95 0 65 95 0 65 95 0 65 95 0 65 95 0 65 95 0 65 95 0 65 95 0 65 95 0 65 95 0 65 95 0 65 95 0 65 95 0 65 95 0 65 95 0 65 95 0 65 95 0 65 95 0 65 95 0 65 95 0 65 95 0 65 95 0 65 95 0 65 95 0 65 95 0 65 95 0 65 95 1 64 95 1 64 95 0 65 95 0 65 95 0 65 93 0 65 93 0 66 92 0 65 93 0 65 95 0 65 95 0 65 95 0 65 95 0 65 95 0 65 95 0 65 95 0 65 95 0 65 95 0 65 95 0 65 95 0 65 95 0 65 95 0 65 95 0 65 95 0 65 95 0 65 95 0 66 95 0 65 95 0 65 95 0 65 95 0 65 95 0 65 95 0 65 95 0 65 95 0 65 95 0 65 95 0 65 95 0 65 95 0 65 95 0 65 95 0 65 95 0 65 95 0 65 95 0 65 95 0 65 95 0 65 95 0 65 95 0 65 95 0 65 95 0 65 95 0 65 95 0 65 95 0 65 95 0 65 95 0 65 95 0 65 95 0 65 95 0 65 95 0 65 95 0 65 95 0 65 95 0 65 95 0 65 95 0 65 95 0 65 95 0 65 95 0 65 95 0 65 95 0 65 95 0 65 95 0 65 95 0 65 95 0 65 95 0 65 95 0 65 95 0 65 95 0 65 95 0 65 95 0 65 95 0 65 95 0 65 95 0 65 95 0 65 95 0 65 95 0 65 95 0 65 95 0 65 95 0 65 95 0 65 95 0 65 95 0 65 95 0 65 95 0 65 95 0 65 95 0 65 95 0 65 95 0 65 95 0 65 95 0 65 95 0 65 95 0 65 95 0 65 95 0 65 95 0 65 95 0 65 95 0 65 95 0 65 95 0 65 95 0 65 95 0 65 95 0 65 95 0 65 95 0 65 95 0 65 95 0 65 95 0 65 95 0 65 95 0 65 95 0 65 95 0 65 95 0 65 95 0 65 95 0 65 95 0 65 95 0 65 95 0 65 95 0 65 95 0 65 95 0 65 95 0 65 95 0 65 95 0 65 95 0 65 95 0 65 95 0 65 95 0 65 95 0 65 95 0 65 95 0 65 95 0 65 95 0 65 95 
0 65 95 0 65 95 0 65 95 0 65 95 0 65 95 0 65 95 0 65 95 0 65 95 1 64 95 1 64 97 0 65 97 0 65 95 0 65 95 0 65 95 0 65 95 0 65 95 0 65 95 0 65 95 0 65 95 0 65 95 0 65 95 0 65 95 0 65 95 0 65 95 0 65 95 0 65 95 0 65 95 0 65 95 0 65 95 0 65 95 0 65 95 0 65 95 0 65 95 0 65 95 0 65 95 0 65 95 0 65 95 0 65 95 0 65 95 0 65 95 0 65 95 0 65 95 0 65 95 0 65 95 0 65 95 0 65 95 0 65 95 0 65 95 1 64 95 1 64 95 0 65 95 1 64 95 0 65 93 0 65 93 0 66 92 0 65 93 0 65 95 0 65 95 0 65 95 0 65 95 0 65 95 0 65 95 0 65 95 0 65 95 0 65 95 0 65 95 0 65 95 0 65 95 0 65 95 0 65 95 0 65 95 0 65 95 0 65 95 0 65 95 0 65 95 0 65 95 0 65 95 1 64 95 1 64 95 0 65 95 0 65 95 0 65 95 0 65 95 0 65 95 0 65 95 0 65 95 0 65 95 0 65 95 0 65 95 0 65 95 0 65 95 0 65 95 0 65 95 0 65 95 0 65 95 0 65 95 0 65 95 0 65 95 0 65 95 0 65 95 0 65 95 0 65 95 0 65 95 0 65 95 0 65 95 0 65 93 0 65 95 0 65 95 0 65 93 1 66 96 1 66 96 2 67 97 0 65 95 0 65 95 0 65 95 0 65 95 0 65 95 0 65 95 0 65 95 0 65 95 0 65 95 0 65 95 0 65 95 0 65 95 0 65 95 0 65 95 0 65 95 0 65 95 0 65 95 0 65 95 0 65 95 0 65 95 0 65 95 0 65 95 0 65 95 0 65 95 0 65 95 0 65 95 0 65 93 0 65 95 0 65 95 0 65 95 0 65 95 0 65 95 0 65 95 0 65 95 0 65 95 0 65 95 0 65 95 0 65 95 0 65 95 0 65 95 0 65 95 0 65 95 0 65 95 0 65 95 0 65 95 0 65 95 0 65 95 0 65 95 0 65 95 0 65 95 0 65 95 0 65 95 0 65 95 0 65 95 0 65 95 0 65 95 0 65 95 0 65 95 0 65 95 0 65 95 0 65 95 0 65 95 0 65 95 0 65 95 0 65 95 0 65 95 0 65 95 0 65 95 0 65 95 0 65 95 0 65 95 0 65 95 0 65 95 0 65 95 0 65 95 0 65 95 
0 65 95 0 65 95 0 65 95 0 65 95 0 65 95 0 65 95 0 65 95 0 65 95 4 63 97 3 63 99 0 64 99 0 65 97 0 65 97 0 65 97 0 65 97 1 64 95 0 65 97 0 65 97 0 65 97 0 65 97 0 65 97 0 65 97 0 65 97 0 65 97 0 65 97 0 65 97 0 65 97 0 65 97 0 65 97 0 65 97 0 65 97 0 65 97 0 65 95 0 65 95 0 65 95 0 65 95 0 65 95 0 65 95 0 65 95 0 65 95 0 65 95 0 65 95 0 65 95 0 65 95 0 65 95 0 65 95 0 65 95 0 65 95 1 64 99 3 63 97 1 64 95 1 64 95 0 65 93 0 65 93 0 66 92 0 65 93 0 65 95 0 65 95 0 65 95 0 65 95 0 65 95 0 65 95 0 65 95 0 65 95 0 65 95 0 65 95 0 65 95 0 65 95 0 65 95 0 65 95 0 65 95 0 65 95 1 66 96 1 66 96 0 65 93 1 65 93 1 65 93 3 64 93 3 64 95 1 64 95 1 64 95 1 64 95 1 64 95 1 64 95 1 64 95 1 64 95 1 64 95 1 64 95 1 64 97 1 64 97 1 64 97 1 64 97 1 64 97 1 64 97 1 64 97 1 64 97 1 64 95 1 64 95 1 64 95 1 64 95 1 64 95 1 64 95 1 64 95 1 64 95 0 66 92 1 67 91 0 65 95 0 65 97 0 66 98 0 66 98 0 67 94 1 68 94 0 65 95 0 65 95 0 65 95 0 65 95 0 65 95 0 65 95 0 65 95 0 65 95 0 65 95 0 65 95 0 65 95 0 65 95 0 65 95 0 65 95 0 65 95 0 65 95 0 65 95 0 65 95 0 65 95 0 65 95 0 65 95 0 65 95 0 65 95 0 65 95 0 65 93 0 65 93 1 65 92 1 65 93 0 65 95 0 65 95 0 65 95 0 65 93 1 64 95 1 64 95 1 64 95 1 64 95 1 64 95 1 64 95 1 64 95 1 64 95 1 64 97 1 64 97 1 64 97 1 64 97 1 64 97 1 64 97 1 64 97 1 64 97 1 64 95 1 64 95 1 64 95 1 64 95 1 64 95 1 64 95 1 64 95 1 64 95 0 65 93 0 65 95 0 66 98 1 66 98 1 66 98 1 66 96 0 65 93 0 65 93 0 65 95 0 65 95 0 65 95 0 65 95 0 65 95 0 65 95 0 65 95 0 65 95 0 65 95 0 65 95 0 65 95 0 65 95 
0 65 95 0 65 95 0 65 95 0 65 95 0 65 95 0 65 95 0 65 95 0 65 95 3 63 99 3 63 100 0 64 99 0 65 97 0 65 97 0 65 95 0 66 95 0 65 95 0 65 97 0 65 97 0 65 97 0 65 97 0 65 97 0 65 97 0 65 97 0 65 97 0 65 97 0 65 97 0 65 97 0 65 97 0 65 97 0 65 97 0 65 97 0 65 97 0 65 95 0 65 95 0 65 95 0 65 95 0 65 95 0 65 95 0 65 95 0 65 95 0 65 95 0 65 95 0 65 95 0 65 95 0 65 95 0 65 95 0 65 95 0 65 95 1 64 97 3 63 97 1 64 95 1 64 95 0 65 93 0 65 93 0 66 92 0 65 95 0 65 95 0 65 95 0 65 95 0 65 95 0 65 95 0 65 95 0 65 95 0 65 95 0 65 95 0 65 95 0 65 95 0 65 95 0 65 95 0 65 95 0 65 95 0 65 95 1 66 96 1 66 96 1 65 93 1 65 93 1 65 93 3 64 93 4 63 95 1 64 95 1 64 95 1 64 95 1 64 95 1 64 95 1 64 95 1 64 95 1 64 95 1 64 95 1 64 97 1 64 97 1 64 97 1 64 97 1 64 97 1 64 97 1 64 97 1 64 97 1 64 95 1 64 95 1 64 95 1 64 95 1 64 95 1 64 95 1 64 95 1 64 95 0 66 92 1 67 91 0 65 95 0 65 97 0 66 98 0 66 98 0 66 93 0 65 93 0 65 95 0 65 95 0 65 95 0 65 95 0 65 95 0 65 95 0 65 95 0 65 95 0 65 95 0 65 95 0 65 95 0 65 95 0 65 95 0 65 95 0 65 95 0 65 95 0 65 95 0 65 95 0 65 95 0 65 95 0 65 95 0 65 95 0 65 95 0 65 95 0 65 93 0 66 92 1 65 92 1 65 92 0 65 93 0 65 95 0 65 93 1 65 93 1 64 95 1 64 95 1 64 95 1 64 95 1 64 95 1 64 95 1 64 95 1 64 95 1 64 97 1 64 97 1 64 97 1 64 97 1 64 97 1 64 97 1 64 97 1 64 97 1 64 95 1 64 95 1 64 95 1 64 95 1 64 95 1 64 95 1 64 95 1 64 95 0 65 95 0 65 97 0 66 98 1 66 98 1 66 96 1 66 94 0 65 93 0 66 93 0 65 95 0 65 95 0 65 95 0 65 95 0 65 95 0 65 95 0 65 95 0 65 95 0 65 95 0 65 95 0 65 95 0 65 95 
1 66 96 0 65 95 0 65 97 0 65 95 0 67 96 0 65 95 0 65 93 0 65 97 1 64 99 1 65 100 1 64 97 1 65 93 1 65 93 0 66 93 1 65 92 1 67 93 0 65 93 1 66 96 1 66 96 1 66 96 1 66 96 1 66 96 1 66 96 1 66 98 1 66 96 1 66 98 1 66 96 1 66 96 1 66 96 1 66 96 1 66 96 1 66 94 0 65 93 0 65 93 0 65 93 0 65 93 0 65 93 0 65 93 0 65 93 0 65 93 0 65 93 0 65 93 0 65 93 0 65 93 0 65 93 0 65 93 0 65 93 1 66 94 1 64 95 3 64 95 1 64 95 1 64 95 0 65 95 0 64 94 1 66 96 2 67 95 0 65 95 0 65 95 0 65 95 0 65 95 0 65 95 0 65 95 0 65 95 0 65 95 0 65 95 0 65 95 0 65 95 0 65 95 0 65 95 0 65 95 0 65 95 0 65 95 1 66 96 2 67 97 0 65 93 0 65 93 0 65 95 1 64 95 1 64 97 0 65 97 0 64 94 0 65 93 0 65 93 0 65 93 0 65 93 0 65 93 0 66 92 0 65 95 0 65 97 0 65 95 0 65 95 0 65 95 0 65 95 0 65 95 0 65 95 0 65 95 0 65 97 0 65 93 0 65 93 0 65 93 0 65 93 0 65 93 0 65 95 0 65 93 0 65 93 0 66 92 1 66 96 1 66 98 0 65 95 0 65 95 3 64 93 1 65 93 0 65 93 0 65 95 0 65 95 0 65 95 0 65 95 0 65 95 0 65 95 0 65 95 0 65 95 0 65 95 0 65 95 0 65 95 0 65 95 0 65 95 0 65 95 0 65 95 0 65 95 0 65 95 0 65 95 0 65 95 0 65 95 0 65 93 0 65 95 0 66 92 0 66 92 0 65 93 0 65 93 0 65 93 1 67 91 1 67 91 0 65 93 0 65 95 0 65 95 0 65 95 0 66 95 0 65 95 0 65 95 0 65 95 0 64 94 0 65 93 0 65 97 1 66 98 0 65 97 0 65 97 0 65 97 0 65 97 0 65 97 1 66 98 0 65 95 0 66 95 0 65 95 0 65 95 0 65 95 0 65 95 0 65 95 0 65 95 0 65 97 0 67 96 0 65 97 0 65 95 0 65 93 0 66 92 0 66 92 0 65 93 0 65 95 0 65 95 0 65 95 0 65 97 0 65 95 0 65 95 0 65 95 0 65 95 0 65 95 0 65 95 0 65 95 0 65 95 
0 65 93 0 65 97 0 65 95 0 65 95 0 65 95 0 65 95 0 65 95 0 65 95 1 64 95 2 65 98 1 64 95 1 65 93 1 65 92 1 65 90 3 65 86 4 64 88 3 65 88 6 64 88 7 63 88 7 63 88 7 63 88 7 63 88 7 63 86 6 62 87 7 63 88 7 63 88 7 63 88 7 63 88 7 63 88 7 63 88 7 63 88 6 64 84 6 64 84 6 64 84 6 64 84 6 64 84 6 64 84 6 64 84 6 64 84 6 64 84 6 64 84 6 64 84 6 64 84 6 64 84 6 64 86 6 64 84 6 64 84 6 64 86 7 63 88 6 63 90 3 64 93 1 64 95 0 65 95 0 65 95 2 65 96 0 65 95 0 65 95 0 65 95 0 65 95 0 65 95 0 65 95 0 65 95 0 65 95 0 65 95 0 65 95 0 65 95 0 65 95 0 65 95 0 65 95 0 65 95 0 65 95 0 65 95 1 66 96 0 64 92 0 65 93 0 65 95 1 65 93 3 64 92 6 63 90 7 63 88 7 65 85 6 64 84 6 64 84 6 64 86 6 64 84 6 64 84 6 64 84 6 64 84 7 63 88 7 63 88 7 63 88 7 63 88 7 63 88 7 63 88 7 63 88 7 63 88 6 64 84 6 64 84 6 64 86 6 64 84 6 64 84 6 64 84 6 64 84 6 64 84 7 65 85 7 63 88 7 63 88 7 63 88 7 63 88 6 62 85 7 64 84 7 63 88 1 65 93 0 65 95 0 64 94 0 65 93 0 65 95 0 65 95 0 66 95 0 65 95 0 65 95 0 65 95 0 65 95 0 65 95 0 65 95 0 65 95 0 65 95 0 65 95 0 65 95 0 65 95 0 65 95 0 65 95 0 65 95 1 66 96 0 65 95 0 65 93 0 66 92 1 65 92 1 65 93 1 65 92 3 65 88 4 65 83 5 66 87 7 63 88 7 63 88 7 63 90 8 62 88 7 63 88 7 63 88 7 63 88 7 63 88 7 63 88 6 63 90 6 63 90 6 63 90 6 63 90 6 63 90 6 63 90 6 63 90 6 63 90 7 63 88 7 63 88 7 63 88 7 63 88 7 63 88 7 63 88 7 63 88 7 63 88 6 63 90 4 64 90 7 63 88 7 64 84 7 64 84 6 64 84 4 65 84 3 65 88 1 65 93 0 65 95 0 65 95 0 65 95 0 65 95 0 65 95 0 65 95 0 65 95 0 65 95 0 65 95 0 65 95 0 65 95 
0 65 95 0 65 95 0 65 95 0 65 95 0 65 95 0 65 95 0 65 95 0 65 95 0 65 97 1 64 97 1 64 95 0 66 90 3 69 93 0 65 83 1 57 74 17 62 83 29 71 87 25 62 78 27 66 81 25 62 78 26 65 80 26 65 80 26 65 80 26 65 80 26 65 80 26 65 80 26 65 80 26 65 80 26 65 80 26 65 80 26 65 80 27 65 78 28 66 79 28 66 79 28 66 79 28 66 79 28 66 79 28 66 79 28 66 79 28 66 79 28 66 79 28 65 81 28 66 79 27 65 78 27 67 79 28 66 79 28 66 79 27 67 77 29 72 88 20 69 86 8 66 90 1 62 91 0 64 96 0 66 98 0 65 95 0 65 93 0 65 95 0 65 95 0 65 95 0 65 95 0 65 95 0 65 95 0 65 95 0 65 95 0 65 95 0 65 95 0 65 95 0 65 95 0 65 95 0 65 95 0 65 95 1 64 95 0 65 93 0 65 93 1 66 94 3 67 95 6 63 92 4 55 76 24 67 83 29 69 79 26 69 76 26 69 76 26 69 76 26 69 76 25 68 75 27 70 77 26 69 76 26 69 76 28 68 78 28 68 78 28 68 78 28 68 78 28 68 78 28 68 78 28 68 78 28 68 78 26 69 76 26 69 76 26 69 76 26 69 76 26 69 76 26 69 76 26 69 76 26 69 76 28 68 80 29 67 80 29 67 80 29 67 80 29 67 80 28 66 79 23 65 79 20 67 85 11 71 97 5 70 100 1 66 96 0 63 94 0 65 95 0 65 95 0 65 95 0 65 95 0 65 95 0 65 95 0 65 95 0 65 95 0 65 95 0 65 95 0 65 95 0 65 95 1 64 95 1 64 95 0 65 95 0 65 95 0 65 95 0 65 95 0 65 95 0 65 93 0 64 91 0 62 87 3 65 88 1 59 81 11 58 74 25 69 80 21 67 80 20 64 75 27 67 77 27 67 75 27 67 75 27 68 74 27 67 75 27 67 75 25 68 75 28 66 79 28 66 77 28 66 79 28 66 79 28 66 79 28 66 79 28 66 79 28 66 79 28 66 79 28 66 79 25 68 75 27 67 75 27 67 75 27 67 75 27 67 75 27 67 75 28 66 79 27 66 81 27 66 81 29 66 75 31 65 74 28 68 76 25 69 78 21 69 83 14 67 85 3 64 92 0 65 97 0 65 95 0 65 95 0 65 95 0 65 95 0 65 95 0 65 95 0 65 95 0 65 95 0 65 95 0 65 95 
0 65 95 0 65 95 0 65 95 0 65 95 0 65 95 1 64 95 0 65 95 0 65 95 0 65 97 0 65 95 1 65 93 4 64 90 4 66 87 1 58 77 2 44 66 10 43 62 35 65 76 40 69 77 36 65 73 40 69 77 36 65 73 36 65 73 36 65 73 36 65 73 37 64 73 36 65 73 36 65 73 36 65 73 36 65 73 36 65 73 36 65 73 36 65 69 37 66 72 37 66 72 37 66 72 37 66 72 37 66 72 37 66 72 37 66 72 37 66 72 38 65 72 37 66 70 37 66 72 37 66 72 38 65 72 37 66 72 37 66 72 34 67 74 25 69 80 15 66 83 7 65 87 2 63 92 0 65 97 0 66 98 0 65 97 1 66 96 0 65 95 0 65 95 0 65 95 0 65 95 0 65 95 0 65 95 0 65 95 0 65 95 1 64 95 0 65 95 0 65 95 0 65 95 0 65 95 0 65 95 0 65 95 0 65 95 3 64 93 2 66 94 3 64 93 3 60 87 0 50 73 1 42 60 14 48 58 40 70 78 36 67 70 36 67 70 36 67 70 36 67 70 36 67 70 36 67 70 36 67 70 36 67 70 36 67 72 36 67 72 36 67 70 36 66 74 36 67 72 36 67 72 36 67 72 36 67 72 36 67 70 36 67 70 36 67 70 36 67 70 36 67 70 36 67 70 36 67 70 36 67 70 36 67 72 37 66 72 37 66 70 38 65 72 37 66 72 37 67 75 31 68 77 24 70 86 8 68 94 2 67 97 0 65 95 0 62 93 0 65 95 0 65 95 0 65 95 0 65 95 0 65 95 0 65 95 0 65 95 0 65 95 0 65 95 0 65 95 0 65 95 0 65 95 1 64 95 1 64 95 0 65 95 0 65 95 0 64 94 0 65 95 0 65 95 0 65 93 1 65 92 3 65 88 3 59 86 1 49 69 7 42 61 23 55 66 33 72 79 35 70 74 35 66 69 36 65 69 37 65 69 36 65 69 36 65 69 36 65 69 37 66 72 36 65 69 36 65 69 36 65 71 36 65 71 36 65 71 36 65 71 36 65 71 36 65 71 36 65 69 36 65 69 36 65 69 36 65 69 36 65 69 36 65 69 36 65 69 36 65 69 36 65 69 36 65 71 36 65 71 40 63 69 36 65 69 33 66 73 33 71 82 26 70 83 10 63 81 3 64 92 0 66 95 0 65 95 0 65 95 0 65 95 0 65 95 0 65 95 0 65 95 0 65 95 0 65 95 0 65 95 0 65 95 
0 65 95 0 65 95 0 65 95 0 65 95 0 65 95 0 65 95 0 65 95 0 65 95 1 66 96 1 66 96 0 66 92 4 64 90 3 49 75 3 44 66 9 41 62 11 38 55 16 40 50 38 63 70 39 66 73 37 64 71 39 66 73 39 66 73 38 67 73 40 67 74 39 66 73 39 66 73 39 66 73 39 66 73 39 66 73 39 66 73 39 66 73 39 67 70 40 68 72 40 68 72 40 68 72 40 68 72 40 68 72 40 68 72 40 68 72 40 68 72 40 68 72 40 68 72 40 68 72 40 68 72 40 67 74 40 68 71 40 68 72 37 71 80 15 68 86 3 67 94 0 66 92 0 62 93 0 65 95 0 66 98 0 64 99 1 65 100 0 65 95 0 65 95 0 65 95 0 65 95 0 65 95 0 65 95 0 65 95 0 65 95 1 66 96 0 65 95 0 65 95 1 64 95 0 65 95 0 65 95 0 65 95 0 65 95 1 66 98 5 66 97 7 58 89 3 49 75 3 46 65 9 44 63 7 38 56 18 47 61 39 66 73 39 67 71 39 67 70 39 67 70 39 67 70 39 67 70 39 67 70 39 67 71 40 68 72 39 67 71 39 67 71 39 67 71 39 67 71 39 67 71 39 67 71 39 67 71 39 67 71 39 67 70 39 67 70 39 67 70 39 67 70 39 67 70 39 67 70 39 67 70 39 67 70 39 67 70 42 66 66 45 64 71 44 69 76 36 66 76 25 67 79 14 67 85 4 65 93 0 65 95 0 65 95 0 63 94 0 65 95 0 65 95 0 65 97 0 64 94 0 65 95 0 65 95 0 65 95 0 65 95 0 65 95 0 65 95 0 65 95 0 65 95 1 64 97 1 64 97 0 65 95 0 65 93 0 65 93 0 65 95 0 65 93 0 65 93 0 66 92 4 61 88 4 49 72 5 41 63 9 40 60 7 39 54 23 56 65 34 67 72 40 70 70 40 68 71 40 68 71 40 68 71 40 68 71 40 68 71 40 68 71 40 68 71 40 68 71 40 68 72 40 68 72 40 68 72 40 68 72 40 68 72 40 68 71 40 68 71 40 68 71 40 68 71 40 68 71 40 68 71 40 68 71 40 68 71 40 68 71 40 68 71 44 67 73 45 68 74 43 68 72 40 68 72 36 70 79 22 68 81 9 64 84 2 62 88 1 65 93 0 65 95 0 65 95 0 65 95 0 65 95 0 65 95 0 66 95 0 65 95 0 65 95 0 65 95 0 65 95 0 65 95 
1 66 96 0 65 95 0 65 93 0 65 95 0 65 95 0 64 94 0 65 95 1 66 96 1 66 96 0 65 93 1 67 91 4 64 90 1 47 71 4 40 64 14 42 66 10 33 51 13 35 46 19 39 48 28 47 54 26 46 53 25 46 51 25 46 51 26 45 51 23 46 52 25 45 52 25 45 52 25 46 51 25 46 51 25 46 51 25 46 51 25 45 52 25 45 52 26 47 52 26 47 52 26 47 52 26 47 52 26 47 52 26 47 52 26 47 52 26 47 50 26 47 50 24 48 50 27 46 52 27 46 52 27 48 53 24 48 50 22 47 51 16 50 60 8 65 92 1 67 101 0 65 97 0 63 94 0 65 95 0 65 97 0 64 99 0 64 100 0 65 95 0 65 95 0 65 95 0 65 95 0 65 95 0 65 95 0 65 95 0 65 95 1 66 96 1 66 96 1 64 95 0 63 94 0 65 95 0 66 95 0 65 95 1 64 95 3 65 102 7 68 99 4 60 87 0 46 69 5 46 66 11 43 64 8 39 59 12 39 56 22 45 51 21 47 46 21 47 46 21 45 49 22 46 50 25 44 50 25 44 50 22 46 50 22 46 50 21 44 50 21 44 52 21 44 50 21 44 52 21 44 50 21 44 50 21 45 49 21 45 47 21 45 45 21 46 43 21 45 45 21 45 45 21 45 45 21 45 45 21 45 49 21 45 49 21 45 45 24 44 45 26 43 50 23 42 49 20 48 59 14 57 73 6 63 82 2 63 91 1 64 95 0 63 94 0 65 95 0 65 95 0 65 95 0 65 95 0 65 95 0 65 95 0 65 95 0 65 95 0 65 95 0 65 95 0 65 95 0 65 95 0 65 95 1 64 97 1 64 97 0 65 95 0 65 95 0 65 95 0 65 95 0 65 93 0 65 93 0 65 89 0 56 81 0 40 65 9 45 67 10 41 62 10 39 55 7 37 47 18 47 53 22 50 53 27 48 51 26 47 50 27 48 51 24 49 53 24 49 53 24 50 51 24 50 51 24 50 51 22 50 51 25 49 51 27 48 53 27 48 53 28 47 53 28 47 51 27 48 51 27 48 53 27 48 53 28 47 51 25 49 51 24 50 51 24 50 51 24 50 51 27 48 51 28 47 54 28 47 53 28 48 49 24 49 54 17 49 60 16 59 76 10 66 91 3 67 95 1 64 95 1 64 95 0 65 95 0 65 95 0 65 95 0 66 95 0 65 95 0 65 95 0 65 95 0 65 95 0 65 95 0 65 95 
0 65 97 0 64 99 1 66 96 0 67 96 1 66 94 0 63 90 0 66 92 0 69 95 0 65 93 0 67 94 0 69 95 2 66 94 5 61 88 0 44 69 7 41 66 13 40 61 17 40 54 20 38 52 28 38 50 21 34 42 27 40 46 21 36 41 24 35 41 21 34 42 23 37 48 21 38 46 21 39 41 21 39 39 21 39 41 21 39 43 21 38 45 21 38 46 20 37 44 20 37 44 20 37 44 20 37 44 20 37 45 20 37 45 20 37 44 20 38 40 22 40 40 24 38 38 27 37 46 24 37 45 18 36 40 19 40 43 15 40 44 14 47 62 10 61 90 0 64 99 0 66 98 1 66 96 0 65 95 1 64 95 4 63 97 1 64 97 0 65 95 0 65 95 0 65 95 0 65 95 0 65 95 0 65 95 0 65 95 0 65 95 0 65 93 0 65 93 1 65 93 3 67 95 0 67 96 0 67 96 2 65 96 2 61 93 3 64 95 5 66 95 4 66 89 3 57 81 1 43 65 8 40 63 9 37 61 12 38 55 18 39 44 14 39 35 19 44 41 22 41 45 21 39 43 23 36 42 24 37 43 22 37 42 20 37 44 19 36 43 19 36 43 18 37 44 18 36 48 17 35 45 17 36 42 18 38 37 17 37 35 17 37 35 18 38 37 18 38 37 17 38 33 17 38 33 17 37 36 18 37 43 18 39 44 23 42 46 18 39 42 16 36 37 23 36 42 14 37 43 6 52 67 6 67 86 4 65 93 2 65 96 1 66 98 2 67 99 1 66 96 1 62 91 0 67 94 0 65 93 0 65 95 0 65 95 0 65 95 0 65 95 0 65 95 0 65 95 0 65 95 0 65 95 0 63 96 1 64 97 1 66 98 0 65 97 0 63 94 2 65 98 0 65 93 1 66 94 3 67 95 5 65 93 4 56 78 0 40 60 7 42 62 10 42 55 13 41 52 17 40 48 18 32 43 23 40 47 23 38 41 24 39 44 20 37 45 18 38 45 18 39 42 18 40 37 17 37 36 18 38 37 22 38 37 23 36 42 21 36 43 21 36 43 21 36 39 21 36 39 23 36 44 22 36 45 22 37 42 22 37 40 20 38 40 18 39 40 18 39 42 19 39 40 26 40 41 23 37 40 27 45 47 19 40 45 6 36 47 12 55 74 9 66 95 0 62 95 4 63 93 4 65 94 1 64 95 0 65 93 1 66 96 0 64 96 4 64 98 1 64 97 0 65 95 0 65 95 0 65 95 0 65 95 
0 65 97 0 64 96 1 66 96 0 67 94 1 68 94 0 65 93 0 66 90 0 65 93 1 65 93 1 66 96 0 64 92 0 65 93 0 61 90 6 63 92 0 46 72 1 43 65 2 43 61 8 41 60 14 41 58 15 35 46 19 39 46 21 35 38 16 24 27 28 33 37 21 31 40 21 32 38 21 33 31 21 33 29 21 33 31 21 33 33 21 32 36 21 31 40 20 31 37 20 31 37 20 31 37 20 30 39 20 30 40 20 30 39 20 31 35 20 32 32 20 30 29 19 27 29 22 27 33 19 28 37 12 32 39 6 37 42 9 44 50 2 48 63 4 64 92 0 64 99 0 67 96 0 67 96 1 66 96 0 65 95 0 65 95 0 65 95 0 65 95 0 65 95 0 65 95 0 65 95 0 65 95 0 65 95 0 65 95 0 65 95 0 65 93 0 65 93 1 65 93 1 65 93 1 66 96 2 67 97 3 64 95 4 63 95 1 65 93 0 66 92 1 69 92 0 66 90 1 53 75 4 49 72 3 38 66 7 39 60 10 44 53 16 50 52 8 41 46 12 40 44 21 36 41 25 35 37 24 34 33 24 32 35 22 33 37 21 32 36 21 32 36 21 31 40 19 32 41 18 31 39 19 33 34 19 33 33 19 34 31 19 34 31 19 33 33 19 33 33 18 35 29 18 35 29 18 34 33 16 34 36 18 31 37 10 25 32 15 34 38 14 38 42 16 39 45 9 43 53 2 55 71 0 65 83 0 62 89 0 64 92 0 63 96 0 65 97 0 67 94 0 64 92 0 69 95 0 61 90 0 65 95 0 65 95 0 65 95 0 65 95 0 65 95 0 65 95 0 65 95 0 65 95 3 63 97 1 64 97 0 65 97 0 66 95 3 64 93 0 58 88 0 65 89 0 65 89 0 66 92 1 66 94 3 65 88 0 56 76 0 43 62 0 41 59 2 40 53 5 39 51 16 45 59 10 33 47 20 33 41 23 30 36 20 29 38 17 30 38 16 32 31 17 32 29 17 32 29 20 30 31 20 30 29 20 30 32 19 28 35 19 28 35 20 30 32 23 28 32 21 28 36 21 28 36 21 28 34 20 30 32 19 31 31 19 31 31 17 31 31 17 31 31 23 31 33 20 31 33 16 41 45 9 44 50 0 41 55 3 55 77 0 63 91 0 61 90 0 63 94 0 63 94 0 63 94 0 65 93 0 62 93 1 66 98 1 61 95 0 65 97 0 65 95 0 65 95 0 65 95 0 65 95 
0 66 95 0 66 95 1 66 96 1 66 96 0 69 95 2 68 94 3 65 88 2 62 90 1 65 93 8 77 106 3 76 108 4 78 107 4 80 106 5 79 106 7 77 103 5 72 98 2 72 97 5 73 96 12 75 93 14 66 80 54 86 97 115 134 141 122 130 132 127 129 128 123 127 126 123 127 126 123 128 124 123 128 124 123 127 126 123 127 126 124 128 131 125 125 133 121 124 129 120 125 129 121 124 129 121 124 129 121 127 127 121 124 129 123 126 133 124 128 131 123 127 126 123 127 126 127 128 132 120 130 139 79 111 122 17 66 80 11 73 84 6 78 92 8 80 105 3 80 108 2 82 109 2 82 107 4 81 107 5 81 107 5 80 109 6 80 109 2 69 98 0 65 95 0 65 95 0 65 95 0 65 95 0 65 95 0 65 95 0 65 95 0 65 93 0 65 93 1 65 93 3 64 93 4 65 94 5 66 95 1 58 88 4 65 94 9 81 106 3 81 104 2 82 105 6 82 105 14 81 107 16 77 105 13 70 99 13 70 97 10 71 89 13 72 88 13 64 85 66 102 118 116 133 140 126 130 131 128 129 131 125 129 130 129 128 133 124 128 131 123 127 130 124 128 131 123 129 129 121 130 129 121 130 129 121 130 129 121 130 129 121 130 129 121 130 129 121 130 127 121 130 129 121 130 127 120 131 125 121 130 125 121 130 129 122 130 133 121 140 146 68 98 106 15 64 79 10 73 91 8 78 103 6 80 105 4 80 106 3 80 106 3 79 105 5 81 107 6 80 107 6 80 107 9 83 112 0 74 103 1 66 98 0 65 95 0 65 95 0 65 97 0 65 95 0 65 95 0 65 95 0 65 95 1 64 97 1 64 97 1 64 95 3 64 93 10 67 96 0 60 86 9 73 100 8 80 105 5 81 107 3 80 108 5 81 107 3 79 103 9 75 101 9 73 98 12 74 97 13 74 95 13 74 95 19 66 84 92 110 122 126 129 138 127 126 131 126 128 127 124 128 129 123 129 127 124 128 131 126 127 129 126 128 125 126 128 125 126 127 131 126 127 131 126 128 127 127 127 127 127 127 129 127 127 127 127 127 127 128 128 130 126 127 129 127 128 130 123 127 128 124 128 129 122 123 127 111 126 133 38 82 91 12 71 87 6 74 95 3 78 101 6 82 106 7 82 111 9 80 108 10 79 110 7 81 110 7 81 110 5 81 107 3 77 104 1 62 91 0 63 94 0 65 95 0 65 95 0 65 95 0 65 95 
1 66 96 0 65 93 0 64 94 1 66 96 0 69 95 5 70 92 8 64 87 2 56 80 0 54 82 19 84 112 14 88 113 9 85 109 11 89 112 9 87 110 13 89 113 10 86 110 7 87 112 6 88 112 13 91 113 16 81 99 66 103 119 159 178 185 173 175 174 176 172 160 178 175 158 180 177 158 181 176 157 178 175 158 178 175 158 179 176 161 178 174 165 178 174 165 177 173 161 177 173 162 178 174 163 177 173 162 177 174 159 177 173 161 177 174 167 181 172 165 179 171 160 179 170 161 176 171 168 162 176 177 103 141 154 23 85 100 20 89 104 13 90 106 11 87 110 9 87 110 6 88 110 7 87 110 9 87 110 10 87 113 7 87 112 10 87 113 7 76 105 4 69 99 0 65 95 0 65 95 0 65 95 0 65 95 0 65 95 0 64 94 0 65 93 0 65 93 1 65 93 3 64 93 5 65 93 7 64 93 0 49 79 2 62 88 11 85 110 9 90 111 7 87 110 9 87 110 12 86 113 14 85 115 16 82 114 20 87 114 10 80 106 27 94 121 18 82 107 85 130 149 162 180 182 175 175 167 180 171 162 178 172 160 179 171 160 178 170 159 179 169 159 178 170 159 178 170 157 178 170 157 178 170 159 178 170 159 178 170 159 178 169 160 178 169 160 175 171 160 175 171 160 175 172 157 178 171 153 174 173 153 176 172 160 173 174 169 172 187 190 90 124 134 16 77 98 14 88 113 15 91 115 10 86 110 6 87 108 8 86 109 9 85 109 11 85 110 10 84 109 11 85 112 11 88 118 0 73 105 0 66 98 0 65 95 0 65 95 0 65 95 0 65 95 0 65 95 0 65 95 0 65 95 1 64 97 1 64 97 3 64 95 4 64 90 7 57 84 1 49 72 11 75 100 13 87 112 7 85 108 10 90 115 11 89 112 8 86 109 12 90 113 14 88 113 13 88 111 13 89 112 13 91 114 20 78 98 126 144 158 176 175 180 178 174 165 180 172 159 180 172 159 180 172 159 180 171 162 180 171 164 180 172 161 181 171 159 180 172 161 180 172 161 181 171 159 181 174 158 181 174 158 181 174 158 181 171 159 180 171 162 180 172 159 179 171 160 180 174 162 178 174 165 175 173 174 164 181 189 47 98 115 11 81 106 9 87 110 4 86 108 9 87 109 13 89 112 10 86 110 11 85 114 12 86 113 11 87 113 8 85 111 9 85 111 0 66 93 1 66 96 0 65 95 0 65 95 0 65 95 0 65 95 
1 64 95 1 64 95 1 64 97 0 65 95 0 64 92 7 67 93 4 52 72 0 41 61 0 52 74 20 85 103 17 82 104 13 84 104 13 86 105 13 84 104 12 85 104 15 83 106 13 84 106 9 81 106 6 80 105 16 78 99 57 95 108 148 163 166 166 164 149 163 149 120 167 148 108 169 148 103 167 148 105 169 147 108 168 145 114 175 152 121 175 152 121 169 146 114 166 144 107 170 147 115 173 149 123 175 151 123 170 150 113 166 144 107 172 149 118 165 140 110 176 147 117 172 144 120 166 148 136 166 170 169 96 138 150 20 82 97 21 87 103 19 86 103 16 82 104 13 84 104 13 86 105 13 84 106 13 84 106 17 87 112 8 84 108 11 87 113 8 79 107 0 65 95 0 65 95 0 63 94 0 65 95 0 65 95 0 65 95 0 65 95 1 66 96 1 66 96 0 65 93 3 64 92 5 62 89 0 49 74 0 44 67 3 59 84 13 83 108 7 81 106 15 87 112 13 80 107 14 84 110 14 84 110 17 82 110 18 83 111 19 86 112 16 87 109 8 78 103 78 130 144 155 172 166 169 161 142 171 147 121 174 145 115 171 145 112 171 145 112 172 146 111 171 147 111 171 146 115 170 147 113 167 145 108 167 143 105 177 151 116 175 150 119 170 144 119 169 145 119 170 145 115 170 148 109 170 149 104 168 149 106 167 153 118 162 157 137 159 174 167 77 114 122 19 77 97 16 88 113 17 88 108 9 82 101 14 84 109 13 84 106 17 83 107 18 79 107 18 82 107 15 80 108 14 82 117 0 68 103 0 66 98 0 65 95 0 65 95 0 65 95 0 65 95 0 65 95 0 65 95 0 65 95 0 65 95 0 61 92 5 64 96 4 53 83 0 45 66 0 42 64 10 74 99 14 84 109 9 84 105 16 83 102 15 86 106 13 86 105 14 87 106 10 85 104 10 85 106 9 86 106 6 84 106 23 84 102 120 140 149 166 166 158 164 154 127 164 148 114 178 152 115 172 148 110 172 149 115 168 147 118 168 144 118 167 143 115 166 146 109 168 146 105 168 146 105 165 147 107 167 147 110 163 147 113 170 148 111 168 149 109 167 145 106 167 145 106 173 151 112 168 152 126 167 158 151 152 166 175 47 97 120 8 75 104 14 83 112 14 86 111 12 87 108 11 87 103 13 84 106 13 83 108 13 83 109 13 83 109 6 84 107 10 86 109 1 68 94 0 63 90 0 65 95 0 65 95 0 65 95 0 65 95 
1 64 95 1 64 95 1 64 97 1 64 95 2 67 95 3 60 87 2 43 63 0 41 61 1 56 76 22 83 104 10 73 90 3 66 81 4 67 82 4 67 82 5 66 84 5 66 84 5 66 85 7 69 94 5 72 98 9 70 91 62 100 113 158 174 171 168 160 139 159 136 94 143 121 61 145 123 50 145 122 54 143 122 59 144 118 69 171 145 96 154 129 75 146 122 62 144 121 54 145 121 59 140 113 66 173 146 101 155 130 73 146 122 60 144 120 60 144 118 61 151 118 64 155 126 82 167 145 124 162 164 163 95 139 148 14 77 92 11 73 88 5 66 84 5 68 86 6 67 86 5 67 88 5 68 86 5 67 88 4 66 87 1 69 90 10 82 107 9 78 107 0 65 95 0 65 95 0 63 94 0 64 94 0 65 95 0 65 95 0 65 95 1 68 97 1 66 96 0 65 93 3 64 92 6 57 84 0 46 69 2 44 66 8 60 81 15 79 104 1 71 96 6 67 95 4 64 90 5 67 92 5 67 90 4 66 87 7 69 92 7 68 89 8 73 93 6 74 97 79 131 144 166 181 174 164 152 128 157 130 85 149 116 63 150 119 62 149 120 60 150 120 60 149 120 64 175 147 99 149 122 69 145 119 58 149 124 58 145 119 60 150 123 68 176 145 101 149 120 76 144 119 62 145 122 55 145 123 50 143 122 57 155 135 85 165 160 128 163 176 169 80 114 123 24 76 97 10 74 99 7 70 85 4 67 82 4 67 85 5 65 89 7 66 84 7 66 82 6 67 88 7 67 93 13 82 113 4 75 107 0 66 98 0 65 95 0 65 95 0 65 95 0 65 95 0 65 95 0 65 95 0 65 95 1 64 95 1 62 93 7 64 94 4 54 79 5 43 64 0 41 63 12 74 99 13 84 106 3 66 83 5 67 82 5 67 82 4 67 82 3 69 83 1 68 84 0 69 84 1 70 86 2 79 99 19 81 96 116 141 148 165 165 153 167 153 116 149 128 73 144 118 57 149 121 58 147 123 63 143 118 64 152 124 84 171 144 99 143 119 59 141 121 52 140 120 51 141 120 55 157 134 84 167 146 93 139 120 61 145 124 61 147 124 57 146 119 52 142 116 55 160 139 94 168 159 142 150 167 174 47 97 120 7 76 105 0 65 93 1 66 86 1 67 81 1 67 79 0 66 82 1 63 84 3 65 88 0 64 86 0 75 96 7 83 106 0 69 95 0 64 92 0 65 95 0 65 95 0 65 95 0 65 95 
0 66 93 1 64 95 1 64 97 1 64 99 4 71 97 0 58 80 3 41 60 5 42 61 2 49 75 23 79 104 11 70 88 6 64 78 9 65 78 9 65 78 9 65 80 10 63 79 8 64 77 7 64 81 5 65 91 11 65 89 59 104 109 148 169 162 165 154 126 184 163 110 238 219 142 235 223 125 236 224 124 236 222 133 229 211 145 196 181 116 218 205 127 239 228 138 234 222 124 238 225 131 238 221 151 195 175 112 219 203 125 238 223 138 237 226 134 233 218 127 240 224 136 204 186 122 164 148 125 167 171 174 98 144 157 17 80 97 12 74 89 5 64 78 9 66 77 13 65 79 12 64 78 15 64 79 10 65 85 5 64 82 1 66 84 19 85 109 11 76 104 1 66 96 0 64 94 0 63 94 0 65 95 0 65 95 0 65 95 0 65 95 0 67 96 0 65 95 0 65 93 3 64 92 5 55 78 0 45 68 0 44 63 13 64 83 18 79 98 1 66 86 9 61 83 10 58 81 8 61 79 7 60 74 7 61 73 10 62 75 7 60 74 11 69 83 8 70 91 84 130 145 164 173 172 162 146 121 202 180 122 246 223 145 238 217 136 236 219 129 237 219 133 236 217 140 191 169 109 236 217 151 233 220 128 233 219 122 235 220 129 230 214 136 195 175 114 238 217 154 235 219 134 234 222 124 234 222 122 232 221 132 189 180 115 158 154 119 164 179 176 82 111 129 24 70 96 11 63 84 11 60 75 11 60 74 11 62 81 11 62 81 13 62 77 11 63 77 10 63 81 7 68 89 12 79 106 0 71 103 0 67 96 0 65 95 0 65 95 0 65 95 0 65 95 0 65 95 0 65 95 0 65 95 1 64 95 1 62 93 7 64 94 7 52 81 9 42 61 2 39 58 12 74 97 15 83 106 6 63 82 13 62 79 11 62 79 8 64 77 9 65 78 7 65 76 7 65 76 4 68 80 1 72 90 16 78 93 115 139 149 165 167 156 166 153 109 219 199 130 240 220 134 232 215 123 238 221 129 237 218 142 223 200 148 202 179 129 239 220 143 237 222 127 237 222 127 237 221 134 218 200 136 191 172 113 236 220 142 236 223 131 236 220 125 241 222 128 239 217 131 184 168 106 168 161 135 149 169 168 42 101 117 3 78 99 2 68 84 7 66 80 12 64 77 9 66 73 10 64 76 11 63 77 11 62 79 6 65 83 6 74 95 11 83 105 2 68 94 0 62 93 0 65 95 0 65 95 0 65 95 0 65 95 
0 66 92 0 65 95 1 64 97 1 64 97 4 68 96 5 62 82 6 43 62 5 38 57 8 56 79 25 81 106 15 68 86 8 62 74 13 62 76 13 62 76 11 63 76 13 62 76 12 64 77 10 66 79 10 68 90 14 71 90 55 99 108 153 176 168 167 158 129 187 166 109 250 237 145 249 239 128 250 240 125 250 238 136 247 236 157 198 186 112 228 219 128 251 240 135 252 242 127 247 236 130 253 240 161 196 182 107 234 225 132 252 240 142 245 234 128 245 234 126 254 243 137 215 204 124 162 148 119 165 174 173 92 138 151 14 77 92 13 72 88 9 65 80 11 60 74 13 61 75 13 61 71 13 61 75 15 64 79 11 64 80 4 65 83 14 79 99 12 76 104 0 65 93 0 65 95 0 63 94 0 65 95 0 65 95 0 65 95 0 65 95 0 65 95 0 65 95 1 65 93 3 64 92 6 54 77 2 44 66 0 44 63 15 64 81 18 79 97 2 65 82 9 62 80 15 62 80 13 62 76 13 63 74 13 61 71 15 63 73 14 63 77 15 68 82 9 68 86 82 126 137 167 171 174 159 143 117 208 189 120 255 236 142 249 234 133 248 234 135 248 234 135 248 233 142 197 180 110 244 227 155 252 238 139 247 235 123 251 239 131 244 229 136 201 184 112 245 231 158 249 237 139 250 240 125 249 240 123 247 237 139 195 187 115 156 154 116 152 167 162 81 110 128 22 68 91 12 62 85 16 62 77 18 62 75 13 60 76 13 60 78 16 59 75 13 61 75 8 61 75 9 68 86 14 81 107 1 75 102 1 66 96 0 65 95 0 65 95 0 65 95 0 65 95 0 65 95 0 65 95 0 65 95 0 65 95 2 63 92 6 63 92 7 53 77 10 41 61 3 38 57 13 73 97 15 83 106 9 61 82 15 60 79 14 61 77 14 61 77 13 62 76 13 63 74 13 63 72 7 65 77 2 74 89 20 79 95 115 144 150 169 171 157 167 153 106 228 209 133 250 235 140 251 238 133 254 240 135 255 239 151 231 212 154 196 177 118 251 236 143 250 239 124 249 239 126 249 237 139 222 212 141 200 190 121 253 242 150 251 238 133 248 235 123 254 237 129 255 237 137 182 165 95 166 161 129 147 167 168 39 101 114 4 77 94 5 69 81 13 65 76 16 66 73 16 65 72 15 64 71 15 65 76 14 63 77 9 65 80 6 73 90 11 83 105 2 68 94 0 63 91 0 65 95 0 65 95 0 65 95 0 65 95 
0 65 95 0 65 95 0 65 95 1 64 95 2 63 92 6 57 84 7 42 62 5 42 61 2 54 76 22 82 106 12 68 85 9 62 76 13 62 76 14 62 76 14 63 78 11 63 76 12 61 75 11 64 80 9 68 86 12 68 85 60 104 113 152 175 169 162 158 129 183 166 110 249 233 145 250 236 129 252 236 123 249 234 133 251 235 157 193 181 105 228 219 128 251 238 136 251 233 121 249 235 130 246 233 155 192 180 104 229 216 122 253 240 135 251 234 126 247 234 122 255 244 129 214 205 114 160 151 108 165 175 167 95 143 147 16 78 93 16 69 87 12 61 78 14 61 79 14 61 77 13 62 76 14 62 74 13 62 76 6 64 76 5 67 80 16 81 103 10 74 102 0 65 93 1 66 96 2 65 96 1 66 96 1 66 96 1 66 96 0 65 95 1 65 93 0 64 92 0 65 95 4 64 90 8 54 77 2 43 65 1 43 65 12 60 80 24 85 103 3 66 83 10 63 79 14 63 78 13 62 76 14 62 74 13 61 75 15 62 80 12 61 78 11 62 81 13 72 88 82 126 137 165 174 173 161 150 122 205 189 114 255 241 142 248 235 131 251 237 132 253 240 135 240 227 133 187 175 101 240 226 151 249 233 137 251 234 126 255 238 132 246 230 134 190 176 103 242 230 156 249 239 141 248 235 121 248 236 118 251 237 140 195 180 113 157 151 115 160 176 166 78 112 121 17 70 88 5 66 87 13 64 81 16 64 78 13 62 77 14 61 77 15 61 76 14 62 76 14 63 78 9 68 86 15 85 110 0 74 103 0 65 93 0 63 94 1 64 95 0 64 94 0 65 95 0 65 95 0 65 95 0 65 95 1 66 94 2 67 95 6 66 92 1 49 72 8 41 60 0 37 56 10 72 93 14 82 105 10 63 81 14 61 77 14 61 77 14 61 77 14 61 77 15 63 77 14 62 76 8 64 79 5 72 89 20 80 91 117 145 149 171 172 156 162 146 97 229 207 132 254 237 145 250 235 132 250 233 129 253 233 144 226 212 151 192 178 115 252 240 142 248 237 121 248 237 121 252 240 138 217 211 137 193 186 116 248 238 140 245 235 120 252 237 120 255 234 125 255 232 136 184 167 98 166 161 131 147 167 166 41 99 111 4 75 93 10 63 79 14 62 76 14 62 74 13 63 74 13 61 75 14 62 76 14 60 76 11 62 81 9 71 92 15 85 110 0 72 97 0 63 91 0 65 95 0 65 95 0 65 95 0 65 95 
0 65 95 0 65 95 0 65 95 1 64 95 3 64 93 7 56 86 7 42 64 5 42 61 0 55 76 20 82 107 12 68 85 9 60 77 13 62 77 15 61 76 13 62 76 13 62 76 12 61 76 11 62 79 8 67 85 12 70 84 63 103 113 152 174 171 159 158 128 183 166 110 249 233 145 253 235 127 254 233 124 253 234 131 252 237 156 193 182 103 231 218 126 253 238 135 250 234 123 252 233 130 246 233 155 192 178 103 230 215 122 255 239 133 251 234 126 249 233 120 254 243 127 214 205 114 157 153 108 165 175 167 95 142 148 17 76 92 16 69 87 13 60 78 14 61 81 14 61 77 14 62 76 14 62 74 14 62 76 9 62 76 7 66 82 18 80 101 9 75 101 0 65 93 1 66 96 1 66 96 1 66 96 1 66 96 2 65 96 0 65 95 1 65 93 1 65 93 1 65 93 4 64 88 11 53 77 4 40 62 1 42 64 12 60 82 23 84 105 4 67 84 10 63 79 14 63 78 12 61 75 14 62 76 14 60 76 16 62 78 12 59 77 11 62 81 14 73 89 81 128 136 165 174 171 160 151 120 203 191 109 254 241 137 249 235 130 250 236 129 252 238 131 241 226 131 187 175 101 240 228 154 251 232 137 254 233 124 255 238 130 249 226 132 189 175 102 246 229 157 253 237 141 251 233 121 251 234 120 252 236 138 197 179 115 156 150 116 159 175 164 78 113 119 14 74 85 2 69 88 10 66 81 15 64 79 13 62 76 14 62 76 14 62 76 14 60 75 15 62 78 10 67 87 14 86 111 0 74 103 0 66 92 0 63 94 0 63 94 0 63 94 0 65 95 0 65 95 0 65 95 0 65 95 1 66 96 2 67 95 7 67 91 1 49 72 8 40 61 0 39 56 11 73 94 14 82 105 10 63 81 14 61 77 14 61 77 14 61 77 14 61 77 14 61 77 14 61 77 10 63 79 5 72 91 21 79 93 120 143 149 171 172 156 163 146 100 229 207 132 252 236 141 251 237 132 251 232 127 253 234 142 226 212 151 191 180 116 250 241 140 249 237 117 249 237 115 252 241 135 217 211 137 191 187 116 248 238 140 247 234 120 253 236 120 255 234 125 255 233 139 184 167 98 164 159 130 146 167 168 40 98 110 5 73 92 13 61 81 14 60 76 14 62 76 13 62 76 14 61 77 15 62 78 14 60 76 11 62 79 7 71 98 14 86 111 1 71 97 0 64 91 0 65 95 0 65 95 0 65 95 0 65 95 
0 65 95 0 65 95 0 65 95 1 64 95 3 64 93 7 56 86 7 42 64 5 42 61 0 55 76 20 82 105 12 68 85 9 60 77 13 62 77 14 62 76 13 62 76 13 62 76 12 61 76 11 62 79 8 67 83 12 70 84 63 103 113 152 174 171 159 158 128 183 166 110 253 232 143 255 234 125 255 234 123 255 233 131 252 235 153 197 180 102 232 217 126 255 236 137 251 232 127 254 232 131 249 232 154 195 179 102 232 216 120 255 238 134 254 233 126 250 232 120 255 244 129 214 204 115 159 150 117 165 174 173 95 142 150 17 76 92 16 67 84 13 60 78 14 61 79 14 61 77 15 61 76 14 62 74 11 63 76 9 62 76 7 66 82 15 82 101 9 74 102 0 65 93 1 66 96 1 66 96 1 66 96 1 66 96 1 66 96 0 65 95 3 64 93 3 64 93 0 65 93 4 64 90 11 53 77 4 40 62 1 42 64 12 60 82 23 83 107 4 67 84 10 63 79 14 63 78 13 62 76 14 62 76 14 60 76 16 62 77 13 61 73 11 63 76 14 73 89 81 128 136 165 174 173 161 152 119 203 191 107 255 243 133 251 234 128 252 235 127 253 236 128 242 226 131 189 172 103 243 226 156 254 232 133 255 233 122 255 236 129 250 227 134 193 174 108 247 228 160 254 235 140 253 232 123 253 232 125 254 235 143 197 179 117 158 153 115 160 176 165 77 115 118 14 73 87 3 68 86 10 66 81 15 65 76 13 62 76 14 62 76 15 61 76 15 61 76 15 62 78 10 67 86 14 86 111 0 74 103 0 65 93 0 63 94 0 63 94 0 63 94 0 65 95 0 65 95 0 65 95 0 65 95 0 67 96 2 67 95 7 67 91 2 50 73 9 41 62 0 38 57 11 73 94 15 82 101 10 62 83 14 61 77 14 61 77 14 61 77 14 61 77 14 61 77 14 61 77 10 63 79 4 71 87 21 79 93 120 145 152 171 172 158 162 146 97 229 207 131 252 237 136 251 238 126 251 233 123 255 234 141 229 210 152 195 176 118 254 238 142 251 236 117 251 237 114 253 240 135 217 209 136 191 187 116 251 238 142 249 233 120 255 234 125 255 232 126 255 232 136 186 167 98 165 159 133 147 166 170 41 98 115 7 73 97 11 62 83 15 60 79 13 62 77 13 62 77 14 61 77 15 62 78 13 59 75 11 62 81 7 71 96 15 87 112 1 71 97 0 64 91 0 65 95 0 65 95 0 65 95 0 65 95 
0 65 95 0 65 95 0 65 95 1 64 95 3 64 93 7 56 86 7 42 64 5 42 61 0 55 76 20 82 105 12 68 85 9 60 77 13 62 77 14 62 76 13 62 76 13 62 76 12 61 76 11 62 79 8 67 83 14 67 83 63 103 113 151 173 171 159 158 130 183 167 108 252 233 141 255 234 127 255 234 125 255 234 133 252 235 153 196 181 100 233 218 127 254 236 138 253 231 129 254 231 135 251 232 153 194 178 100 232 216 120 255 238 135 252 234 126 249 231 123 254 244 131 214 204 117 159 150 119 164 172 174 95 142 150 17 76 92 16 67 84 13 60 76 14 61 79 14 61 77 14 62 76 14 62 74 13 62 76 9 62 76 7 66 82 16 81 101 9 74 102 0 65 93 1 66 96 1 66 96 1 66 96 1 66 96 1 66 96 0 65 95 1 65 93 3 64 95 1 65 93 4 64 90 11 53 77 4 40 62 1 42 62 12 60 82 23 84 105 4 67 84 10 63 79 14 63 78 13 62 76 14 62 76 14 60 76 16 62 77 14 60 73 11 63 76 11 72 90 82 129 139 165 174 171 159 151 115 203 191 105 255 241 136 251 234 128 253 235 125 255 236 131 242 226 130 190 173 104 243 226 156 252 232 133 254 234 122 255 236 131 250 227 134 193 174 108 247 228 159 254 235 140 254 231 125 253 231 129 255 233 148 196 180 120 159 153 117 159 177 165 78 116 119 13 72 86 3 68 86 10 66 81 13 65 76 13 62 76 14 62 76 15 61 76 15 61 76 15 62 78 10 67 86 14 86 111 0 74 103 0 65 93 0 63 94 0 63 94 0 63 94 0 65 95 0 65 95 0 65 95 0 65 95 0 67 96 1 66 94 5 65 89 2 50 73 8 40 61 0 38 57 11 73 94 15 82 101 10 63 81 14 61 77 14 61 77 14 61 77 14 61 77 14 61 77 14 61 77 10 63 79 4 71 87 20 78 90 120 143 149 171 172 156 163 147 98 229 208 127 252 239 135 250 237 123 251 234 120 254 234 139 229 210 151 196 177 118 253 239 142 252 235 121 253 234 116 252 241 136 218 210 137 193 186 116 251 238 142 249 232 124 255 234 125 255 234 129 253 233 136 186 167 98 166 159 133 147 166 173 41 98 115 7 73 97 10 62 83 15 60 79 13 62 77 13 62 79 15 61 77 14 63 78 14 60 76 11 62 81 7 71 96 14 86 111 1 71 97 0 64 91 0 65 95 0 65 95 0 65 95 0 65 95 
0 65 95 0 65 95 0 65 95 1 64 95 5 66 95 8 57 87 5 41 63 3 40 59 0 57 77 22 84 107 13 70 87 11 62 79 13 62 77 14 62 76 13 62 76 13 62 76 13 60 76 11 62 79 8 67 81 15 68 84 64 102 115 153 173 172 160 156 127 185 170 111 252 235 143 254 236 128 255 235 130 255 235 138 250 235 150 193 182 100 231 217 128 254 238 143 255 237 139 255 234 141 252 237 156 193 182 100 230 215 120 254 236 136 252 234 132 251 234 128 255 241 132 218 208 123 159 151 115 164 175 167 95 143 147 15 77 92 16 67 84 13 60 76 14 61 79 14 61 77 14 62 76 14 62 74 13 62 76 9 62 76 7 66 82 16 81 101 9 74 102 0 65 93 1 66 96 1 66 96 1 66 96 1 66 96 1 66 96 0 65 95 1 65 93 3 64 93 1 64 95 4 64 92 11 53 75 4 40 62 1 42 64 12 60 82 23 84 105 4 67 84 10 63 79 14 63 78 14 63 77 15 63 77 13 59 75 16 62 78 13 60 78 10 63 81 12 72 96 81 127 142 165 176 170 159 149 113 206 191 110 255 244 142 254 236 134 251 234 128 253 236 128 244 232 134 191 179 105 242 230 156 255 237 139 255 234 125 254 235 132 248 225 132 195 181 110 242 226 151 250 234 138 255 234 129 253 233 134 250 232 150 205 186 128 161 155 119 160 176 166 80 117 123 12 74 87 3 68 88 10 66 81 15 64 79 14 63 77 15 63 77 16 62 77 16 62 77 15 62 78 10 67 86 14 86 111 0 74 103 0 65 93 0 63 94 0 63 94 0 63 94 0 65 95 0 65 95 0 65 95 0 65 95 0 67 96 1 66 94 5 65 89 2 50 73 9 41 62 2 39 58 12 74 97 16 82 104 10 63 81 14 61 77 14 61 77 14 61 77 14 61 77 14 61 77 14 61 77 10 63 79 5 72 89 21 79 93 120 144 148 170 171 153 165 150 95 233 212 131 254 242 140 248 235 121 251 234 120 252 234 134 226 212 147 196 181 116 250 236 139 253 238 121 254 237 123 249 237 139 220 213 143 195 191 118 251 239 141 251 238 126 249 231 121 253 232 127 255 233 139 182 163 94 167 160 132 149 167 171 41 100 116 8 74 100 12 63 84 16 61 80 15 62 78 14 64 75 14 61 77 14 61 77 14 60 76 11 62 81 8 72 97 13 83 109 0 70 96 0 66 92 0 65 95 0 65 95 0 65 95 0 65 95 
0 65 95 0 65 95 0 65 95 0 65 95 5 66 95 8 57 87 5 41 63 3 40 59 0 57 77 22 84 107 13 70 87 11 62 79 13 62 77 14 62 76 13 62 76 13 62 76 13 60 76 13 62 79 10 66 83 15 68 84 64 102 115 150 172 170 161 158 127 179 164 109 250 233 155 252 235 143 253 233 147 252 233 154 253 238 171 194 185 118 229 217 143 253 237 160 251 229 153 254 236 162 241 231 162 187 178 111 233 215 139 246 229 149 248 230 146 249 231 145 255 239 151 216 202 131 160 149 117 166 177 171 97 141 150 18 77 95 16 67 84 13 60 76 14 61 79 14 61 77 14 62 76 14 62 74 13 62 76 9 62 76 7 66 82 16 81 101 9 74 102 0 65 93 1 66 96 1 66 96 1 66 96 1 66 96 1 66 96 0 65 95 1 65 93 3 64 93 1 64 95 4 64 92 11 53 77 4 40 62 1 42 64 12 60 82 23 84 105 4 67 84 10 63 79 14 63 78 15 64 78 15 63 77 14 60 76 16 61 80 13 60 80 10 62 84 12 72 98 81 127 142 164 175 169 159 149 114 203 186 114 255 239 151 251 237 149 248 232 145 250 234 146 241 228 149 188 178 116 238 228 166 255 239 161 250 230 144 251 229 144 242 223 147 193 179 118 245 234 172 254 237 159 255 237 153 255 236 159 254 235 167 191 174 120 164 155 122 160 176 165 79 116 122 11 73 88 2 68 84 12 63 82 14 63 77 14 63 77 15 63 77 16 62 77 16 62 77 15 62 78 10 67 86 14 86 111 0 74 103 0 65 93 0 63 94 0 63 94 0 63 94 0 65 95 0 65 95 0 65 95 0 65 95 0 67 96 0 65 93 4 64 88 2 50 73 9 41 62 2 39 58 13 75 98 16 82 104 8 64 81 14 61 77 14 61 77 14 61 77 14 61 77 14 61 77 14 61 77 8 64 81 4 70 92 21 79 93 120 144 148 171 172 154 163 147 98 227 205 132 255 238 156 250 235 144 253 236 144 248 231 151 220 209 155 197 186 130 247 234 155 252 235 143 250 235 144 249 233 155 214 210 149 192 187 129 250 243 163 247 233 144 250 230 141 253 239 151 253 232 151 179 165 104 164 158 134 148 166 170 41 99 113 6 74 93 11 62 81 14 60 76 14 62 76 13 62 76 14 61 77 14 61 77 14 60 76 11 62 81 8 72 97 13 83 109 0 70 96 0 66 92 0 65 95 0 65 95 0 65 95 0 65 95 
0 65 95 0 65 95 0 65 95 0 65 95 5 66 95 8 57 87 5 41 63 3 40 59 0 57 77 22 84 107 13 70 87 11 62 79 13 62 77 14 62 76 13 62 76 13 62 76 13 60 76 13 62 79 9 66 85 15 68 84 64 102 115 150 170 168 165 160 131 167 153 108 183 168 113 185 166 110 187 166 113 186 163 121 173 163 128 167 157 122 178 166 128 178 160 122 183 161 122 179 161 125 171 162 129 174 164 129 177 164 120 178 159 116 184 167 123 181 163 117 192 168 120 176 154 113 159 146 127 163 172 171 98 141 158 20 76 101 18 69 86 14 61 77 14 61 79 14 61 77 14 62 76 14 62 74 13 62 76 9 62 76 7 66 82 16 81 101 9 74 102 0 65 93 1 66 96 1 66 96 1 66 96 1 66 96 1 66 96 0 65 95 0 64 92 3 64 93 1 64 95 4 64 92 11 53 77 5 40 62 0 41 63 12 60 82 23 84 105 4 67 84 10 63 79 14 63 78 14 63 77 15 63 77 16 62 78 16 61 80 13 60 80 8 63 83 12 72 96 81 127 142 162 173 169 163 151 125 175 153 103 191 169 111 185 165 115 179 163 112 179 166 114 171 160 114 174 166 129 172 166 130 177 162 121 186 161 120 186 162 118 183 161 120 178 165 131 176 163 129 176 161 120 180 163 119 180 161 121 181 162 122 175 153 112 165 156 125 161 174 167 80 114 123 14 73 91 3 68 90 10 64 88 15 64 81 14 63 77 15 63 77 16 62 77 16 62 77 15 62 78 10 67 86 14 86 111 0 74 103 0 65 93 0 63 94 0 63 94 0 63 94 0 65 95 0 65 95 0 65 95 0 65 95 1 68 97 0 65 93 4 64 88 4 52 74 9 41 62 2 39 58 12 74 97 16 82 104 10 63 81 14 61 77 14 61 77 14 61 77 14 61 77 14 61 77 14 61 77 10 63 81 4 70 92 21 78 97 120 143 149 171 172 158 170 149 118 182 155 112 192 167 126 186 163 121 181 163 115 177 162 119 172 163 132 173 164 131 178 168 117 180 167 114 180 167 115 178 167 122 173 168 136 171 168 137 173 164 123 180 165 122 182 163 120 184 162 115 182 160 103 159 147 99 166 159 140 149 167 169 45 98 114 8 74 96 12 63 82 16 62 77 15 63 77 14 63 77 14 61 77 14 61 77 14 60 76 11 62 81 8 72 97 13 83 109 0 70 96 0 66 92 0 65 95 0 65 95 0 65 95 0 65 95 
0 65 95 0 65 95 0 65 95 1 64 95 5 66 95 8 57 87 5 41 63 3 40 59 0 57 77 22 84 107 13 70 87 11 62 79 13 62 77 14 62 76 13 62 76 13 62 76 13 60 78 11 62 79 10 66 83 15 68 84 64 102 115 151 171 169 165 160 131 163 146 102 145 129 77 146 129 73 149 127 78 146 127 84 137 124 89 166 155 125 148 136 98 144 129 88 147 128 86 142 124 84 137 126 94 168 157 125 150 137 93 141 123 77 148 130 84 151 130 83 154 128 79 153 129 91 168 152 136 165 174 173 94 140 156 16 74 98 14 67 83 10 57 73 14 61 79 14 61 77 14 62 76 14 62 74 13 62 76 7 63 76 5 67 82 16 81 101 9 74 102 0 65 93 1 66 96 1 66 96 1 66 96 1 66 96 1 66 96 1 66 96 1 64 95 1 64 95 0 65 95 4 64 92 11 53 77 4 40 62 0 41 63 13 60 80 23 84 105 4 67 84 10 63 79 14 63 77 14 63 77 14 63 77 15 63 77 15 62 78 13 60 78 10 63 81 12 73 91 81 127 143 162 173 169 165 153 127 157 135 88 148 123 66 152 132 81 142 128 79 145 132 80 135 127 78 168 160 123 143 133 97 141 121 84 153 132 87 150 129 86 150 133 90 170 160 125 140 129 97 144 129 88 147 128 85 146 129 85 147 128 88 161 142 100 163 154 125 161 173 169 79 113 123 14 73 91 3 67 92 12 64 86 15 64 81 14 63 78 14 63 77 14 63 77 15 63 77 14 63 78 9 68 86 14 86 111 0 74 103 0 65 93 0 63 94 0 63 94 0 63 94 0 65 95 0 65 95 0 65 95 0 65 95 1 68 97 0 65 93 4 64 88 4 52 74 9 41 62 1 38 57 14 74 98 16 82 104 10 63 81 14 61 77 14 61 77 14 61 77 14 61 77 14 61 77 14 61 77 10 63 81 4 71 90 21 78 95 120 143 149 171 171 159 165 146 114 152 123 81 153 128 87 153 132 89 147 127 77 142 127 86 147 138 109 158 153 121 141 131 80 143 130 77 146 128 78 142 129 85 150 145 115 157 156 126 135 123 85 146 131 88 150 129 86 147 125 76 144 123 68 152 138 93 164 157 139 148 166 168 42 98 111 8 73 93 11 62 81 14 60 76 14 62 76 13 62 76 14 61 77 14 61 77 14 60 76 11 62 81 8 72 97 13 83 109 0 70 96 0 66 92 0 65 95 0 65 95 0 65 95 0 65 95 
0 65 95 0 65 95 0 65 95 1 64 95 3 64 93 7 56 86 7 42 64 5 42 61 0 55 76 20 82 105 12 68 85 9 60 77 14 63 78 15 63 77 15 64 78 14 63 77 13 60 76 13 62 79 10 66 83 16 67 84 64 102 115 153 173 172 161 157 128 183 168 113 254 237 159 250 233 141 252 232 143 248 230 146 248 232 170 190 180 118 229 217 145 251 236 155 251 231 144 252 233 154 244 233 169 191 181 119 233 217 140 249 233 148 250 233 145 248 232 144 253 233 147 215 198 129 162 148 119 165 174 171 96 140 151 17 76 94 15 66 83 9 58 73 14 63 80 14 63 78 14 63 77 14 64 75 14 63 77 10 63 77 6 68 83 17 82 102 9 74 102 0 64 92 0 65 95 0 65 95 0 65 95 0 65 95 0 65 95 0 65 95 0 65 95 0 66 98 0 66 98 3 64 92 8 54 77 4 42 61 0 41 59 13 60 80 24 82 104 6 67 86 11 64 78 13 62 76 14 63 77 12 64 77 14 63 77 14 63 77 13 60 76 11 62 81 13 74 93 81 127 142 164 173 170 164 153 123 209 192 123 254 237 149 249 232 144 249 234 141 251 236 145 238 226 142 187 176 114 240 226 165 254 235 158 251 231 142 250 234 146 235 222 143 185 177 115 240 232 170 248 235 156 248 232 144 249 232 144 253 234 158 199 178 125 162 153 122 161 174 167 79 113 122 14 73 91 2 68 90 10 65 86 15 64 81 15 63 77 14 62 76 14 62 76 14 62 76 13 62 77 7 66 84 13 83 109 0 73 102 0 65 93 0 63 94 0 63 94 0 63 94 0 65 95 0 65 95 0 65 95 0 65 95 0 67 96 1 66 94 5 65 89 2 50 72 7 39 60 4 41 60 10 70 94 16 82 104 10 63 81 13 62 77 13 62 77 13 62 77 13 62 77 13 62 77 13 62 77 10 63 81 4 70 92 21 78 95 120 143 149 173 171 156 168 145 101 229 205 135 255 233 153 253 233 144 248 235 141 245 234 154 222 213 158 194 185 130 251 235 157 249 232 140 251 231 142 252 236 159 215 208 153 189 183 131 248 234 159 248 231 143 252 232 143 253 231 148 255 230 153 183 162 105 165 157 136 148 166 168 42 98 111 8 73 93 13 61 81 14 60 76 14 62 76 13 62 76 13 62 77 14 61 77 14 61 77 10 63 81 6 74 97 12 84 109 0 72 97 0 66 92 0 65 95 0 65 95 0 65 95 0 65 95 
0 65 95 0 65 95 0 65 95 1 64 95 3 64 93 7 56 86 7 42 64 5 42 61 0 55 76 20 82 105 11 67 84 8 59 76 12 61 76 13 61 75 12 61 75 12 61 75 11 58 74 10 62 76 9 65 82 11 67 82 62 100 113 153 173 172 158 153 124 181 165 106 255 238 146 253 235 125 254 233 126 249 233 137 252 236 159 193 181 105 230 219 127 251 238 136 252 234 126 254 236 136 247 234 155 192 183 104 233 218 123 251 237 132 252 235 129 250 233 125 255 236 131 218 199 120 163 148 115 166 175 172 96 140 149 16 75 89 15 66 83 11 58 74 12 61 78 12 61 76 12 61 75 12 62 73 12 61 75 8 61 75 4 66 81 15 80 100 11 76 104 0 65 93 1 66 96 1 66 96 1 66 96 0 65 95 0 65 95 0 65 95 0 66 98 0 67 98 0 66 98 3 64 93 8 54 77 4 42 61 0 41 59 14 59 78 26 83 103 7 68 86 12 64 78 14 62 76 13 62 77 12 64 78 14 63 77 15 64 78 13 61 75 12 63 80 12 73 92 81 127 142 164 173 170 160 149 117 209 191 115 255 238 138 251 234 128 252 235 127 253 240 128 242 226 130 187 179 104 241 227 152 255 238 140 252 234 124 252 238 129 238 225 129 187 179 106 241 233 158 252 240 142 251 235 124 252 234 126 255 236 142 200 180 121 159 150 119 161 174 165 80 115 121 14 73 89 3 68 90 10 65 85 15 64 79 15 63 77 14 62 76 14 62 76 15 61 76 13 62 77 7 66 84 13 83 109 0 73 102 0 65 93 0 63 94 0 63 94 0 63 94 0 65 95 0 65 95 0 65 95 0 65 95 0 67 96 2 66 94 7 65 89 4 50 73 8 39 60 4 41 60 13 71 95 17 82 104 10 63 81 13 62 77 13 62 77 13 62 77 13 62 77 13 62 77 13 62 77 10 63 81 6 71 91 25 76 95 122 142 149 174 173 155 168 148 95 229 206 126 255 237 137 250 238 126 250 237 123 248 236 138 223 214 149 194 186 121 252 240 142 254 234 122 254 233 124 254 237 145 217 209 146 193 185 120 251 236 141 251 233 123 254 237 123 255 234 127 255 232 142 186 163 96 167 157 132 147 167 168 44 97 115 8 73 93 11 62 81 14 60 76 14 62 76 11 63 76 13 62 77 13 62 77 15 62 78 10 63 81 6 74 97 10 84 109 0 72 97 0 66 92 0 65 95 0 65 95 0 65 95 0 65 95 
0 65 95 0 65 95 0 65 95 1 64 95 3 64 93 7 56 86 7 42 64 5 42 61 0 56 76 20 82 105 12 68 85 9 60 79 15 64 79 15 64 78 15 65 76 15 64 78 15 62 78 15 64 81 12 68 85 17 70 86 65 103 116 156 176 174 161 158 127 184 169 110 255 238 146 253 235 125 255 234 127 251 232 137 251 235 160 193 181 105 230 219 127 251 238 136 252 234 126 254 236 136 247 234 155 192 183 104 233 218 123 251 237 132 253 236 130 250 233 125 255 236 131 218 199 120 163 148 115 165 174 171 96 140 149 16 75 91 15 66 83 11 60 75 15 64 81 15 64 79 15 65 76 15 65 74 13 65 76 9 65 78 8 70 85 18 83 105 10 74 102 0 63 94 0 65 95 1 64 95 0 65 95 0 65 95 0 65 95 0 65 95 0 66 98 0 66 98 0 66 98 3 64 93 8 54 77 4 42 61 0 41 59 14 59 78 26 83 103 9 68 86 12 64 78 14 62 76 13 62 77 11 63 76 13 62 76 14 63 77 13 61 75 11 62 79 12 73 92 82 128 143 164 173 170 163 150 118 210 191 115 255 238 138 251 234 128 253 236 128 253 240 128 241 227 130 188 179 104 241 227 154 255 238 140 252 234 124 252 240 130 238 225 129 187 179 106 241 233 158 252 240 142 251 235 124 252 234 126 255 237 145 199 179 118 160 151 118 161 174 165 78 115 121 15 74 90 2 69 88 12 64 85 15 64 79 15 63 77 15 63 77 14 62 76 14 62 74 13 62 77 7 66 84 13 82 111 0 73 102 0 66 92 0 64 94 0 65 95 0 65 95 0 65 95 0 65 95 0 65 95 0 65 95 0 66 95 2 66 94 7 65 87 4 50 73 8 39 60 4 41 60 9 71 94 17 82 104 10 63 81 13 62 77 13 62 77 13 62 77 13 62 77 13 62 77 13 62 77 10 63 81 6 71 91 24 77 93 123 143 150 173 172 152 169 149 98 229 206 126 255 237 137 251 238 126 250 237 123 249 237 139 223 214 149 195 186 121 252 240 142 254 234 122 254 233 124 254 238 143 217 209 144 193 185 120 251 236 141 253 232 123 254 237 123 255 234 129 255 231 144 186 162 98 168 158 133 149 167 171 45 98 114 9 74 94 13 61 81 16 59 76 14 62 76 13 62 76 11 63 76 13 62 77 14 61 77 10 63 81 7 73 97 10 84 109 0 71 96 0 66 92 0 65 95 0 65 95 0 65 95 0 65 95 
0 65 95 0 65 95 0 65 95 1 64 95 3 64 93 7 56 86 7 42 64 5 42 61 0 55 76 20 82 105 12 68 85 9 60 77 13 62 77 14 62 76 13 63 74 13 62 76 13 60 76 13 61 81 10 66 83 15 66 83 64 102 113 158 176 176 160 156 127 183 167 108 255 238 146 253 235 125 255 234 127 251 232 137 251 235 158 193 181 105 230 219 129 251 238 136 252 234 126 254 236 136 247 234 156 193 184 105 233 218 123 251 237 132 252 235 129 250 232 124 255 236 133 218 199 120 163 148 115 165 174 171 96 140 149 16 75 91 15 66 83 11 60 75 13 62 79 13 62 77 13 62 76 14 64 75 11 63 76 7 63 76 5 67 80 16 81 101 10 77 104 0 65 95 1 66 96 1 66 96 0 65 95 0 65 95 0 65 95 0 65 95 0 66 98 0 66 98 0 66 98 4 63 93 8 54 77 4 42 61 0 41 59 14 59 78 26 83 103 9 68 86 12 64 78 13 61 75 13 62 77 11 63 76 13 62 76 14 63 77 13 61 75 11 62 79 12 73 92 80 127 143 162 174 172 160 149 117 209 190 114 255 236 137 254 232 130 252 235 127 253 240 128 241 227 130 188 179 104 241 227 152 255 239 141 252 234 124 252 238 129 238 225 131 187 179 106 241 233 158 252 240 142 251 235 124 252 234 126 255 236 144 199 179 118 159 150 117 161 174 164 80 115 121 15 74 88 5 70 88 11 67 80 17 66 81 15 63 77 15 63 77 15 63 77 15 61 76 11 63 77 8 65 84 13 82 111 0 73 102 0 66 92 0 64 94 0 65 95 0 65 95 0 65 95 0 65 95 0 65 95 0 65 95 0 67 96 2 66 94 7 65 87 4 50 73 8 39 60 4 41 60 10 70 94 17 82 102 10 63 81 13 62 77 13 62 77 13 62 77 13 62 77 13 62 77 13 62 77 10 63 81 7 72 92 25 78 94 125 145 152 175 172 155 169 149 98 229 206 126 254 236 136 250 237 125 249 236 122 250 236 139 220 211 146 195 186 121 253 239 142 252 234 122 254 233 124 254 238 143 215 210 144 193 185 120 251 236 141 251 233 123 255 236 123 255 234 129 255 232 142 186 163 96 168 158 133 149 167 171 45 98 114 11 73 96 14 62 84 15 62 80 15 62 78 14 63 77 12 61 76 13 62 77 14 61 77 9 62 80 7 73 97 9 83 108 0 72 97 0 66 92 0 65 95 0 65 95 0 65 95 0 65 95 
0 65 95 0 65 95 0 65 95 1 64 95 3 64 93 7 56 86 7 42 64 5 42 61 0 57 77 22 84 107 13 70 87 11 62 79 13 62 77 14 62 76 13 62 76 13 62 76 13 60 76 13 62 79 9 66 85 17 66 83 65 101 115 157 176 174 162 155 127 188 167 110 254 237 147 253 235 125 254 233 124 250 231 136 250 234 157 192 178 103 231 218 126 250 237 135 250 232 124 252 234 132 245 234 154 191 183 102 232 217 122 249 235 128 251 234 128 249 231 123 254 235 132 218 199 120 163 148 117 165 174 171 97 141 150 16 75 91 15 66 83 11 60 75 11 60 77 12 61 76 12 61 75 12 62 73 10 62 75 6 59 73 3 66 83 15 80 100 10 75 103 0 63 94 0 65 95 0 65 95 0 65 95 0 65 95 0 65 95 0 65 95 0 67 98 0 66 98 0 66 98 3 64 93 8 54 77 4 42 61 2 40 59 14 59 78 26 83 103 9 68 86 12 64 78 14 62 76 10 62 76 8 61 75 12 61 75 13 62 76 11 59 73 9 60 77 11 72 91 79 126 142 163 175 173 162 149 117 209 190 114 254 234 135 249 232 126 251 234 126 250 237 125 238 225 129 188 179 104 241 227 152 255 238 140 252 234 124 252 238 129 238 225 129 187 179 106 242 233 158 249 237 139 249 233 122 249 231 123 253 234 142 198 178 115 159 148 116 160 173 163 78 111 118 14 73 87 2 69 88 9 65 80 15 64 79 14 62 76 13 62 76 13 61 75 13 61 75 10 62 76 5 64 82 10 82 107 1 66 96 0 65 93 0 64 94 0 65 95 0 65 95 0 65 95 0 65 95 0 65 95 0 65 95 0 67 96 2 66 94 7 65 87 4 50 73 10 41 62 3 40 59 11 71 95 15 80 100 10 61 82 12 61 76 12 61 76 12 61 76 12 61 76 12 61 76 12 61 76 9 62 80 8 73 93 24 80 95 125 145 152 176 175 157 169 149 98 229 206 126 254 236 136 249 236 124 249 236 122 249 237 139 219 210 145 195 186 121 252 240 142 254 234 122 254 233 124 254 238 143 218 210 145 191 186 120 251 236 141 251 233 125 254 237 123 255 234 129 255 232 142 186 162 98 168 158 131 149 167 171 45 98 114 8 73 95 14 62 84 16 61 80 15 62 78 14 63 77 12 61 76 12 61 76 13 60 76 9 62 80 7 73 97 10 84 109 0 72 97 0 66 92 0 65 95 0 65 95 0 65 95 0 65 95 
0 65 95 0 65 95 0 65 95 1 64 95 3 64 93 7 56 86 7 42 64 5 42 61 0 57 77 22 84 107 13 70 87 10 61 78 13 62 77 15 63 77 15 63 77 15 63 77 15 61 77 15 62 80 11 66 87 16 67 84 66 102 114 158 177 175 163 155 132 187 168 110 254 239 146 254 236 126 255 234 132 252 234 134 252 236 159 195 181 106 231 220 128 252 241 136 253 235 127 255 237 137 248 235 157 193 184 105 234 219 124 252 238 133 253 236 132 252 234 126 254 235 132 218 199 120 163 148 115 165 174 171 96 140 149 16 75 91 14 67 83 11 60 75 13 62 79 13 62 77 14 62 76 13 63 74 11 63 76 7 63 76 5 67 82 16 81 101 10 75 103 0 63 94 0 65 95 0 65 95 0 65 95 0 65 95 0 65 95 0 65 95 0 66 98 0 66 98 0 66 98 3 64 93 8 54 77 4 42 61 0 41 59 14 59 78 24 78 102 6 64 84 9 62 76 11 59 73 11 63 77 11 63 77 13 62 76 14 63 77 13 61 75 11 62 79 11 74 92 80 127 143 163 175 173 162 149 117 210 188 113 255 233 132 255 234 130 253 236 128 254 241 129 242 228 131 186 176 104 241 227 152 254 236 138 251 233 123 252 235 127 237 224 128 186 178 105 240 232 157 253 241 143 252 236 125 253 235 127 255 239 144 199 179 118 159 150 117 161 174 164 78 115 121 12 71 85 1 66 84 10 63 79 13 62 77 14 62 76 14 62 76 13 61 75 13 61 75 12 61 76 7 66 84 14 86 111 0 75 104 1 66 94 0 65 95 0 65 95 0 65 95 0 65 95 0 65 95 0 65 95 0 65 95 0 67 96 2 66 94 7 65 87 4 50 73 10 41 62 3 40 59 11 71 95 15 80 100 10 63 81 13 62 77 13 62 77 13 62 77 13 62 77 13 62 77 13 62 76 7 65 79 4 71 88 20 78 92 121 141 148 172 171 153 169 149 98 229 206 126 252 234 132 248 235 123 248 235 121 249 237 139 218 209 144 196 187 122 251 239 141 251 233 121 254 233 124 252 236 141 217 209 144 191 183 118 250 235 140 250 232 122 254 234 122 254 233 128 255 232 139 185 161 97 168 158 131 149 167 171 45 98 116 8 74 98 8 58 81 13 58 77 12 59 75 11 60 74 13 62 77 13 62 77 14 62 76 10 63 79 7 73 97 10 84 109 0 72 97 0 66 92 0 65 95 0 65 95 0 65 95 0 65 95 
0 65 95 0 65 95 0 65 95 1 64 95 3 64 93 7 56 86 7 42 64 5 42 61 0 57 77 22 84 107 14 71 88 11 62 79 12 61 76 13 61 75 12 61 75 13 61 75 12 58 74 13 60 80 9 65 82 14 67 85 66 103 119 160 178 178 164 157 131 187 168 112 255 238 146 253 235 123 254 236 128 252 232 137 251 235 158 193 181 105 230 219 127 252 237 136 252 234 126 255 237 137 247 234 155 192 183 104 234 218 123 251 237 132 253 236 130 250 232 124 255 235 133 219 200 121 164 150 115 169 175 173 97 142 148 17 76 92 16 67 84 12 61 75 10 59 76 11 60 75 11 60 74 10 60 71 9 61 74 6 59 73 3 65 80 14 79 99 10 75 103 0 63 94 0 65 95 0 65 95 0 65 95 0 65 95 0 65 95 0 65 95 0 66 98 0 66 98 0 66 98 4 63 93 8 54 77 4 42 61 0 41 59 16 59 78 27 84 104 9 68 86 14 63 78 14 62 76 11 60 75 8 61 75 10 59 73 12 61 75 10 58 72 8 59 76 9 70 91 78 125 141 165 177 175 163 150 118 211 189 114 255 233 134 254 233 128 252 235 127 253 240 128 241 227 130 187 175 101 239 225 150 253 235 137 250 232 122 249 235 126 236 224 126 185 177 104 239 231 156 252 239 143 251 235 124 252 234 126 255 236 144 201 181 120 161 152 119 160 176 165 79 116 122 13 72 86 2 67 85 9 65 80 14 63 78 13 61 75 13 61 75 11 59 73 11 59 73 12 59 75 6 65 83 12 82 108 0 74 103 1 66 96 0 65 95 0 65 95 0 65 95 0 65 95 0 65 95 0 65 95 0 65 95 0 67 96 2 66 94 7 65 87 4 50 73 10 41 62 3 40 59 11 71 95 14 81 100 8 61 79 11 60 75 11 60 75 11 60 75 11 60 75 11 60 75 11 60 75 5 63 77 5 72 89 21 79 93 120 143 149 171 172 154 172 152 99 229 206 126 254 236 136 249 236 124 249 236 122 252 240 142 219 210 145 196 187 122 251 235 139 250 232 120 252 231 122 251 235 140 212 207 141 188 183 117 249 234 139 249 231 121 251 233 121 253 232 127 255 230 140 183 159 97 170 159 137 153 168 175 45 101 118 9 77 100 8 58 81 13 58 77 11 58 74 11 60 74 11 60 75 11 60 77 11 58 74 8 61 79 8 72 97 10 84 109 0 72 97 1 67 93 1 66 96 0 65 95 0 65 95 0 65 95 
0 65 95 0 65 95 0 65 95 1 64 95 3 64 93 7 56 86 7 42 64 5 42 61 3 55 77 22 84 107 11 70 88 7 65 79 17 68 85 16 69 85 16 69 85 17 68 85 15 66 83 17 68 87 14 72 92 18 73 94 63 100 118 156 174 174 160 152 129 182 164 116 244 228 153 240 224 137 241 223 137 238 220 144 235 224 162 177 171 109 216 208 135 239 226 147 239 221 137 241 223 147 234 224 162 180 172 110 220 208 134 241 224 144 240 224 139 237 223 135 253 233 147 215 195 132 161 148 116 165 171 167 95 139 148 16 78 93 11 67 84 6 59 77 13 69 86 15 68 86 14 67 81 14 67 81 12 70 84 9 68 84 7 73 89 19 87 110 10 75 103 2 63 94 0 65 95 0 65 95 0 65 95 0 65 95 0 65 95 0 65 95 0 66 98 0 65 97 1 66 98 3 64 93 12 52 77 4 42 61 3 41 60 13 60 80 28 86 110 9 71 92 12 70 84 11 67 80 11 70 84 12 70 84 15 68 84 16 69 85 11 67 84 12 68 85 17 77 101 86 132 147 162 173 169 160 146 119 206 184 124 251 228 148 239 221 135 237 223 135 240 226 137 227 216 137 177 168 109 230 220 161 244 226 150 241 223 139 240 225 144 222 214 141 176 172 111 229 224 166 236 227 148 236 221 136 236 221 136 243 225 151 198 177 124 156 147 116 159 174 167 75 116 122 12 73 91 2 68 92 9 68 86 10 66 81 15 68 84 15 68 84 11 67 82 11 67 82 11 69 83 7 68 87 14 86 111 0 72 104 1 66 96 0 65 95 0 65 95 0 65 95 0 65 95 0 65 95 0 65 95 0 65 95 0 67 96 2 66 94 7 65 87 4 50 73 10 41 62 3 40 59 10 70 94 14 80 102 11 69 89 15 68 86 15 68 86 15 68 86 15 68 86 15 68 86 15 68 86 9 70 88 5 74 90 23 79 94 118 146 150 171 172 156 167 149 103 225 202 135 247 230 150 243 228 143 244 230 141 243 234 157 213 205 156 189 181 132 240 231 152 240 225 134 244 224 137 245 229 152 208 200 151 184 176 127 244 227 155 242 224 140 244 226 140 243 225 143 248 225 149 176 155 100 170 159 139 152 167 174 44 100 117 5 77 101 10 64 88 13 64 85 10 66 81 7 67 78 12 70 84 12 68 85 15 68 84 11 70 86 7 75 98 10 86 110 0 73 98 0 67 93 1 66 96 0 65 95 0 65 95 0 65 95 
0 65 95 0 65 95 0 65 95 1 64 95 3 64 93 7 56 86 7 42 64 5 42 61 1 55 79 19 81 106 16 83 102 19 82 99 21 87 103 21 86 104 21 86 106 21 86 106 23 86 104 20 87 103 17 83 105 21 82 103 63 104 122 153 171 175 168 161 142 171 153 117 180 166 129 182 168 129 185 167 127 180 166 129 175 170 140 174 170 143 171 166 134 172 161 129 186 169 139 175 161 132 174 168 142 168 162 136 181 172 141 172 160 122 179 167 127 181 168 126 186 171 128 171 159 121 164 152 130 165 172 165 94 139 145 15 76 95 18 82 107 17 81 106 21 83 106 21 83 104 21 83 104 21 83 104 17 84 103 18 84 106 15 90 109 11 89 111 7 79 104 0 65 95 1 66 96 1 66 96 1 66 96 1 66 96 1 66 96 1 66 96 1 66 98 0 65 97 0 66 98 4 63 93 11 53 75 5 42 61 3 41 60 12 60 80 18 88 113 9 83 108 21 86 106 18 81 99 20 85 103 20 85 103 21 83 104 22 84 107 24 86 107 20 82 107 19 81 106 86 129 145 162 166 165 168 153 130 169 154 115 185 168 122 184 167 124 179 166 124 183 171 131 177 166 134 167 161 135 177 169 148 173 159 130 178 161 133 182 168 142 172 166 142 162 162 138 167 167 139 172 168 130 174 167 125 174 166 129 177 165 127 167 151 117 165 158 132 159 175 174 71 113 127 17 83 107 6 82 106 17 83 109 21 83 104 22 87 105 22 87 105 20 87 104 20 87 104 17 83 99 17 84 103 10 86 110 0 73 105 2 67 97 0 65 95 0 65 95 0 65 95 0 65 95 0 65 95 0 65 95 0 65 95 0 67 96 2 66 94 7 65 87 4 50 73 9 40 61 5 42 61 9 69 93 14 82 105 20 86 108 21 86 106 21 86 106 21 86 106 21 86 106 21 86 106 21 86 106 20 86 108 13 86 105 22 80 94 116 141 146 169 171 158 165 148 118 180 158 117 187 169 133 183 169 134 181 166 133 177 165 139 171 169 148 170 170 146 174 169 131 176 168 121 178 167 122 176 166 131 174 163 145 170 159 141 179 163 138 185 166 134 184 169 138 180 162 126 189 168 123 162 142 105 168 158 146 152 167 174 44 100 117 3 78 101 21 86 104 23 86 101 16 90 99 13 90 98 16 87 105 19 85 107 21 86 104 21 88 105 13 88 111 13 91 114 0 72 97 0 66 92 1 66 96 0 65 95 0 65 95 0 64 94 
0 65 95 0 65 95 0 65 95 1 64 95 3 64 93 7 56 86 7 42 64 5 42 61 4 54 77 20 80 104 7 74 93 5 71 87 3 68 86 2 69 88 3 68 90 5 67 90 1 67 83 1 68 84 0 69 89 8 69 90 56 97 115 156 171 178 163 152 132 162 139 108 143 127 94 141 127 92 145 127 91 142 128 93 129 120 89 160 155 125 143 140 109 134 123 95 143 126 98 140 124 98 136 125 105 165 159 135 144 132 106 139 126 92 139 125 88 136 124 84 142 127 86 143 127 94 166 154 130 168 173 167 94 139 145 13 74 93 8 70 93 1 63 88 7 69 94 7 68 89 7 68 89 6 68 89 4 67 85 0 67 86 1 73 95 7 84 104 7 79 104 0 65 95 1 66 96 1 66 96 1 66 96 1 66 96 1 66 96 1 66 96 1 66 98 0 65 97 0 66 98 4 63 93 11 53 75 5 42 61 3 41 60 13 60 80 21 88 114 0 72 97 5 72 89 8 69 90 7 68 89 6 68 89 6 68 89 6 68 89 6 68 89 4 69 91 14 76 99 84 130 143 169 174 170 167 150 130 152 137 98 142 123 80 142 127 86 139 125 86 144 130 95 137 126 96 165 159 133 136 128 109 141 125 99 142 122 97 135 118 98 143 131 109 158 156 135 129 129 101 135 130 92 133 128 86 136 128 89 137 128 89 147 129 93 167 157 132 160 175 172 71 110 125 8 72 97 0 70 95 4 70 94 6 68 89 6 71 89 5 72 89 4 71 88 5 72 89 4 71 87 7 74 91 10 82 106 0 73 100 2 67 97 0 65 95 0 65 95 0 65 95 0 65 95 0 65 95 0 65 95 0 65 95 0 67 96 2 66 94 7 65 87 4 50 73 9 39 63 5 42 61 8 68 92 12 82 107 2 68 90 2 69 88 2 69 88 2 69 88 2 69 88 2 69 88 2 69 88 2 68 90 7 75 98 23 76 94 116 139 145 165 167 156 166 151 122 146 127 87 138 122 86 141 126 95 140 125 94 136 121 98 141 135 119 162 157 138 131 125 89 135 127 81 135 126 83 135 124 92 149 138 118 160 147 131 137 121 96 142 127 98 137 124 92 138 124 87 144 123 80 156 138 100 166 156 146 153 166 174 42 99 116 4 76 100 6 71 89 8 71 86 1 75 84 2 76 85 0 72 87 2 69 88 3 68 86 2 69 88 1 77 100 7 85 108 0 70 96 0 66 92 1 66 96 0 65 95 0 65 95 0 64 94 
0 65 95 0 65 95 0 65 95 1 64 95 3 64 93 7 56 86 7 42 64 5 40 60 2 55 73 25 84 102 8 67 81 1 61 72 5 63 75 11 62 79 9 62 78 8 61 79 8 61 79 6 65 81 6 68 89 15 70 90 64 99 118 160 174 175 166 151 130 176 152 108 219 198 131 219 200 123 222 199 123 221 199 126 218 203 138 186 175 109 206 188 124 218 199 130 225 203 130 218 198 129 211 199 141 186 175 121 217 198 139 222 201 136 217 198 122 218 197 118 226 200 125 193 171 111 168 152 118 164 174 165 97 142 148 15 77 92 12 68 83 6 58 72 9 60 77 11 60 77 12 61 78 9 60 77 8 59 76 4 60 77 1 64 79 16 83 102 7 77 102 0 65 93 1 66 96 0 67 96 1 66 96 1 66 96 1 66 96 1 66 96 0 65 97 0 65 97 0 66 98 4 63 93 11 53 77 5 42 61 3 41 60 14 59 78 26 84 104 1 63 84 7 60 74 11 62 79 7 63 78 8 61 77 9 60 77 9 62 76 9 63 73 9 66 77 13 76 94 87 131 144 165 172 165 162 147 116 192 172 109 224 203 124 218 199 122 217 198 121 220 202 128 216 198 134 179 167 119 209 195 146 218 198 129 222 200 124 225 203 130 210 192 128 179 172 117 210 201 142 212 203 126 212 204 121 214 203 121 216 199 127 187 166 113 168 157 127 157 170 163 79 113 122 12 73 91 1 68 87 6 65 83 9 62 78 9 67 81 9 65 82 6 65 79 7 65 79 4 62 76 2 64 79 13 81 102 1 73 97 1 66 94 0 65 95 0 65 95 0 65 97 0 65 95 0 65 95 0 65 95 0 65 95 0 67 96 2 66 94 7 65 87 4 50 73 9 40 61 5 42 61 9 69 93 16 81 101 6 63 80 9 62 78 9 62 78 9 62 78 9 62 78 9 62 78 9 62 78 6 63 82 2 67 89 22 72 95 117 140 148 168 164 152 165 148 105 204 180 118 219 203 128 219 203 126 219 199 126 220 200 137 201 188 144 181 171 122 212 200 128 216 201 118 216 201 120 212 200 128 198 186 138 188 177 131 217 202 135 215 198 120 223 208 127 218 202 124 221 202 126 175 158 102 169 161 142 153 168 175 47 100 118 7 77 102 5 62 82 7 60 78 2 64 79 2 64 75 5 64 80 6 64 78 7 63 76 6 63 80 6 73 99 9 83 108 0 69 95 0 66 92 0 65 95 0 65 95 0 65 95 0 65 95 
0 65 95 0 65 95 0 65 95 1 64 95 4 65 94 7 56 86 7 42 64 5 40 60 0 53 71 29 88 104 11 69 81 8 60 73 10 62 75 14 60 76 12 59 75 13 60 76 10 59 74 10 63 79 12 71 89 18 73 93 62 98 114 154 168 168 162 147 126 194 168 117 255 234 149 255 237 135 255 236 134 255 236 141 255 237 153 201 186 105 229 215 127 254 233 142 254 232 133 255 238 146 255 237 163 201 184 114 241 219 143 255 236 149 255 236 134 254 239 136 254 244 147 228 206 130 157 145 105 166 177 161 93 140 146 13 75 90 19 68 83 15 61 76 14 60 75 14 60 75 14 60 75 14 60 75 13 60 78 14 66 80 5 64 78 17 80 97 9 79 104 1 66 96 1 66 96 0 67 96 1 66 96 1 66 96 1 66 96 1 66 96 0 64 99 0 65 97 0 66 98 4 63 93 11 53 77 5 42 61 3 41 60 14 59 78 26 83 102 10 67 86 15 64 79 16 64 78 12 61 75 12 61 75 12 60 74 12 62 73 13 64 68 9 63 73 9 72 87 77 125 137 169 181 171 164 150 113 214 192 116 255 235 136 255 236 134 255 235 136 255 239 143 252 234 148 189 173 111 252 234 170 255 238 146 254 233 128 255 236 134 248 231 139 190 178 104 249 237 165 252 240 142 254 240 131 254 240 133 254 237 145 204 182 122 163 150 116 162 174 164 79 113 115 17 73 88 4 67 84 8 59 76 9 57 71 15 63 77 14 63 77 13 62 77 13 62 77 9 65 78 7 66 80 16 84 105 0 74 97 1 66 94 0 65 95 0 65 95 0 65 97 0 65 95 0 65 95 0 65 95 0 65 95 0 67 96 2 66 94 7 65 87 4 50 73 9 40 61 5 42 61 9 69 93 16 81 101 9 62 78 12 61 75 12 61 75 12 61 75 12 61 75 12 62 73 12 61 75 9 62 80 5 67 92 27 77 102 127 147 158 170 168 156 166 148 98 235 212 136 255 240 145 251 237 132 255 236 131 255 238 150 231 215 155 198 184 123 254 239 148 255 238 132 254 240 133 254 239 148 221 210 146 186 175 111 255 240 147 255 237 135 250 233 127 254 239 136 253 238 145 183 164 96 165 159 133 151 166 171 45 98 116 9 74 96 12 63 84 17 60 79 14 63 78 15 64 78 13 62 76 13 63 74 14 62 72 10 63 79 8 73 93 11 83 108 0 68 94 0 66 92 0 65 95 0 65 95 0 65 95 0 65 95 
0 65 95 0 65 95 0 65 95 1 64 95 3 64 93 7 56 86 7 42 64 5 42 61 1 56 76 22 83 104 13 70 87 8 64 77 14 63 78 14 61 77 14 61 79 14 61 77 11 63 77 3 63 74 4 66 81 14 72 86 62 102 114 152 171 167 162 155 127 186 164 107 252 233 139 255 235 123 255 234 125 255 233 132 251 233 149 193 181 99 234 217 127 255 238 140 252 231 122 254 232 131 252 236 159 195 177 105 232 214 128 255 234 140 253 235 127 254 233 124 255 236 133 219 200 121 157 150 106 160 176 165 88 141 145 12 78 94 17 65 88 10 57 77 14 61 79 14 61 77 14 62 76 14 62 76 14 61 77 11 63 77 6 65 79 18 81 99 11 78 104 1 66 96 0 67 96 0 67 96 1 66 96 1 66 96 1 66 96 1 66 96 0 65 97 0 65 97 0 66 98 4 63 93 11 53 77 5 42 61 3 41 60 14 59 78 24 80 103 7 66 84 12 64 78 15 63 77 13 62 77 13 62 77 14 61 77 14 62 76 14 63 77 8 64 77 8 74 90 75 128 136 159 176 168 161 153 117 210 191 114 254 239 138 253 232 125 252 234 126 254 236 134 240 223 133 191 177 114 244 226 160 253 234 132 255 236 123 255 237 125 241 226 125 186 177 100 241 229 153 251 239 137 247 236 121 247 236 121 251 239 141 201 180 117 162 150 112 165 175 164 83 114 117 20 72 86 8 67 83 15 62 78 18 61 78 14 62 76 13 62 76 14 63 78 13 62 79 12 63 80 5 66 84 11 86 107 0 74 99 1 66 94 0 65 95 0 65 95 0 65 95 0 65 95 0 65 95 0 65 95 0 65 95 0 67 96 2 66 94 7 65 87 4 50 73 10 41 62 3 40 59 11 71 95 15 80 100 9 62 80 13 60 76 13 60 76 13 60 76 13 60 76 13 60 76 13 60 76 9 61 82 3 67 92 20 77 96 120 142 153 172 170 157 166 148 98 230 206 132 253 235 137 252 236 125 253 231 120 254 233 140 229 211 149 193 179 118 252 236 141 249 233 120 251 233 121 253 237 141 220 207 137 193 179 114 254 235 143 255 230 127 254 232 130 254 235 133 255 235 140 184 166 94 165 158 130 150 165 168 45 97 111 8 73 93 14 61 81 20 58 77 15 61 76 15 62 72 14 62 72 14 62 72 15 63 73 8 64 77 5 71 93 10 84 109 0 72 97 0 64 92 0 65 95 0 65 95 0 65 95 0 65 95 
0 65 95 0 65 95 0 65 95 1 64 95 3 64 93 7 56 86 7 42 64 5 42 61 3 55 77 23 83 107 13 70 87 11 62 79 13 60 76 14 61 77 14 61 77 13 62 76 11 63 77 7 60 74 4 66 81 14 72 84 59 102 111 151 172 167 158 157 127 182 168 107 249 234 133 255 236 118 255 235 122 253 234 131 250 233 151 191 178 99 230 219 127 254 240 135 252 230 119 251 232 129 251 235 157 191 179 105 230 213 125 255 237 137 253 235 125 254 234 122 255 237 129 219 201 117 156 149 107 156 176 165 90 143 147 12 78 94 15 67 89 11 57 80 14 61 79 14 62 76 14 62 76 14 62 76 14 61 77 11 63 77 6 65 79 16 82 98 11 78 104 1 66 96 0 67 96 0 67 96 1 66 96 1 66 96 1 66 96 1 66 96 0 65 97 0 65 97 0 66 98 4 63 93 11 53 77 5 42 61 3 41 60 14 59 78 25 82 101 7 66 84 12 63 80 15 63 77 13 62 76 13 62 77 15 61 77 14 61 77 14 63 80 7 65 79 6 73 89 75 128 136 159 175 172 162 153 120 210 191 114 253 238 137 252 231 124 251 232 127 255 238 132 240 223 131 191 177 112 246 227 158 255 233 132 255 237 119 255 237 124 241 226 123 188 174 99 239 231 150 252 239 134 248 235 120 248 235 120 253 237 141 201 180 117 160 150 115 164 176 164 84 115 120 20 72 86 11 66 86 16 62 78 21 60 77 14 62 76 13 62 76 14 61 77 14 61 79 14 62 82 7 65 85 11 86 109 0 75 104 1 66 94 0 65 95 0 65 95 0 65 95 0 65 95 0 65 95 0 65 95 0 65 95 0 67 96 2 66 94 7 65 87 4 50 73 10 41 62 3 40 59 11 71 95 15 80 100 9 62 78 13 60 76 13 60 76 13 60 76 13 60 76 13 60 76 13 60 76 9 62 78 2 68 90 20 77 96 120 142 155 172 170 158 167 149 99 232 206 129 254 234 137 255 234 125 253 231 120 254 234 135 228 210 148 193 179 116 253 237 141 250 234 121 253 233 121 253 237 141 216 209 139 193 180 110 255 234 141 255 231 125 255 233 124 254 235 132 255 235 138 183 166 96 166 159 131 149 167 169 43 100 111 9 74 92 13 62 79 17 60 76 15 61 74 13 63 74 14 62 72 14 62 72 14 62 72 8 64 77 5 71 93 13 83 109 0 72 97 0 64 92 0 65 95 0 65 95 0 65 95 0 65 95 
0 65 95 0 65 95 0 65 95 1 64 95 3 64 93 7 56 86 7 42 64 5 42 61 4 54 79 24 82 106 16 69 87 14 61 79 14 60 76 15 61 76 14 62 76 13 62 76 15 61 77 8 59 76 6 65 81 17 70 86 63 103 111 151 171 169 157 156 126 182 168 107 250 235 134 255 236 118 255 235 122 253 234 132 249 233 156 192 180 106 233 217 129 253 237 139 249 233 122 252 234 132 249 238 159 191 179 105 230 215 124 255 236 137 252 235 127 251 233 123 255 238 130 221 200 117 157 148 109 161 174 167 93 142 149 13 76 94 15 67 88 10 58 78 14 61 77 14 62 74 14 62 74 14 62 76 13 62 77 14 63 78 7 65 77 16 82 98 12 79 105 1 66 96 0 67 96 0 67 96 1 66 96 1 66 96 1 66 96 1 66 96 0 65 97 0 65 97 0 66 98 4 63 93 11 53 77 5 42 61 3 41 60 14 59 78 22 83 101 5 67 82 12 64 77 14 64 75 13 63 74 13 62 76 13 62 76 13 62 76 14 63 77 7 65 77 11 74 91 77 126 141 162 173 177 162 150 126 211 191 118 253 240 138 251 232 129 251 234 130 255 237 135 238 225 133 193 175 111 242 230 158 252 234 136 255 235 130 255 236 131 244 224 129 188 175 97 243 227 149 253 238 135 251 235 122 250 234 123 252 236 141 201 181 122 157 151 119 163 176 169 82 115 122 19 72 90 8 66 88 16 61 82 18 61 78 14 62 74 14 62 74 14 60 76 15 60 79 15 62 82 11 63 85 16 83 109 0 74 101 1 66 96 0 65 95 0 65 95 0 65 95 0 65 95 0 65 95 0 65 95 0 65 95 0 67 96 2 66 94 7 65 87 4 50 73 10 41 62 3 40 59 11 71 95 15 80 100 9 62 78 13 61 75 13 61 75 13 61 75 13 61 75 13 61 75 13 61 75 9 62 78 4 69 91 20 77 96 120 142 153 172 170 157 170 147 97 236 204 129 255 232 139 255 234 129 254 231 125 255 235 140 229 211 147 193 179 114 252 236 141 250 234 123 250 232 124 252 237 142 215 208 140 190 181 112 255 235 140 255 231 121 254 234 121 254 236 128 254 236 138 181 167 96 165 160 131 149 168 166 43 99 112 8 75 92 11 62 79 14 62 76 11 64 72 11 64 72 13 63 74 14 62 74 15 61 74 11 62 79 7 72 94 13 83 109 3 68 96 0 64 92 0 65 95 0 65 95 0 65 95 0 65 95 
0 65 95 0 65 95 0 65 95 1 64 95 3 64 93 7 56 86 7 42 64 5 42 61 4 54 77 25 81 106 16 69 87 14 61 77 15 61 77 15 61 76 13 62 76 12 61 75 14 61 77 10 59 76 6 65 81 17 70 86 64 102 115 152 172 173 160 156 127 182 165 109 250 234 138 253 236 120 255 235 123 253 233 134 250 234 157 192 180 106 232 218 129 252 236 138 249 230 125 251 233 131 249 238 159 191 179 107 230 215 124 255 237 137 252 235 129 252 234 126 255 236 131 219 201 117 159 148 116 164 173 170 94 141 149 15 77 92 13 69 86 9 58 75 14 61 77 14 62 76 14 62 74 14 62 76 13 62 76 13 62 77 7 65 77 16 82 98 11 78 104 1 66 96 0 67 96 0 67 96 1 66 96 1 66 96 1 66 96 1 66 96 0 65 97 0 65 97 0 66 98 4 63 93 11 53 77 5 42 61 3 41 60 14 59 78 24 83 101 5 67 82 11 65 77 14 64 75 14 64 73 11 63 76 13 62 76 14 62 72 12 65 73 7 65 76 10 73 88 77 126 140 164 171 177 162 147 124 209 190 114 255 240 137 251 232 127 251 234 128 254 236 134 238 225 133 191 176 109 246 229 159 253 233 134 255 234 129 254 235 132 244 223 130 191 173 101 244 228 153 254 236 138 251 233 121 253 233 121 254 237 145 197 183 122 157 151 119 161 177 167 81 115 124 18 71 89 5 65 89 14 61 81 17 60 77 15 61 76 14 62 74 15 61 76 14 60 76 16 61 80 8 63 83 14 84 109 0 73 100 1 66 96 0 65 95 0 65 95 0 65 95 0 65 95 0 65 95 0 65 95 0 65 95 0 67 96 2 66 94 7 65 87 4 50 73 10 41 62 3 40 59 11 71 95 15 80 100 7 63 76 13 61 73 13 61 73 13 61 73 13 61 73 13 61 73 13 61 73 7 63 78 2 68 90 19 78 94 120 142 153 172 170 155 169 147 97 234 205 129 255 233 139 255 234 129 254 230 124 255 234 141 228 210 148 192 178 115 252 236 141 250 233 125 250 232 124 251 236 141 215 208 140 190 182 110 255 237 139 255 232 120 254 234 121 253 237 124 254 236 138 181 167 96 166 161 131 149 168 166 43 99 112 8 75 92 10 63 79 13 62 76 10 65 72 11 64 72 13 62 76 14 62 76 17 60 76 11 62 79 8 70 95 16 81 109 6 67 96 1 62 91 0 65 95 0 65 95 0 65 95 0 65 95 
0 65 95 0 65 95 0 65 95 1 64 95 5 66 95 8 57 87 5 41 63 3 40 59 2 52 77 23 81 103 15 68 86 9 62 76 13 62 77 13 62 77 13 62 77 11 63 77 13 62 77 8 61 77 6 65 81 17 70 86 64 101 117 155 173 173 164 157 129 189 170 111 253 234 142 254 236 126 254 236 126 255 235 136 249 232 154 195 182 104 230 220 125 253 238 135 253 232 123 255 237 137 246 233 155 190 181 106 235 218 128 254 236 136 253 235 127 253 235 125 255 237 129 219 200 121 159 148 120 166 174 177 95 142 152 16 78 93 16 69 85 9 58 75 14 61 77 14 61 77 14 62 76 14 62 76 12 61 78 11 63 77 5 64 80 15 82 99 10 76 102 0 65 95 1 66 96 1 66 96 1 66 96 1 66 96 1 66 96 1 66 96 0 65 95 0 65 95 1 66 96 4 64 92 11 53 77 5 41 63 4 40 62 14 59 80 21 82 103 4 67 84 14 63 78 15 63 77 14 63 77 14 63 78 12 64 78 12 64 77 13 65 76 9 66 75 11 75 85 79 128 133 164 172 174 157 146 116 208 191 109 255 241 132 245 227 117 254 236 126 255 237 129 243 226 134 194 176 112 243 224 158 254 239 138 251 230 115 255 233 124 245 224 133 197 177 114 247 229 163 252 234 136 254 237 123 253 235 125 253 233 138 195 179 119 159 153 121 160 176 166 81 115 124 14 71 88 4 64 90 12 60 80 14 60 76 14 61 77 13 62 76 14 62 76 14 61 77 14 61 77 11 68 87 15 82 108 1 75 100 1 66 96 0 65 95 0 65 95 0 65 95 0 65 95 0 65 95 0 65 95 0 65 95 0 67 96 2 66 94 7 65 87 4 50 73 10 41 62 3 40 59 11 71 95 15 80 100 10 63 79 14 62 76 14 62 76 14 62 76 14 62 76 14 62 76 14 62 76 10 63 79 3 69 91 21 78 97 121 146 153 170 173 156 163 145 95 227 206 127 250 235 134 250 237 123 254 234 121 251 231 134 225 209 149 198 184 123 254 238 143 248 235 121 251 233 123 254 238 142 223 209 136 197 185 111 255 237 139 255 233 122 255 235 123 255 243 133 254 239 138 184 166 92 164 159 129 148 166 168 40 98 110 7 74 91 9 62 78 13 61 75 12 62 71 13 62 76 14 62 76 14 62 76 15 61 76 11 62 79 6 70 95 16 81 109 4 68 96 1 62 91 0 65 95 0 65 95 0 65 95 0 65 95 
0 65 95 0 65 95 0 65 95 1 64 95 5 66 95 8 57 87 5 41 63 3 40 59 2 54 75 23 81 103 12 69 86 9 62 76 13 62 77 13 62 77 11 63 77 11 63 77 11 63 77 8 61 75 4 66 81 17 70 86 64 102 115 155 171 171 167 157 130 184 162 113 252 235 157 255 236 149 255 235 149 255 234 155 249 235 170 194 183 119 228 216 142 251 234 152 255 238 148 254 235 156 248 234 171 194 182 122 236 218 144 254 236 152 255 238 150 252 232 143 254 237 149 215 194 131 160 145 122 165 173 176 95 141 156 16 77 95 14 70 83 11 60 75 14 61 79 14 61 79 14 61 77 14 62 76 13 62 77 11 62 79 6 65 81 16 81 101 10 76 102 0 65 93 1 66 96 2 65 96 1 66 96 1 66 96 1 66 96 1 66 96 0 65 93 0 65 93 1 66 96 4 64 92 11 53 77 5 41 63 4 40 64 14 59 80 21 82 103 4 67 85 12 63 80 15 62 78 14 63 78 14 63 78 11 64 78 12 64 77 10 67 74 9 66 75 12 77 83 79 128 132 162 174 170 159 148 118 207 190 120 254 239 146 250 231 136 255 236 144 255 236 147 248 230 154 192 177 122 241 224 168 251 231 145 255 232 138 255 234 145 245 225 152 188 172 121 244 231 178 253 236 158 255 237 148 255 238 150 255 237 161 200 179 124 164 155 124 156 172 162 79 120 126 18 74 91 8 68 92 16 64 84 17 62 81 14 61 79 13 62 77 14 62 76 14 62 76 13 62 77 11 67 84 12 82 107 1 75 102 1 66 96 0 65 95 0 65 95 0 65 95 0 65 95 0 65 95 0 65 95 0 65 95 0 67 96 2 66 94 7 65 87 4 50 73 10 41 62 3 40 59 11 71 95 15 80 100 10 63 79 14 62 76 14 62 76 14 62 76 14 62 76 14 62 76 14 62 76 10 63 79 3 69 91 21 78 97 121 146 153 171 172 158 162 145 101 229 209 140 255 245 160 249 236 142 250 234 139 252 233 154 227 211 160 196 182 135 253 237 159 251 236 141 251 235 139 253 238 157 222 212 151 202 190 132 253 234 157 255 227 141 255 235 148 255 234 145 254 234 147 182 164 100 166 160 134 146 167 168 42 100 114 8 75 94 11 62 81 14 60 76 15 61 76 11 63 74 15 61 76 14 62 76 15 61 76 11 62 79 8 70 95 16 81 109 4 68 96 0 63 91 0 65 95 0 65 95 0 65 95 0 65 95 
0 65 95 0 65 95 0 65 95 1 64 95 5 66 95 9 58 88 5 41 63 3 40 59 2 55 73 23 81 103 12 70 84 9 62 76 13 62 77 13 62 77 11 63 77 11 63 77 11 63 76 7 60 74 4 66 81 15 71 84 64 104 112 154 170 167 169 159 132 173 151 110 196 178 132 196 178 132 198 177 132 198 176 135 196 183 149 176 168 132 187 179 132 196 184 132 201 180 135 195 176 134 187 177 142 174 166 129 184 173 128 191 177 128 198 181 135 198 178 128 210 183 136 189 163 126 164 149 130 164 173 170 95 141 156 17 78 96 15 71 84 12 61 75 15 62 80 15 62 80 15 62 78 15 63 77 12 64 78 12 63 80 7 66 82 16 82 104 11 76 104 1 66 98 0 67 96 0 67 96 1 66 96 1 66 96 1 66 96 1 66 96 0 65 93 0 66 92 1 66 96 4 64 92 11 53 75 5 41 63 4 40 64 14 59 82 21 82 103 4 67 85 12 63 80 15 63 77 14 63 78 14 63 78 14 63 78 12 64 77 12 67 72 10 67 76 11 75 87 79 128 135 163 176 169 162 150 126 184 161 119 209 184 130 199 177 127 196 179 125 196 178 128 192 179 134 178 167 135 192 179 147 197 175 134 204 181 137 198 177 134 192 174 136 167 156 124 189 181 145 195 182 138 195 181 132 195 181 136 198 181 138 182 161 118 164 155 122 159 170 162 81 115 124 18 74 89 10 68 90 16 64 84 18 63 82 14 61 79 13 62 77 14 62 76 14 62 76 13 62 77 11 67 84 14 81 108 1 75 102 1 66 96 0 65 95 0 65 95 0 65 95 0 65 95 0 65 95 0 65 95 0 65 95 0 67 96 2 66 94 7 65 89 4 50 73 10 41 62 3 40 59 11 71 95 15 80 100 10 63 79 14 62 76 14 62 76 14 62 76 14 62 76 14 62 76 14 62 76 10 63 79 4 70 94 22 78 95 121 146 153 172 172 162 167 151 118 188 164 120 203 182 137 195 177 131 200 182 136 199 181 141 186 176 149 176 169 140 189 179 130 193 181 123 193 180 127 189 178 132 184 177 148 182 170 144 199 177 138 202 178 134 204 182 133 199 182 130 200 179 124 167 154 109 164 162 141 149 169 170 44 100 115 9 75 97 12 63 82 16 62 78 15 63 77 14 63 77 15 61 76 14 62 76 15 61 76 11 62 79 8 70 95 16 81 109 4 68 96 0 63 91 0 65 95 0 65 95 0 65 95 0 65 95 
0 65 95 0 65 95 0 65 95 1 64 95 5 66 95 8 57 87 5 41 63 3 40 59 2 54 75 23 81 103 12 70 84 9 62 76 13 62 77 13 62 77 11 63 77 11 63 77 11 63 76 7 60 76 4 66 79 15 71 84 63 103 111 153 169 166 169 160 131 167 146 103 132 118 71 131 117 70 137 116 71 134 117 74 122 111 79 159 151 115 142 134 88 130 118 70 133 114 71 131 116 77 125 117 81 167 159 122 142 131 85 129 115 66 134 120 71 137 116 69 139 112 65 150 125 85 167 152 129 162 173 167 96 142 157 16 77 98 15 71 84 12 61 75 15 62 78 15 62 80 15 62 78 15 63 77 14 63 78 12 63 80 7 66 82 17 82 104 11 76 104 1 66 96 0 67 96 0 67 96 1 66 96 1 66 96 1 66 96 1 66 96 0 66 92 0 65 93 1 66 96 4 64 92 11 53 77 5 41 63 4 40 64 14 59 82 21 82 103 4 67 85 12 63 80 15 63 77 14 63 78 14 63 78 12 64 78 12 64 78 11 65 77 9 65 78 12 73 91 78 126 138 163 176 169 164 152 126 151 126 85 137 111 60 139 119 66 134 116 66 133 117 68 135 122 77 166 156 121 130 120 84 131 112 70 138 117 74 138 116 77 140 121 88 165 156 123 132 124 88 131 120 74 132 120 68 132 119 74 133 118 77 150 133 89 163 154 123 161 174 165 78 112 121 16 72 89 5 65 89 13 61 81 14 59 78 14 61 77 13 62 77 14 62 76 13 61 75 13 62 76 11 67 84 14 81 107 1 75 102 1 66 96 0 65 95 0 65 95 0 65 95 0 65 95 0 65 95 0 65 95 0 65 95 0 67 96 2 66 94 7 65 87 4 50 73 12 40 62 3 40 59 11 71 95 15 80 100 10 63 79 14 62 76 14 62 76 14 62 76 14 62 76 14 62 76 14 62 76 10 63 79 4 70 94 21 78 97 119 147 151 171 171 159 168 152 119 144 120 76 139 117 76 137 120 76 136 117 74 131 115 79 137 130 102 159 153 121 124 116 67 133 123 64 133 122 66 126 115 70 142 135 106 156 146 119 130 108 69 139 116 74 133 115 67 138 118 67 137 118 62 155 142 98 161 162 146 149 169 170 44 100 115 10 76 100 12 63 84 16 61 80 15 62 78 14 63 77 14 62 76 14 62 76 15 61 76 11 62 79 8 70 95 16 81 109 4 68 96 1 62 91 0 65 95 0 65 95 0 65 95 0 65 95 
0 65 95 0 65 95 0 65 95 1 64 95 3 64 93 7 56 86 7 42 64 5 42 61 4 55 76 24 82 104 13 71 85 11 63 77 13 62 77 13 62 77 11 63 77 11 63 77 11 63 76 7 60 74 4 66 79 15 71 84 63 103 111 154 170 167 166 156 129 182 162 109 234 216 140 234 218 130 234 217 125 234 217 137 235 224 162 178 170 108 215 206 131 238 226 142 237 217 131 236 219 141 229 221 158 176 168 105 216 203 124 235 220 135 235 219 134 235 217 131 242 220 134 208 188 117 159 146 111 166 173 166 95 143 153 17 79 94 17 70 88 12 61 78 14 61 79 15 60 79 14 61 77 14 62 76 13 62 77 11 62 79 6 65 79 16 81 99 10 75 103 0 65 93 0 67 96 1 66 96 1 66 96 1 66 96 1 66 96 1 66 96 0 65 93 0 65 93 1 66 96 4 64 92 11 53 77 5 41 63 4 40 64 14 59 82 21 82 103 4 67 85 12 63 80 15 63 77 13 62 77 13 62 77 11 63 77 11 62 79 10 63 81 10 67 86 12 74 95 77 125 137 163 176 169 156 145 113 199 180 111 238 218 131 236 219 129 235 218 130 236 225 136 227 211 134 178 168 107 228 214 153 241 222 143 243 223 137 238 219 142 225 212 144 178 167 113 225 217 155 234 221 142 230 219 127 232 219 127 237 221 146 196 179 123 161 152 121 162 175 166 79 113 122 17 73 90 5 65 89 13 61 81 15 60 79 14 61 77 13 62 77 14 62 76 14 62 76 12 61 76 11 67 84 14 84 109 1 72 100 1 66 96 0 65 95 0 65 95 0 65 95 0 65 95 0 65 95 0 65 95 0 65 95 0 67 96 2 66 94 7 65 87 4 50 73 12 40 62 3 40 59 11 71 95 15 80 100 10 63 79 14 62 76 14 62 76 14 62 76 14 62 76 14 62 76 14 62 76 10 63 79 4 69 91 21 78 95 122 145 151 171 172 156 165 151 104 221 200 135 237 221 144 232 217 134 236 220 132 239 223 146 207 198 143 180 173 118 230 222 141 228 219 124 231 218 126 230 222 141 204 198 140 183 172 116 242 223 146 241 220 131 241 221 132 239 222 132 242 222 135 170 154 92 162 160 135 147 168 171 41 101 112 9 75 99 10 62 83 15 60 79 14 61 77 13 62 76 15 61 76 14 62 76 15 61 76 11 62 79 8 70 95 15 82 109 4 68 96 1 62 91 0 65 95 0 65 95 0 65 95 0 65 95 
0 65 95 0 65 95 0 65 95 1 64 95 3 64 93 7 56 86 7 42 64 6 43 62 4 55 76 24 82 104 13 71 85 11 63 77 13 62 77 13 62 77 11 63 77 11 63 77 11 63 76 7 60 74 3 65 78 17 70 84 62 102 110 152 173 168 163 156 127 183 162 105 253 236 146 254 238 127 255 239 128 253 239 134 254 241 162 199 187 111 234 225 134 254 244 146 251 234 130 252 236 140 247 238 159 191 184 106 235 222 128 253 240 135 255 238 136 253 236 132 255 236 131 218 200 116 162 150 110 161 174 165 94 141 147 16 77 95 16 69 87 11 59 79 14 61 79 14 61 79 14 61 77 14 62 76 13 62 77 11 62 79 7 64 81 16 81 103 10 75 103 0 65 93 1 66 96 1 66 96 1 66 96 1 66 96 1 66 96 1 66 96 0 65 93 0 65 93 1 66 96 4 64 92 11 53 77 5 41 63 4 40 64 14 59 82 21 82 103 4 67 85 12 63 80 15 63 77 13 62 77 13 62 77 11 63 77 11 62 79 9 61 82 10 64 88 12 74 95 76 124 134 162 175 168 159 151 114 208 191 113 255 236 131 255 238 130 255 238 128 255 243 135 245 230 137 193 183 111 242 228 153 255 239 141 255 236 131 255 237 139 245 227 141 194 184 113 243 233 162 255 245 147 254 242 130 254 242 132 255 244 152 196 180 120 161 152 121 162 175 166 80 114 123 17 73 90 7 67 91 14 62 82 16 61 80 14 61 77 13 62 77 14 62 76 14 62 76 12 61 76 11 67 82 15 85 110 1 72 100 1 66 96 0 65 95 0 65 95 0 65 95 0 65 95 0 65 95 0 65 95 0 65 95 0 67 96 2 66 94 5 66 87 4 51 71 10 41 62 3 40 59 11 71 95 15 80 100 10 63 79 14 62 76 14 62 76 14 62 76 14 62 76 14 62 76 14 62 76 10 63 79 4 69 91 21 78 95 122 145 151 170 171 153 167 154 99 230 211 132 251 241 143 251 240 132 254 240 131 255 242 146 223 214 147 199 190 123 254 246 148 252 242 129 252 242 131 254 244 147 226 218 146 202 192 121 254 244 149 255 239 128 255 240 127 254 242 130 254 238 140 189 172 100 163 162 132 149 169 170 44 100 115 10 76 98 12 63 84 17 62 81 15 62 78 14 63 77 14 62 76 14 62 76 15 61 76 11 62 79 8 70 95 16 81 109 4 68 96 1 62 91 0 65 95 0 65 95 0 65 95 0 65 95 
0 65 95 0 65 95 0 65 95 1 64 95 3 64 93 7 56 86 7 42 64 5 42 61 4 55 76 24 82 104 13 71 85 11 63 77 13 62 77 13 62 77 11 63 77 11 63 77 11 63 76 7 60 74 4 66 79 15 71 84 63 103 111 154 173 169 164 158 126 184 163 106 252 232 145 253 235 133 254 235 133 252 236 140 247 237 152 192 181 99 228 219 124 250 238 138 250 233 129 252 236 140 244 236 155 190 184 106 230 219 127 250 236 137 251 237 132 251 234 128 253 244 141 221 203 121 163 151 113 162 173 165 95 142 148 17 76 92 16 69 85 10 59 76 14 61 77 14 61 79 14 61 77 14 62 76 13 62 77 10 63 79 6 65 81 16 81 101 10 75 103 0 65 93 1 66 96 1 66 96 1 66 96 1 66 96 1 66 96 1 66 96 0 65 93 0 65 93 1 66 96 4 64 92 11 53 77 5 41 63 4 40 64 14 59 82 22 83 104 4 67 85 12 63 80 15 63 77 13 62 77 13 62 77 11 63 77 11 62 79 10 63 81 11 68 87 12 74 95 77 126 133 162 175 168 160 150 115 212 195 115 255 243 135 250 233 125 247 233 126 250 236 129 238 223 128 188 178 107 236 224 150 252 233 130 254 233 124 251 233 125 240 223 131 192 180 108 237 227 156 252 240 142 249 235 126 249 235 128 252 236 148 198 179 121 161 152 121 160 176 166 78 115 123 18 74 91 7 67 91 14 62 82 16 61 80 14 61 77 13 62 77 14 61 77 14 62 76 12 61 76 11 67 84 15 85 110 1 72 100 1 66 96 0 65 95 0 65 95 0 65 95 0 65 95 0 65 95 0 65 95 0 65 95 0 67 96 2 66 94 7 65 87 4 50 73 10 41 62 3 40 59 11 71 95 15 80 100 10 63 79 14 62 76 14 62 76 14 62 76 14 62 76 14 62 76 14 62 76 10 63 79 5 69 94 21 78 97 123 146 152 171 172 154 163 148 91 225 207 121 251 239 137 251 241 128 250 234 123 252 236 141 219 209 140 195 184 118 252 239 143 248 236 124 249 235 126 252 239 143 218 210 138 194 184 115 255 238 140 253 233 120 253 233 118 251 235 122 253 233 134 183 166 96 165 159 133 146 165 169 41 99 111 7 73 97 9 61 82 14 59 78 14 61 77 12 61 75 14 62 76 14 62 76 15 61 76 11 62 79 8 70 95 16 81 109 4 68 96 1 62 91 0 65 95 0 65 95 0 65 95 0 65 95 
0 65 95 0 65 95 0 65 95 1 64 95 3 64 93 6 57 86 7 42 64 5 42 61 3 55 76 24 82 102 13 71 85 11 63 77 11 63 77 13 62 77 13 62 77 13 62 77 11 63 76 7 60 74 3 66 81 14 72 86 63 103 113 152 172 171 164 157 128 183 164 106 250 233 143 255 234 129 255 233 131 253 233 136 252 237 156 193 182 100 231 218 124 252 239 137 250 231 128 252 234 136 246 234 150 193 182 102 228 219 126 249 236 134 251 234 130 251 232 127 255 236 133 218 199 120 163 149 114 165 172 165 97 142 148 16 78 93 16 69 83 11 60 75 13 62 77 14 61 77 14 62 76 14 62 76 13 62 77 10 63 79 4 65 83 16 81 101 10 75 103 0 65 93 1 66 96 1 66 96 1 66 96 1 66 96 1 66 96 1 66 96 0 65 93 0 65 95 1 66 96 4 64 92 11 53 77 5 41 63 3 41 62 14 59 82 22 83 104 4 66 87 9 65 80 15 63 77 14 62 76 13 62 77 13 62 79 11 63 77 12 63 80 11 67 82 13 76 94 77 125 137 163 175 171 159 150 117 207 190 112 255 234 129 252 234 124 250 234 121 251 239 129 239 226 130 191 181 109 240 225 156 254 236 138 255 237 127 255 235 130 246 227 133 197 182 113 245 231 160 254 238 142 249 235 126 249 235 128 252 239 147 196 180 120 159 153 121 160 175 168 78 115 123 16 75 93 5 67 90 12 63 80 16 62 78 14 61 77 14 62 76 14 62 76 13 62 76 12 61 75 11 67 84 16 87 109 1 72 100 1 66 96 0 65 95 0 65 95 0 65 95 0 65 95 0 65 95 0 65 95 0 65 95 1 66 96 2 66 94 5 65 89 2 50 73 9 41 62 4 39 59 11 71 95 15 80 98 10 63 81 14 61 77 14 61 77 14 61 77 14 61 77 14 61 77 14 61 77 10 63 81 5 69 94 22 77 97 121 146 153 171 172 156 166 154 96 227 209 123 252 240 132 250 237 123 254 234 122 253 237 141 220 210 141 194 187 119 251 236 141 250 234 123 250 234 123 251 239 141 218 210 138 194 186 114 254 239 136 253 233 118 255 238 120 253 235 125 254 234 137 186 167 98 169 162 136 150 169 173 43 102 116 7 78 98 13 64 85 17 62 81 17 63 79 16 63 79 15 61 76 14 62 76 15 61 76 11 62 79 6 70 95 13 83 109 3 68 96 1 62 91 0 65 95 0 65 95 0 65 95 0 65 95 
1 66 96 1 66 96 1 66 96 0 65 95 5 66 95 8 59 88 5 41 63 3 40 59 3 53 78 23 81 103 12 70 84 9 62 76 14 62 76 15 61 76 15 61 76 14 62 76 13 62 76 3 62 76 3 66 84 13 71 91 63 101 122 152 171 175 160 160 126 183 165 103 252 234 136 255 234 123 255 232 128 255 232 138 253 234 157 197 179 105 233 216 124 255 237 137 254 231 129 253 233 138 248 233 152 193 182 102 226 220 122 249 236 132 254 233 128 255 230 127 255 235 133 220 199 116 164 148 114 168 170 167 100 140 150 19 74 94 19 68 82 12 60 72 11 63 76 13 62 76 14 62 74 14 62 74 13 62 76 10 63 79 3 66 84 15 81 105 10 75 103 0 63 94 0 65 95 0 65 95 0 64 94 0 65 95 0 65 95 0 65 95 0 65 95 0 65 97 0 66 98 4 64 92 11 53 77 5 42 61 3 41 60 14 59 80 22 82 106 2 67 87 9 65 80 14 63 77 13 61 75 14 62 76 11 63 76 11 63 76 10 62 76 10 65 85 13 75 96 76 125 140 165 177 177 162 149 117 211 192 115 255 236 133 254 233 124 250 235 120 250 238 126 235 227 129 184 177 109 237 227 158 255 234 141 255 231 125 254 236 126 243 224 129 194 177 107 247 230 160 254 236 138 255 233 122 251 235 122 252 239 143 196 180 118 158 154 119 159 176 170 77 115 128 12 74 97 3 68 90 12 64 77 16 63 71 15 61 74 15 61 74 12 62 73 13 63 74 13 63 74 10 66 81 14 87 106 0 73 98 1 66 96 0 65 95 0 65 95 0 65 95 0 65 95 0 65 95 0 65 95 0 65 95 1 66 96 2 66 94 5 65 89 2 50 73 9 41 62 2 39 58 14 70 95 15 80 100 8 63 83 13 62 79 13 62 79 13 62 79 13 62 79 13 62 79 13 62 79 8 63 83 5 70 92 24 76 97 124 143 157 171 172 158 164 151 98 222 208 120 253 234 131 254 232 123 255 231 121 254 231 137 221 210 144 193 182 116 255 237 143 254 233 124 254 234 122 252 238 139 216 208 135 192 184 111 251 239 137 249 234 115 255 236 124 255 232 128 255 232 138 187 164 94 170 160 135 148 169 170 42 102 113 8 76 95 12 63 82 18 61 80 19 60 80 18 61 80 14 61 79 13 62 77 14 61 77 10 63 79 5 71 93 14 84 109 3 69 95 0 63 90 0 65 95 0 65 95 0 65 95 0 65 95 
1 66 96 1 66 96 1 66 96 0 65 95 5 66 95 8 59 88 4 40 62 2 39 58 2 54 76 23 81 103 15 68 84 12 61 76 15 61 76 17 60 76 17 60 76 15 61 76 14 61 77 8 61 77 4 64 88 14 71 90 63 101 120 152 173 174 162 159 128 181 166 99 252 234 134 255 235 124 255 232 128 255 232 139 252 233 157 197 179 103 233 216 126 255 237 139 253 230 128 255 232 138 248 232 154 193 181 99 229 219 124 246 237 132 254 232 130 255 230 127 255 236 131 217 199 115 164 148 114 168 170 167 101 139 150 21 74 92 19 68 82 11 61 72 11 63 76 11 63 76 14 62 74 14 62 74 13 62 77 10 63 81 3 66 84 15 81 105 11 75 103 0 63 96 0 65 95 0 65 95 0 65 95 0 65 95 1 66 96 0 65 95 0 65 97 0 65 97 0 66 98 4 63 93 11 53 77 5 42 61 3 41 60 14 59 78 22 82 106 2 67 87 9 65 78 14 63 77 13 61 75 14 62 74 11 64 72 11 64 72 13 62 76 11 67 82 14 75 96 77 123 139 166 176 177 162 149 117 211 192 115 255 236 134 254 233 124 251 233 121 251 240 125 234 229 129 184 177 107 237 226 160 255 234 143 255 231 125 255 235 126 242 222 127 195 176 107 249 229 160 253 234 139 254 232 121 251 235 122 250 240 142 193 182 116 159 155 120 157 177 166 78 115 124 15 73 95 5 67 90 14 64 75 16 63 71 15 61 74 17 61 74 13 63 74 13 63 74 14 62 76 10 66 81 11 86 107 2 74 99 1 66 96 0 65 95 0 65 95 0 65 95 0 65 95 0 65 95 0 65 95 0 65 95 2 65 96 4 65 94 7 65 87 2 50 73 7 42 62 2 39 58 11 71 95 14 80 104 8 63 83 13 62 79 13 62 79 13 62 79 13 62 79 13 62 79 13 62 79 8 63 83 5 69 94 22 77 97 123 143 154 171 172 158 163 151 99 225 207 125 253 234 132 255 231 121 254 231 119 253 230 134 224 209 144 193 182 118 255 236 142 255 232 126 254 234 122 253 237 139 220 207 137 193 183 114 251 239 139 249 234 119 255 234 125 255 230 130 254 231 137 188 164 94 168 158 133 147 168 173 43 99 112 5 79 92 7 63 76 17 60 76 20 58 77 17 60 79 13 62 79 10 63 77 13 62 77 10 63 79 5 71 93 14 84 109 3 69 95 0 63 90 0 65 95 0 65 95 0 65 95 0 65 95 
1 66 96 1 66 96 0 67 94 0 64 94 3 67 95 8 59 88 4 40 62 1 38 57 2 54 75 24 83 101 15 68 84 13 60 76 18 59 77 17 60 77 18 61 78 14 60 75 13 62 79 8 61 79 5 63 83 18 69 88 66 103 112 155 174 168 164 160 125 182 167 102 252 233 139 255 234 127 255 231 131 253 232 141 251 234 156 196 180 103 233 218 127 253 237 141 250 230 131 252 233 139 246 233 155 193 181 105 227 220 129 249 237 137 252 233 130 251 232 127 255 238 134 213 202 120 163 148 115 166 171 167 102 140 151 19 75 92 16 70 82 8 60 71 10 64 74 11 63 76 11 63 76 13 62 76 13 62 77 11 64 82 3 66 83 15 82 101 11 76 104 0 63 94 0 65 95 0 65 95 0 65 95 0 65 95 0 65 95 1 66 96 0 65 97 0 65 97 0 66 98 4 63 93 11 53 77 5 42 61 3 41 60 14 59 78 23 81 103 4 67 85 8 66 80 14 63 78 14 61 77 13 62 76 11 64 72 10 65 72 14 64 75 15 69 81 19 75 92 80 124 135 170 176 174 163 150 116 210 194 116 255 236 134 254 233 128 251 233 123 251 238 124 239 227 127 186 176 107 240 225 158 255 234 141 254 230 124 255 234 129 245 222 129 196 175 108 251 228 160 254 234 139 255 234 125 254 233 128 253 238 145 196 181 116 159 153 117 160 176 165 80 115 121 19 72 90 6 67 88 14 63 80 17 63 78 15 62 72 14 62 74 14 62 76 15 61 77 13 60 78 11 66 86 11 86 109 0 76 100 0 67 94 0 65 95 0 65 95 0 65 95 0 65 95 0 65 95 0 65 95 1 64 95 3 66 97 5 64 96 7 65 87 2 50 73 7 42 62 0 40 58 11 72 93 14 80 104 7 64 83 13 62 79 13 62 79 13 62 79 13 61 81 13 62 79 13 62 79 9 65 82 5 70 88 22 78 91 124 145 150 172 171 151 164 151 98 228 205 127 255 232 138 255 231 125 255 233 121 252 232 133 224 208 146 196 182 121 255 236 147 254 233 126 251 234 126 252 238 141 220 206 145 196 182 121 251 236 141 250 232 122 255 234 125 254 231 125 255 230 137 188 163 96 165 159 135 147 168 171 41 99 111 7 77 89 7 65 76 14 62 72 15 61 74 14 62 76 11 63 77 8 64 77 8 64 77 7 64 81 5 71 95 13 83 109 3 68 96 0 63 91 0 65 95 0 65 95 0 65 95 0 65 95 
1 66 96 2 67 97 1 66 94 0 65 97 3 67 95 8 59 88 4 40 62 2 39 58 2 54 78 22 82 108 11 70 88 6 63 82 8 63 83 11 62 83 8 64 81 8 63 83 6 64 84 2 62 86 3 65 88 15 70 90 66 103 109 155 175 166 164 159 129 181 165 113 251 232 155 253 232 143 255 230 148 253 231 155 250 232 166 193 179 114 231 215 137 252 235 157 247 229 145 249 232 152 246 231 166 191 181 112 228 216 140 246 234 150 249 231 145 248 230 144 250 235 150 209 200 133 158 149 120 162 173 169 98 141 150 20 77 94 10 72 87 1 63 78 4 66 81 4 66 81 6 65 81 6 65 81 7 64 83 4 65 84 0 67 84 14 82 105 10 75 105 0 63 94 0 65 95 0 65 95 0 65 95 0 65 95 0 65 95 0 65 95 0 65 97 0 65 97 0 66 98 4 63 93 11 53 77 5 42 61 3 41 60 13 60 80 20 82 105 1 68 87 5 66 84 7 66 80 7 64 83 7 64 81 4 66 79 4 66 79 8 66 80 11 70 84 17 76 92 81 125 134 167 178 174 160 151 122 209 191 127 254 233 150 252 230 144 248 231 141 251 236 143 237 225 143 184 174 113 238 226 166 255 234 158 253 229 141 254 233 142 242 221 142 194 173 116 249 227 169 255 234 155 254 230 140 252 232 145 252 236 159 194 181 128 158 153 123 162 175 166 80 115 121 16 73 90 5 67 90 9 64 85 9 64 84 7 64 81 6 65 79 7 64 81 7 64 83 7 64 83 5 67 90 9 87 110 0 76 100 0 67 94 0 65 95 0 65 95 0 65 95 0 65 95 0 65 95 0 65 95 1 64 95 4 65 96 5 64 94 7 65 87 1 49 72 5 42 61 0 40 58 10 72 93 13 81 104 4 65 84 8 63 83 7 64 83 7 64 83 7 64 83 7 64 83 7 64 83 3 66 84 3 69 91 24 77 91 124 145 148 171 172 154 163 150 105 223 206 137 252 231 152 251 230 141 251 230 137 249 231 147 224 207 151 196 179 127 253 234 158 251 231 144 247 234 142 252 236 159 220 204 152 195 179 128 251 235 158 247 230 140 253 232 143 252 230 144 255 230 150 185 163 106 165 159 137 147 168 171 41 99 111 6 78 92 6 66 77 6 66 77 7 65 79 7 66 82 3 66 81 4 65 83 4 65 83 3 65 86 5 72 98 13 82 111 2 69 98 0 63 94 0 65 95 0 65 95 0 65 95 0 65 95 
1 66 96 1 66 96 1 66 96 0 65 95 1 65 93 7 58 87 5 43 62 5 41 63 3 54 83 16 80 108 15 80 108 11 85 112 9 83 110 9 83 108 11 83 107 11 83 107 8 84 108 11 87 111 10 84 111 14 74 98 55 95 105 153 173 172 169 168 150 164 146 110 172 155 103 177 152 96 178 153 99 175 153 103 170 155 112 169 156 112 171 157 108 171 157 108 174 156 108 174 156 110 172 158 113 171 159 111 173 162 108 173 160 107 180 159 106 180 160 109 176 160 111 163 151 113 160 153 134 158 170 168 92 137 143 17 80 97 17 84 110 13 87 114 10 82 106 10 82 106 10 82 106 10 82 106 13 83 109 10 84 109 5 85 108 11 87 111 10 79 108 0 65 95 2 67 97 1 66 96 0 65 95 0 65 95 0 65 95 0 65 95 0 65 97 0 65 97 0 66 98 4 63 93 8 53 76 7 42 62 5 43 64 12 60 80 19 86 112 5 85 110 11 83 107 10 82 106 11 83 108 9 83 108 9 84 103 8 85 103 13 87 112 14 85 107 12 79 95 74 122 132 157 176 172 162 157 138 164 150 113 174 158 109 174 157 101 173 158 103 171 158 106 170 157 112 167 158 117 166 157 114 171 155 106 174 157 101 175 154 97 170 158 100 171 156 113 171 156 115 175 157 109 178 158 105 176 160 101 175 159 110 166 149 119 165 157 144 156 169 175 78 114 128 17 82 104 14 88 113 14 83 112 8 77 106 11 86 109 10 85 108 10 86 109 8 86 108 11 86 107 8 85 105 4 84 107 0 74 99 0 67 94 0 65 95 0 65 95 0 65 95 0 65 95 0 65 95 0 65 95 1 64 95 2 65 96 4 65 94 7 65 87 2 50 73 5 42 61 2 39 58 14 74 98 16 86 112 14 85 113 14 86 111 14 86 111 14 86 111 13 83 109 8 80 105 14 86 111 13 83 109 13 85 109 28 81 99 120 144 146 170 172 161 164 155 126 169 155 116 172 156 104 175 156 100 175 156 100 174 156 106 171 157 112 173 156 112 175 155 104 175 156 100 170 157 102 169 158 104 167 155 113 167 155 113 169 157 105 170 157 104 171 153 105 174 153 106 174 154 103 168 154 115 169 163 149 152 171 175 39 95 110 7 78 100 15 83 104 13 84 106 8 84 110 4 81 109 8 86 108 7 85 108 9 85 109 10 84 109 8 84 110 11 87 113 1 70 99 1 66 96 0 65 95 0 65 95 0 65 95 0 65 95 
1 66 96 1 66 96 1 66 96 0 64 94 3 64 93 7 58 87 5 43 64 5 41 63 4 51 81 23 84 113 13 80 109 8 83 112 10 87 117 9 86 114 11 87 113 9 85 109 7 85 108 10 88 111 11 85 110 15 77 98 61 106 112 156 177 178 164 164 154 171 159 143 171 160 132 173 160 128 173 158 129 174 160 133 169 162 136 165 164 136 167 163 134 169 162 134 169 162 136 169 161 138 169 162 134 168 163 133 169 164 132 170 164 132 171 162 133 173 163 136 174 164 139 167 159 140 163 163 153 159 175 174 100 141 147 15 78 93 16 88 113 11 85 114 10 84 111 9 85 109 9 85 111 9 85 111 11 85 112 11 85 112 10 86 110 13 89 112 10 77 106 0 63 94 0 63 94 2 67 97 0 64 94 0 65 95 0 65 95 0 65 95 0 65 97 0 64 96 0 65 97 4 63 93 7 52 75 4 39 59 4 42 61 16 63 83 18 84 110 12 88 114 10 86 110 11 87 113 9 84 116 9 85 111 9 85 109 9 85 109 11 85 114 16 88 113 13 79 93 84 133 137 156 176 174 161 162 154 164 157 139 174 160 134 168 161 132 168 161 132 169 158 138 167 159 138 163 161 138 162 160 135 166 159 131 169 159 132 171 162 129 168 162 130 169 162 133 169 162 134 172 162 135 172 162 135 170 164 132 170 163 134 173 161 147 164 163 159 153 172 178 75 114 129 10 75 95 9 85 109 9 84 115 7 82 111 9 85 111 9 86 112 8 85 111 8 86 109 6 84 106 10 88 108 11 89 111 0 73 98 1 66 94 0 65 95 0 65 95 0 65 95 0 65 95 0 65 95 0 65 95 0 65 95 1 66 96 2 66 94 5 65 89 0 50 73 10 42 63 3 40 59 12 68 93 17 87 112 10 84 109 8 85 111 8 83 112 9 84 113 9 85 111 9 85 111 11 87 113 8 82 107 19 86 112 19 70 87 122 143 148 168 173 169 164 162 147 167 163 138 169 162 134 169 162 134 169 162 134 169 164 134 172 163 132 172 161 131 172 161 131 171 160 132 169 162 134 168 162 136 164 163 135 164 163 135 166 162 135 169 162 136 169 162 136 169 162 136 171 160 132 167 163 138 165 167 154 146 165 169 43 94 111 7 74 101 13 80 106 8 82 107 5 84 114 9 88 119 8 85 113 8 85 111 9 85 111 9 85 111 8 84 108 9 83 108 0 69 95 1 66 96 0 65 95 0 65 95 0 65 95 0 65 95 
2 65 96 1 66 96 1 66 96 0 65 95 1 65 93 7 58 87 5 43 64 8 40 61 7 52 75 28 75 101 22 79 106 21 82 111 16 81 111 17 82 110 17 81 108 17 81 106 18 84 106 19 85 107 17 82 104 16 72 89 63 104 108 145 172 167 158 167 162 162 161 156 161 163 150 161 163 149 162 162 150 161 163 150 154 166 152 154 166 154 153 164 150 153 164 150 152 164 152 155 163 152 154 161 153 155 161 149 153 164 150 153 164 148 156 164 149 157 165 150 159 165 153 156 161 154 154 165 159 152 173 174 99 140 144 21 77 90 17 78 99 16 82 108 14 80 104 16 81 103 15 80 108 15 81 107 16 80 107 18 80 103 15 80 100 19 84 106 3 69 95 0 64 94 0 63 94 2 67 97 0 65 95 0 65 95 0 65 95 0 65 95 0 65 97 0 65 97 0 66 98 4 63 93 6 51 74 4 41 60 3 41 60 12 57 76 24 78 102 19 79 103 18 80 103 16 80 107 18 82 110 18 82 110 18 83 105 17 83 105 25 88 106 21 80 98 22 74 85 85 124 129 151 171 170 156 165 160 161 161 153 163 163 151 160 163 154 158 164 154 161 161 159 161 161 159 155 164 159 156 163 155 159 162 151 158 161 150 158 165 149 158 165 149 160 162 151 160 163 152 157 165 152 156 164 151 156 162 148 159 162 151 165 164 160 155 161 161 146 166 173 77 113 127 21 78 95 17 83 105 17 81 109 11 75 103 17 83 107 17 83 107 17 81 108 17 81 108 18 82 107 18 84 108 17 83 107 7 73 99 0 65 93 0 65 95 0 65 95 0 65 95 0 65 95 0 65 95 0 65 95 1 66 96 1 68 95 0 67 94 2 67 87 0 50 73 8 40 61 8 40 61 12 66 92 21 82 110 17 81 106 17 81 106 17 81 106 17 81 106 17 81 106 19 83 108 17 81 106 21 86 106 16 81 99 23 77 89 115 144 140 160 173 164 158 163 156 157 162 156 157 164 156 157 164 156 154 166 154 155 168 151 159 166 150 161 165 151 159 162 151 158 164 154 154 166 156 154 165 157 151 164 157 153 162 157 158 163 157 157 164 156 158 164 154 158 164 152 156 164 149 157 165 152 163 170 162 146 170 170 48 95 113 15 75 103 22 82 110 13 75 100 12 73 104 18 79 110 18 79 107 18 80 103 16 80 107 16 80 108 15 81 105 14 80 104 2 69 95 0 63 91 0 65 95 0 65 95 0 65 95 0 65 95 
0 66 95 1 66 96 2 67 97 1 66 96 1 65 93 6 57 84 5 43 62 8 41 60 5 43 64 4 46 68 4 52 74 2 49 77 0 49 79 0 51 80 0 50 75 0 50 73 1 50 67 6 59 77 12 67 87 17 65 79 28 69 71 54 84 82 61 77 76 65 77 77 63 78 75 60 79 75 63 78 75 62 78 75 60 80 78 56 81 77 56 81 77 58 78 76 58 78 77 57 77 76 57 77 75 55 75 73 57 77 75 57 77 75 56 79 73 57 78 71 58 77 73 58 79 74 60 80 79 59 83 87 39 76 82 25 72 82 21 77 90 16 69 87 0 51 72 2 50 73 0 50 73 0 50 73 0 48 71 0 50 69 1 50 67 1 53 75 0 62 87 4 69 99 0 65 95 0 63 94 0 65 95 0 65 95 0 65 95 0 65 95 0 65 97 0 65 97 0 66 95 4 64 92 7 52 75 9 44 66 5 42 61 6 44 65 2 49 69 0 50 69 0 51 72 0 50 73 0 50 75 0 50 75 0 51 72 0 50 69 10 59 76 22 70 84 34 74 82 41 74 79 53 77 77 63 77 77 67 77 78 67 76 75 61 75 75 59 77 77 64 75 79 64 75 79 61 76 81 58 76 78 60 76 75 62 77 74 62 78 75 62 79 73 62 78 75 61 77 74 61 77 76 58 77 75 60 76 73 61 75 75 63 75 75 54 68 69 56 79 87 37 69 80 24 70 86 19 70 87 11 61 84 0 50 75 0 51 72 0 51 72 0 50 73 0 50 73 0 52 74 1 49 71 0 60 88 1 65 92 0 65 93 0 65 95 0 65 95 0 65 95 0 65 95 0 65 95 0 65 95 1 66 96 1 68 95 0 67 94 4 66 87 0 50 73 4 41 60 10 42 63 4 49 72 1 47 71 0 50 73 0 51 72 0 51 72 0 50 73 0 51 72 0 47 67 0 48 70 14 67 85 17 73 86 21 69 73 51 80 76 62 81 75 59 78 74 61 77 76 58 78 77 58 78 77 55 80 74 60 79 75 62 79 73 63 78 73 59 78 74 59 78 74 58 78 77 58 78 79 56 77 78 58 76 80 61 76 81 61 77 77 62 78 75 60 81 74 61 80 74 63 80 74 56 71 66 54 75 80 29 71 87 19 67 89 25 73 93 7 55 77 0 46 72 1 50 80 3 49 75 2 49 75 0 51 78 2 53 80 1 49 71 0 62 87 2 66 93 0 65 93 0 65 95 0 65 95 0 65 95 0 65 95 
1 65 93 0 66 92 0 66 93 1 66 96 0 64 91 7 64 84 2 43 61 11 42 60 8 39 57 6 37 57 11 39 61 6 38 61 2 37 65 3 39 63 3 40 59 6 39 58 5 42 61 11 50 67 29 69 79 30 67 75 31 64 69 33 64 66 37 62 67 36 61 65 35 63 64 37 63 64 37 63 64 37 63 64 34 62 63 37 63 64 34 62 63 34 62 63 35 63 64 35 63 64 35 63 64 35 63 64 35 63 64 35 63 64 35 63 64 35 63 64 35 63 64 35 63 64 34 64 66 33 64 67 32 65 70 30 65 71 30 69 76 21 57 73 2 39 58 2 38 60 3 40 59 3 38 57 6 44 63 0 41 59 0 46 62 0 58 76 3 65 90 0 65 95 0 65 95 0 65 95 0 65 95 0 65 95 0 65 95 0 65 95 0 66 98 0 65 95 1 65 93 4 64 90 7 51 76 7 41 68 4 39 61 4 41 60 2 44 60 2 44 60 6 41 60 5 40 59 4 42 61 0 42 58 2 39 58 2 37 56 17 53 67 33 68 74 37 70 77 32 63 68 32 60 64 35 59 63 35 59 61 34 58 60 34 58 62 36 57 60 36 57 62 35 59 61 34 60 61 35 59 63 35 59 61 37 61 65 37 62 66 36 61 65 36 61 65 36 61 65 36 61 65 36 61 65 36 61 65 36 61 66 39 61 59 39 60 63 37 60 66 33 60 69 36 65 79 35 66 84 15 50 70 5 43 62 0 41 59 0 41 59 4 41 59 3 41 60 0 41 58 0 50 71 0 60 86 0 65 93 0 65 93 0 65 95 0 65 95 0 65 95 0 65 95 0 65 95 0 65 95 1 66 96 0 65 93 1 62 90 7 67 93 0 46 69 4 40 62 10 41 62 8 39 60 9 42 61 9 41 62 6 41 61 9 42 61 9 42 61 8 43 62 5 41 57 5 42 58 24 60 72 32 66 75 33 67 69 37 65 66 39 66 61 34 58 58 34 58 58 35 61 60 35 61 60 36 60 60 36 62 63 39 60 63 39 60 63 35 59 59 35 59 63 35 59 63 35 59 63 34 58 62 34 57 63 35 59 61 35 59 59 39 60 63 39 60 61 39 61 58 40 62 60 40 61 62 40 61 66 37 64 73 34 66 77 33 67 79 8 41 60 4 39 61 6 42 64 5 37 60 3 38 60 0 39 65 0 42 69 0 51 78 2 62 90 3 66 97 2 67 99 0 65 95 0 65 95 0 65 95 0 65 95 
3 64 92 1 65 93 1 66 96 1 66 96 2 66 93 6 62 85 0 45 64 3 45 61 6 44 63 9 41 62 10 42 63 8 43 65 4 41 68 6 43 69 12 43 64 13 41 62 11 38 59 19 46 65 35 63 74 37 66 72 33 62 66 34 62 66 32 61 69 32 61 69 37 65 68 37 65 68 37 65 68 37 65 68 36 64 67 36 64 67 36 64 67 36 64 67 37 65 68 37 65 68 39 64 68 37 65 68 37 65 68 37 65 68 37 65 68 39 64 69 39 64 69 36 65 69 36 65 69 35 66 69 39 64 68 39 64 69 38 66 70 31 61 72 6 41 61 4 45 67 5 43 62 7 42 62 4 42 61 4 47 66 6 56 79 8 66 90 1 65 93 0 65 95 0 65 95 0 65 95 0 65 95 0 65 95 0 65 95 0 65 95 0 65 97 0 65 95 1 65 93 6 63 92 5 50 79 3 47 74 3 45 69 2 45 64 3 46 63 6 44 63 6 44 63 7 42 62 1 42 60 5 42 60 10 41 61 11 40 58 28 57 65 38 66 70 38 66 70 37 62 67 39 64 69 39 64 69 41 64 70 39 62 68 39 62 68 37 62 66 36 64 65 39 65 66 39 64 68 39 64 68 39 64 68 41 64 70 43 63 70 38 66 70 38 66 70 38 66 70 37 64 71 38 66 70 38 66 70 38 66 69 37 65 66 39 65 66 42 63 68 44 63 69 44 62 72 38 62 74 18 52 64 9 46 65 2 43 63 2 43 63 5 43 62 3 44 62 5 50 71 7 59 81 3 64 92 2 67 95 0 65 93 0 65 95 0 65 95 0 65 95 0 65 95 0 65 95 0 65 95 1 66 96 1 65 93 3 63 91 9 63 91 0 50 77 0 45 68 6 44 65 7 42 62 11 43 64 6 44 63 7 45 64 10 45 64 11 44 63 7 38 56 10 39 55 15 41 58 31 55 65 42 65 73 41 65 69 42 66 70 41 65 69 38 63 67 36 64 67 38 63 67 38 63 67 38 63 67 39 64 69 39 64 69 39 64 69 39 62 68 39 62 68 38 61 69 39 62 68 37 63 64 37 62 66 38 63 67 38 63 67 40 64 68 39 64 68 42 63 68 42 63 68 43 63 64 43 62 68 42 66 68 42 66 76 37 65 76 12 44 59 2 39 58 10 46 70 6 44 65 6 42 66 2 44 69 0 46 72 4 59 89 4 65 94 0 64 99 0 63 96 0 65 95 0 65 95 0 65 95 0 65 95 
1 65 92 0 65 93 0 66 100 0 66 98 0 65 95 3 64 93 2 60 84 7 64 84 5 61 84 7 58 85 9 60 87 9 58 88 8 61 93 12 58 91 10 52 77 7 39 64 12 39 60 12 38 53 16 43 52 12 40 44 19 43 47 19 43 47 19 43 47 19 42 50 19 43 47 19 43 45 20 44 46 19 43 45 20 41 44 20 41 44 20 41 44 20 41 44 19 43 43 19 43 43 19 43 43 19 43 43 19 43 43 19 43 43 21 42 43 21 42 45 20 41 46 22 41 47 22 41 47 22 41 47 21 40 47 21 40 47 19 39 46 17 46 60 12 60 83 4 61 88 5 61 86 7 61 85 10 64 92 7 62 92 4 65 93 3 67 95 0 65 95 0 65 95 0 65 95 0 65 95 0 65 95 0 65 95 0 65 95 0 65 95 0 63 94 1 64 95 1 64 95 1 65 93 5 65 93 6 63 92 3 60 87 3 60 89 4 60 85 4 60 85 7 58 85 8 60 82 9 61 82 7 54 74 9 44 64 10 39 57 21 46 53 26 47 52 21 46 50 22 43 48 23 42 46 23 42 46 23 42 46 23 43 44 22 42 43 22 42 43 22 42 43 23 43 44 24 42 44 24 42 44 24 42 44 25 43 45 25 44 50 25 44 50 25 44 50 25 44 50 25 44 50 25 44 50 25 44 50 25 44 48 23 43 42 24 42 46 26 41 48 24 41 48 22 40 42 15 43 46 9 56 64 7 60 78 4 61 88 5 62 89 5 61 86 6 63 83 6 62 87 4 64 90 2 66 94 2 67 97 0 65 95 0 65 95 0 65 95 0 65 95 0 65 95 0 65 95 0 65 95 0 65 95 2 65 96 3 64 93 3 64 92 0 60 86 3 60 87 5 61 86 4 58 82 6 63 83 3 63 89 1 62 83 6 63 82 12 60 80 11 49 68 9 40 58 12 39 56 19 41 54 23 44 47 24 42 46 24 42 46 24 42 46 23 41 45 23 41 45 23 41 45 23 41 45 23 41 45 24 41 48 24 41 48 24 42 46 23 40 47 23 40 47 23 40 47 24 41 48 22 39 46 22 40 44 23 41 45 23 41 45 24 42 46 24 42 46 24 42 46 24 42 46 25 40 47 24 39 46 23 40 47 21 44 50 10 43 52 14 57 73 7 58 85 0 61 89 4 62 86 4 61 88 3 60 89 2 62 90 2 66 94 2 67 97 0 65 97 0 63 96 0 65 95 0 65 95 0 65 95 0 65 95 
0 65 93 0 66 93 0 66 98 0 64 99 1 66 98 0 63 94 0 62 90 0 63 90 2 66 94 0 63 91 3 67 95 1 64 95 4 64 98 11 65 99 12 57 88 6 43 69 12 39 60 14 35 52 19 42 50 13 36 42 18 39 44 18 39 44 19 38 45 18 38 45 19 40 45 19 40 45 19 40 45 19 40 45 19 38 44 19 38 44 19 38 44 19 38 44 20 39 45 20 39 45 20 39 45 20 39 45 20 39 45 20 39 45 20 39 45 20 39 46 21 39 43 21 38 45 23 38 45 21 38 46 20 34 45 19 36 46 14 33 47 15 48 63 8 66 90 0 69 95 3 68 96 2 67 95 4 65 96 4 65 96 1 66 96 1 66 94 0 65 95 0 65 95 0 65 95 0 65 95 0 65 95 0 65 95 0 65 95 0 65 95 1 64 95 1 64 95 1 64 95 1 64 95 1 64 95 1 66 96 2 67 97 2 65 96 4 65 94 2 66 94 2 66 93 3 65 88 4 66 89 2 50 73 5 42 61 11 38 55 15 42 49 20 39 45 16 35 41 18 37 43 20 39 45 18 37 43 19 38 44 20 39 45 17 36 40 18 36 40 18 36 40 20 38 42 20 38 42 20 38 42 20 38 42 22 40 44 21 38 45 20 39 45 20 39 45 20 39 45 20 39 45 20 39 45 20 39 45 21 38 45 23 38 45 23 38 45 21 38 45 21 38 45 24 42 44 11 41 43 11 60 74 5 67 88 3 67 95 2 67 99 3 67 94 2 68 94 0 66 92 0 66 92 0 63 91 0 62 90 0 65 95 0 65 95 0 65 95 0 65 95 0 65 95 0 65 95 0 65 95 0 65 95 3 66 97 1 65 93 0 63 91 2 66 94 3 67 95 3 67 95 1 65 92 2 68 94 0 70 96 0 69 95 2 68 94 10 64 88 5 48 67 6 39 58 14 41 60 15 39 51 18 38 45 20 38 42 20 38 42 20 37 44 20 37 44 20 37 44 20 37 44 20 37 44 20 37 44 21 38 45 21 38 45 21 38 45 20 37 45 20 37 45 20 37 45 20 37 45 19 36 43 19 36 43 20 37 44 20 37 44 21 38 45 21 38 45 21 38 45 21 38 45 17 34 42 17 34 42 20 37 44 15 40 47 11 45 55 12 61 78 0 59 89 1 67 99 0 67 96 0 65 97 1 66 96 1 66 96 0 64 92 0 65 93 1 67 99 0 68 99 0 65 95 0 65 95 0 65 95 0 65 95 
1 66 96 1 66 96 1 64 97 0 65 97 1 66 98 0 66 98 1 66 96 1 66 98 1 66 96 1 66 96 0 65 93 0 65 93 0 65 95 8 65 95 10 55 84 9 41 64 13 39 62 16 37 56 15 39 51 16 41 48 19 39 46 19 39 46 20 38 48 20 38 48 18 38 47 19 39 48 19 39 48 19 39 48 19 37 47 19 37 47 19 37 47 19 37 47 18 36 46 18 36 46 18 36 46 18 36 46 18 36 46 18 36 46 19 36 46 19 36 46 18 38 45 20 37 45 22 36 47 21 35 48 21 35 48 19 36 54 17 40 58 7 45 64 3 63 87 0 67 93 0 67 93 1 66 94 0 65 95 0 63 94 0 65 93 0 65 95 0 65 95 0 65 95 0 65 95 0 65 95 0 65 95 0 65 95 0 65 95 0 65 95 0 65 95 1 64 95 1 64 97 1 64 97 1 64 97 1 64 97 1 64 97 1 64 97 0 65 97 0 65 95 0 66 93 0 66 92 4 67 85 4 55 74 8 41 60 14 40 53 17 39 50 20 38 48 19 39 48 19 39 48 19 39 48 19 39 48 19 39 48 19 39 48 18 38 45 18 38 45 16 39 45 18 38 45 18 38 45 18 38 45 18 38 45 18 38 45 19 39 48 19 39 48 19 39 48 19 39 48 19 39 48 19 39 48 19 39 48 19 39 48 19 39 48 19 39 50 19 38 52 20 40 51 18 38 45 10 39 47 4 55 74 2 63 91 3 64 95 1 64 95 0 65 93 1 67 91 1 67 91 1 67 91 0 66 90 1 65 92 0 65 95 0 65 95 0 65 95 0 65 95 0 65 95 0 65 95 0 65 95 0 65 95 0 65 95 0 65 95 0 65 95 0 65 95 0 65 95 0 65 95 1 64 95 0 65 97 0 66 98 0 66 98 0 65 95 6 63 90 5 48 67 9 42 61 11 40 58 13 41 53 19 39 48 20 39 45 20 39 45 19 39 46 19 39 48 19 39 46 19 39 46 17 40 46 19 39 46 19 39 46 19 39 46 19 39 48 19 37 47 19 37 47 19 37 49 19 37 47 18 36 46 17 37 44 19 39 46 17 40 46 19 39 46 19 39 46 19 39 46 19 39 50 14 34 43 20 43 51 20 43 51 12 39 48 4 43 58 11 57 80 6 65 97 0 60 97 1 64 99 1 64 97 1 64 97 0 65 97 0 66 98 0 66 100 0 67 94 1 66 96 0 65 95 0 65 95 0 65 95 0 65 95 
0 65 95 0 65 95 0 65 95 1 64 97 0 66 98 0 66 98 0 66 98 1 66 96 0 65 95 0 65 93 0 65 93 0 65 93 1 66 96 8 68 96 10 56 82 7 41 66 12 38 63 16 38 61 14 40 53 16 40 52 15 39 49 16 40 50 16 40 52 16 40 52 16 40 52 16 39 53 16 39 53 16 39 53 19 38 53 20 37 53 19 38 53 19 38 53 18 37 52 18 37 52 18 37 52 18 37 52 18 37 52 18 37 52 18 37 52 18 37 51 15 37 48 18 38 49 20 36 51 20 35 54 22 39 59 11 38 59 11 42 63 8 55 75 3 65 86 0 68 91 0 67 93 0 68 91 3 66 97 0 65 95 0 65 93 0 65 93 0 65 95 0 65 95 0 65 95 0 65 95 0 65 95 0 65 95 0 65 95 0 65 95 0 65 95 1 64 95 3 63 97 1 64 97 0 65 97 0 65 97 1 64 97 0 64 94 1 66 96 0 65 93 0 65 93 0 66 92 5 67 88 4 55 74 8 41 60 16 39 53 14 40 53 14 40 53 13 39 54 14 40 53 14 40 53 14 40 53 14 40 53 16 40 52 15 39 51 15 39 51 15 39 51 15 39 51 15 39 51 15 39 51 15 39 51 16 40 52 16 40 52 14 40 53 14 40 55 14 40 53 14 40 53 14 40 53 14 40 53 14 40 53 13 41 53 16 38 59 13 40 59 13 40 59 11 39 53 9 44 64 7 58 85 5 66 95 0 65 95 1 64 95 0 65 95 0 65 93 0 65 93 2 66 91 0 66 90 1 65 92 0 65 95 0 65 95 0 65 95 0 65 95 0 65 95 0 65 95 0 65 95 0 65 95 0 65 95 0 65 95 0 65 95 0 65 95 0 65 97 0 65 97 0 65 97 0 65 97 0 67 96 1 66 98 0 66 98 4 64 92 4 46 70 9 42 61 12 40 61 14 40 57 14 41 52 16 40 50 16 40 50 16 40 50 16 40 50 16 40 52 16 40 52 16 40 52 16 40 52 16 40 52 16 40 52 16 40 52 16 40 52 16 39 53 16 39 53 16 40 52 15 39 51 15 39 51 17 41 53 16 40 52 16 40 52 16 40 52 16 40 52 17 41 53 12 39 50 13 40 51 12 40 51 5 37 48 8 50 66 8 58 83 2 65 96 0 63 98 1 64 99 1 64 97 1 64 97 1 64 97 0 65 97 1 66 98 1 66 96 1 66 96 0 65 95 0 65 95 0 65 95 0 65 95 
1 64 97 0 65 95 0 65 95 1 66 96 0 65 95 1 66 96 1 64 95 2 65 96 3 64 95 1 64 95 0 65 93 0 65 93 0 65 95 7 67 95 11 57 80 7 41 66 13 40 67 12 38 63 13 40 61 13 40 57 13 40 57 12 41 55 12 41 57 13 40 59 14 39 59 16 38 61 16 38 61 16 38 61 16 38 61 14 39 61 16 38 61 16 38 61 12 37 59 12 37 59 12 37 59 12 37 59 12 37 59 12 37 59 12 37 59 12 37 57 10 39 53 11 40 54 12 38 55 15 35 59 16 40 68 12 44 69 9 53 78 8 62 86 3 65 88 0 65 91 0 66 93 0 65 93 0 65 95 0 65 97 0 66 92 0 66 92 0 65 95 0 65 95 0 65 95 0 65 95 0 65 95 0 65 95 0 65 95 0 65 95 1 66 98 1 64 97 2 63 94 1 64 95 0 67 94 0 67 93 0 65 93 0 65 93 0 68 91 0 65 93 1 66 96 1 64 95 5 65 93 4 54 77 8 40 61 13 40 59 11 40 58 12 40 61 12 40 61 12 40 61 13 40 61 13 40 61 14 41 62 13 40 59 11 38 57 11 38 57 11 38 57 11 38 57 13 38 58 13 38 58 13 38 58 13 38 58 14 39 59 13 40 61 13 40 61 13 40 61 13 40 61 13 40 61 13 40 61 12 40 61 12 40 61 10 41 62 9 41 64 7 41 66 4 46 70 11 61 84 4 65 93 0 67 96 1 66 96 1 66 96 1 64 95 0 65 97 0 65 97 0 65 95 1 65 93 1 65 93 0 65 95 0 65 95 0 65 95 0 65 95 0 65 95 0 65 95 0 65 95 0 65 95 0 63 96 1 64 97 1 64 97 0 65 97 0 65 95 1 66 96 1 66 96 1 66 96 1 66 96 1 66 94 0 66 98 3 64 92 5 48 67 9 42 61 10 41 61 12 40 61 13 40 59 13 40 57 13 40 57 13 40 57 13 40 57 13 40 59 13 40 59 13 40 59 13 40 61 13 40 59 13 40 59 13 40 59 13 40 59 13 40 61 13 40 61 13 40 59 11 38 57 11 38 57 13 40 59 13 40 59 13 40 59 13 40 59 13 40 59 13 40 57 13 40 57 10 39 57 8 41 58 4 48 61 7 59 80 1 63 84 0 67 90 0 65 93 0 65 95 1 64 95 1 64 95 1 64 95 1 64 95 0 65 95 0 65 97 0 65 97 0 65 95 0 65 95 0 65 95 0 65 95 
1 64 97 0 65 95 0 65 95 0 65 93 0 65 93 1 65 93 3 64 92 3 63 97 3 64 95 1 64 95 1 64 95 0 65 93 0 64 92 6 67 95 6 58 82 2 44 68 2 41 70 6 41 71 6 42 66 5 43 64 5 43 62 5 43 62 5 43 64 7 41 66 7 41 66 7 41 66 7 41 66 7 41 66 7 41 66 7 41 66 7 41 66 7 41 66 4 40 64 4 40 64 4 40 64 4 40 64 4 40 64 4 40 64 4 40 64 4 40 62 1 44 63 2 43 61 5 40 62 4 40 64 1 40 69 9 54 83 10 64 92 3 63 91 3 64 92 0 66 92 0 65 93 1 66 96 0 65 97 0 65 95 0 66 92 0 66 92 0 65 95 0 65 95 0 65 95 0 65 95 0 65 95 0 65 95 0 65 95 0 65 95 0 65 97 0 65 97 1 64 95 0 65 95 0 67 93 1 68 94 0 67 93 0 65 93 0 65 93 0 65 93 0 65 95 1 64 95 4 65 94 3 54 83 1 43 67 6 42 64 2 43 65 3 44 66 3 44 66 3 44 66 6 42 66 6 42 66 5 41 65 6 42 66 5 41 65 5 41 65 5 41 65 5 41 65 5 41 65 4 40 64 4 40 64 5 41 65 6 42 66 6 42 66 7 41 66 6 42 66 6 42 66 7 41 66 6 42 66 3 44 66 3 43 68 3 43 68 0 44 69 0 45 71 8 59 90 8 67 97 0 65 93 0 64 92 1 66 96 1 66 96 0 65 95 0 64 96 0 65 97 0 64 99 1 64 95 1 65 93 0 65 95 0 65 95 0 65 95 0 65 95 0 65 95 0 65 95 0 65 95 0 65 95 1 64 97 1 64 97 1 64 97 0 65 97 0 65 95 1 66 96 0 65 93 0 65 93 0 66 92 1 66 96 1 66 96 3 64 93 1 48 74 2 45 64 3 44 66 3 44 66 6 42 66 6 42 66 6 42 66 6 42 66 6 42 66 6 42 66 6 42 66 6 42 66 6 42 66 6 42 66 6 42 66 6 42 66 6 42 66 6 42 66 6 42 66 6 42 66 5 41 65 5 41 65 6 42 66 6 42 66 6 42 66 6 42 66 6 42 66 5 43 64 5 43 64 1 42 62 7 52 73 13 63 86 7 67 91 0 66 90 0 66 90 1 68 94 0 65 93 0 65 93 0 65 93 1 65 93 1 64 95 3 64 95 1 64 97 1 64 97 0 65 95 0 65 95 0 65 95 0 65 95 
0 65 95 0 65 95 0 65 95 0 65 95 0 65 95 0 65 95 1 64 95 1 64 95 0 65 95 1 64 95 0 65 95 0 65 95 1 66 96 1 65 93 3 64 92 6 63 92 7 63 90 7 62 92 7 62 92 7 63 90 7 63 90 7 63 90 7 63 90 7 62 92 7 62 92 7 62 92 7 62 92 7 62 92 7 62 92 7 62 92 7 62 92 7 62 92 7 62 92 7 62 92 7 62 92 7 62 92 7 62 92 7 62 92 6 63 92 6 63 92 6 63 90 6 63 90 6 63 90 7 62 92 6 63 93 4 63 93 3 64 93 1 65 93 1 65 93 0 65 93 0 65 93 2 67 97 0 65 97 0 63 96 1 65 93 0 65 93 0 65 95 0 65 95 0 65 95 0 65 95 0 65 95 0 65 95 0 65 95 0 65 95 0 65 95 0 65 95 0 65 97 0 65 95 0 65 95 1 66 98 1 66 96 0 65 95 0 65 95 0 65 95 0 65 95 0 65 95 1 64 95 3 64 93 6 63 92 6 63 92 6 63 92 6 63 92 6 63 92 6 63 92 6 63 92 6 63 92 6 63 92 6 63 92 6 63 92 6 63 92 6 63 92 6 63 92 6 63 92 7 62 92 7 62 92 6 63 92 6 63 92 6 63 92 6 63 92 6 63 92 6 63 92 6 63 92 6 63 92 6 63 92 6 63 92 6 63 92 4 63 93 4 63 95 3 64 93 1 64 95 1 66 94 0 65 95 0 65 93 1 65 93 0 64 92 0 65 95 0 67 98 0 65 97 0 65 95 0 65 93 0 65 95 0 65 95 0 65 95 0 65 95 0 65 95 0 65 95 0 65 95 0 65 95 0 65 95 1 66 96 0 65 95 0 65 95 0 65 95 0 65 95 0 65 95 0 65 95 0 65 95 0 65 95 0 65 95 1 64 97 3 64 92 7 64 91 7 64 94 6 63 93 6 63 92 6 63 92 6 63 92 6 63 92 6 63 92 6 63 92 6 63 92 6 63 93 6 63 92 6 63 92 6 63 92 6 63 92 6 63 92 6 63 92 6 63 92 6 63 92 6 62 89 6 61 91 6 63 92 6 63 92 6 63 92 6 63 92 6 63 92 6 63 90 6 63 90 6 63 90 4 64 92 3 64 92 1 65 93 0 65 93 0 65 93 1 66 96 0 65 95 0 65 95 0 65 95 0 65 95 0 65 95 0 65 95 1 64 97 0 65 95 0 65 95 0 65 95 0 65 95 0 65 95 
0 65 95 0 65 95 0 65 95 0 65 95 0 65 95 0 65 95 0 65 95 0 66 95 0 65 95 0 65 95 0 65 95 0 64 94 0 65 95 0 65 95 0 65 95 0 64 92 3 64 95 1 64 97 1 64 95 1 64 95 1 64 95 1 64 95 1 64 95 1 64 95 1 64 97 1 64 95 1 64 95 1 64 95 1 64 95 1 64 95 1 64 95 1 64 95 0 65 95 0 65 95 0 65 95 0 65 95 0 65 95 0 65 95 0 65 95 0 65 97 0 65 95 0 65 97 0 65 95 0 65 95 0 65 95 0 65 95 0 65 97 0 65 95 0 65 95 0 65 95 0 64 92 0 65 93 1 64 97 1 64 97 1 64 95 1 64 97 0 65 95 0 65 95 0 65 95 0 65 95 0 65 95 0 65 95 0 65 95 0 65 95 0 65 95 0 65 95 0 65 95 0 65 95 0 65 95 0 65 95 0 65 95 0 65 95 0 65 95 0 65 95 0 65 93 0 65 95 0 65 97 0 65 93 0 65 95 0 65 95 0 65 93 0 66 95 0 66 95 0 65 95 0 65 95 0 65 95 0 65 95 0 66 95 0 65 95 0 65 95 0 65 95 0 65 95 0 65 95 0 65 95 0 65 95 0 65 95 0 65 95 0 65 95 0 65 95 0 65 95 0 65 95 0 65 97 0 65 95 0 65 93 0 65 95 0 65 95 0 65 97 0 65 95 0 65 95 0 65 95 0 65 95 0 65 97 0 65 93 0 65 93 0 65 93 0 64 94 0 66 98 0 66 98 1 64 95 0 65 93 0 65 95 0 65 95 0 65 95 0 65 95 0 65 95 0 65 95 0 65 95 0 65 95 0 65 95 0 66 95 0 65 95 0 65 95 0 65 95 0 65 95 0 66 95 1 66 96 0 65 97 0 65 95 0 65 95 0 65 95 0 65 95 0 65 95 0 66 95 0 65 95 1 64 95 0 65 93 0 65 95 0 65 95 0 65 95 0 65 95 0 65 95 0 65 93 0 65 93 0 65 95 0 65 95 0 65 95 0 65 95 0 65 95 0 65 95 0 65 95 0 63 94 0 63 94 0 65 95 0 65 95 0 65 95 0 65 95 0 65 95 0 65 95 0 65 95 0 65 95 0 66 95 0 65 95 0 65 95 0 65 95 0 65 97 0 65 95 0 65 95 0 65 95 0 65 95 0 65 95 0 65 95 0 65 95 0 65 95 0 65 95 0 65 95 0 65 95 0 65 95 0 65 95 
0 65 95 0 65 95 0 65 95 0 65 95 0 65 95 0 65 95 0 65 95 0 65 95 0 65 95 0 65 95 0 65 95 0 65 95 0 65 95 0 65 95 0 65 95 0 65 95 1 64 95 1 64 95 1 64 95 1 64 95 1 64 95 1 64 95 1 64 95 1 64 95 1 64 95 1 64 95 1 64 95 1 64 95 1 64 95 1 64 95 1 64 95 1 64 95 0 65 95 0 65 95 0 65 95 0 65 95 0 65 95 0 65 95 0 65 95 0 65 95 0 65 95 0 65 95 0 65 95 0 65 95 0 65 95 0 65 95 0 65 95 0 65 95 0 65 95 0 65 95 0 65 93 0 65 95 1 64 97 1 64 97 1 64 95 1 64 95 0 65 95 0 65 95 0 65 95 0 65 95 0 65 95 0 65 95 0 65 95 0 65 95 0 65 95 0 65 95 0 65 95 0 65 95 0 65 95 0 65 95 0 65 95 0 65 95 0 65 95 0 65 95 0 65 95 0 65 95 0 65 95 0 65 95 0 65 95 0 65 95 0 65 95 0 65 95 0 65 95 0 65 95 0 65 95 0 65 95 0 65 95 0 65 95 0 65 95 0 65 95 0 65 95 0 65 95 0 65 95 0 65 95 0 65 95 0 65 95 0 65 95 0 65 95 0 65 95 0 65 95 0 65 95 0 65 95 0 65 95 0 65 95 0 65 95 0 65 95 0 65 95 0 65 95 0 65 95 0 65 95 0 65 95 0 65 95 0 65 93 0 65 93 0 65 93 0 65 95 0 66 98 0 66 98 0 65 95 0 65 93 0 65 95 0 65 95 0 65 95 0 65 95 0 65 95 0 65 95 0 65 95 0 65 95 0 65 95 0 65 95 0 65 95 0 65 95 0 65 95 0 65 95 0 65 95 0 65 95 0 65 95 0 65 95 0 65 95 0 65 95 0 65 95 0 65 95 0 65 95 0 65 95 0 65 95 0 65 95 0 65 95 0 65 95 0 65 95 0 65 95 0 65 95 0 65 95 0 65 95 0 65 95 0 65 95 0 65 95 0 65 95 0 65 95 0 65 95 0 65 95 0 63 94 0 63 94 0 63 94 0 65 95 0 65 95 0 65 95 0 65 95 0 65 95 0 65 95 0 65 95 0 65 95 0 65 95 0 65 95 0 65 95 0 65 95 0 65 95 0 65 95 0 65 95 0 65 95 0 65 95 0 65 95 0 65 95 0 65 95 0 65 95 0 65 95 0 65 95 0 65 95 0 65 95 
0 65 95 0 65 95 0 65 95 0 65 95 0 65 95 0 65 95 0 65 95 0 65 95 0 65 93 0 65 95 0 65 95 0 65 95 0 65 95 0 65 95 0 65 95 0 65 95 1 64 95 1 64 95 1 64 95 1 64 95 1 64 95 1 64 95 1 64 95 1 64 95 1 64 95 1 64 95 1 64 95 1 64 95 1 64 95 1 64 95 1 64 95 1 64 95 0 65 95 0 65 95 0 65 95 0 65 95 0 65 95 0 65 95 0 65 95 0 65 95 0 65 95 0 65 95 0 65 95 0 65 95 0 65 95 0 65 95 0 65 95 0 65 95 0 65 95 0 65 95 0 65 93 0 65 95 1 64 97 1 64 97 1 64 95 1 64 95 0 65 95 0 65 95 0 65 95 0 65 95 0 65 95 0 65 95 0 65 95 0 65 95 0 65 95 0 65 95 0 65 95 0 65 95 0 65 95 0 65 95 0 65 95 0 65 95 0 65 95 0 65 95 0 65 95 0 65 95 0 65 95 0 65 95 0 65 95 0 65 95 0 65 95 0 65 95 0 65 95 0 65 95 0 65 95 0 65 95 0 65 95 0 65 95 0 65 95 0 65 95 0 65 95 0 65 95 0 65 95 0 65 95 0 65 95 0 65 95 0 65 95 0 65 95 0 65 95 0 65 95 0 65 95 0 65 95 0 65 95 0 65 95 0 65 95 0 65 95 0 65 95 0 65 95 0 65 95 0 65 95 0 65 95 0 65 95 0 65 93 0 65 93 0 65 93 0 65 95 0 66 98 0 66 98 0 65 95 0 65 93 0 65 95 0 65 95 0 65 95 0 65 95 0 65 95 0 65 95 0 65 95 0 65 95 0 65 95 0 65 95 0 65 95 0 65 95 0 65 95 0 65 95 0 65 95 0 65 95 0 65 95 0 65 95 0 65 95 0 65 95 0 65 95 0 65 95 0 65 95 0 65 95 0 65 95 0 65 95 0 65 95 0 65 95 0 65 95 0 65 95 0 65 95 0 65 95 0 65 95 0 65 95 0 65 95 0 65 95 0 65 95 0 65 95 0 65 95 0 65 95 0 63 94 0 63 94 0 64 94 0 65 95 0 65 95 0 65 95 0 65 95 0 65 95 0 65 95 0 65 95 0 65 95 0 65 95 0 65 95 0 65 95 0 65 95 0 65 95 0 65 95 0 65 95 0 65 95 0 65 95 0 65 95 0 65 95 0 65 95 0 65 95 0 65 95 0 65 95 0 65 95 0 65 95 
0 65 95 0 65 95 0 65 95 0 65 95 0 65 95 0 65 95 0 65 95 0 65 95 0 65 95 0 65 95 0 65 95 0 65 95 0 65 95 0 65 95 0 65 95 0 65 95 1 64 95 1 64 95 1 64 95 1 64 95 1 64 95 1 64 95 1 64 95 1 64 95 1 64 95 1 64 95 1 64 95 1 64 95 1 64 95 1 64 95 1 64 95 1 64 95 0 65 95 0 65 95 0 65 95 0 65 95 0 65 95 0 65 95 0 65 95 0 65 95 0 65 95 0 65 95 0 65 95 0 65 95 0 65 95 0 65 95 0 65 95 0 65 95 0 65 95 0 65 95 0 65 93 0 65 95 1 64 97 1 64 97 1 64 95 1 64 95 0 65 95 0 65 95 0 65 95 0 65 95 0 65 95 0 65 95 0 65 95 0 65 95 0 65 95 0 65 95 0 65 95 0 65 95 0 65 95 0 65 95 0 65 95 0 65 95 0 65 95 0 65 95 0 65 95 0 65 95 0 65 95 0 65 95 0 65 95 0 65 95 0 65 95 0 65 95 0 65 95 0 65 95 0 65 95 0 65 95 0 65 95 0 65 95 0 65 95 0 65 95 0 65 95 0 65 95 0 65 95 0 65 95 0 65 95 0 65 95 0 65 95 0 65 95 0 65 95 0 65 95 0 65 95 0 65 95 0 65 95 0 65 95 0 65 95 0 65 95 0 65 95 0 65 95 0 65 95 0 65 95 0 65 95 0 65 95 0 65 93 0 65 93 0 65 93 0 65 95 0 66 98 0 66 98 0 65 95 0 65 93 0 65 95 0 65 95 0 65 95 0 65 95 0 65 95 0 65 95 0 65 95 0 65 95 0 65 95 0 65 95 0 65 95 0 65 95 0 65 95 0 65 95 0 65 95 0 65 95 0 65 95 0 65 95 0 65 95 0 65 95 0 65 95 0 65 95 0 65 95 0 65 95 0 65 95 0 65 95 0 65 95 0 65 95 0 65 95 0 65 95 0 65 95 0 65 95 0 65 95 0 65 95 0 65 95 0 65 95 0 65 95 0 65 95 0 65 95 0 65 95 1 64 95 0 65 95 0 65 95 0 65 95 0 65 95 0 65 95 0 65 95 0 65 95 0 65 95 0 65 95 0 65 95 0 65 95 0 65 95 0 65 95 0 65 95 0 65 95 0 65 95 0 65 95 0 65 95 0 65 95 0 65 95 0 65 95 0 65 95 0 65 95 0 65 95 0 65 95 0 65 95 0 65 95 
0 65 95 0 65 95 0 65 95 0 65 95 0 65 95 0 65 95 0 65 95 0 65 95 0 65 95 0 65 95 0 65 95 0 65 95 0 65 95 0 65 95 0 65 95 0 65 95 1 64 95 1 64 95 1 64 95 1 64 95 1 64 95 1 64 95 1 64 95 1 64 95 1 64 95 1 64 95 1 64 95 1 64 95 1 64 95 1 64 95 1 64 95 1 64 95 0 65 95 0 65 95 0 65 95 0 65 95 0 65 95 0 65 95 0 65 95 0 65 95 0 65 95 0 65 95 0 65 95 0 65 95 0 65 95 0 65 95 0 65 95 0 65 95 0 65 95 0 65 95 0 65 93 0 65 95 1 64 97 1 64 97 1 64 95 1 64 95 0 65 95 0 65 95 0 65 95 0 65 95 0 65 95 0 65 95 0 65 95 0 65 95 0 65 95 0 65 95 0 65 95 0 65 95 0 65 95 0 65 95 0 65 95 0 65 95 0 65 95 0 65 95 0 65 95 0 65 95 0 65 95 0 65 95 0 65 95 0 65 95 0 65 95 0 65 95 0 65 95 0 65 95 0 65 95 0 65 95 0 65 95 0 65 95 0 65 95 0 65 95 0 65 95 0 65 95 0 65 95 0 65 95 0 65 95 0 65 95 0 65 95 0 65 95 0 65 95 0 65 95 0 65 95 0 65 95 0 65 95 0 65 95 0 65 95 0 65 95 0 65 95 0 65 95 0 65 95 0 65 95 0 65 95 0 65 95 0 65 93 0 65 93 0 65 93 0 65 95 0 66 98 0 66 98 0 65 95 0 65 93 0 65 95 0 65 95 0 65 95 0 65 95 0 65 95 0 65 95 0 65 95 0 65 95 0 65 95 0 65 95 0 65 95 0 65 95 0 65 95 0 65 95 0 65 95 0 65 95 0 65 95 0 65 95 0 65 95 0 65 95 0 65 95 0 65 95 0 65 95 0 65 95 0 65 95 0 65 95 0 65 95 0 65 95 0 65 95 0 65 95 0 65 95 0 65 95 0 65 95 0 65 95 0 65 95 0 65 95 0 65 95 0 65 95 0 65 95 0 65 95 0 65 95 0 65 95 0 65 95 0 65 95 0 65 95 0 65 95 0 65 95 0 65 95 0 65 95 0 65 95 0 65 95 0 65 95 0 65 95 0 65 95 0 65 95 0 65 95 0 65 95 0 65 95 0 65 95 0 65 95 0 65 95 0 65 95 0 65 95 0 65 95 0 65 95 0 65 95 0 65 95 0 65 95 
0 65 95 0 65 95 0 65 95 0 65 95 0 65 95 0 65 95 0 65 95 0 65 95 0 65 95 0 65 95 0 65 95 0 65 95 0 65 95 0 65 95 0 65 95 0 65 95 1 64 95 1 64 95 1 64 95 1 64 95 1 64 95 1 64 95 1 64 95 1 64 95 1 64 95 1 64 95 1 64 95 1 64 95 1 64 95 1 64 95 1 64 95 1 64 95 0 65 95 0 65 95 0 65 95 0 65 95 0 65 95 0 65 95 0 65 95 0 65 95 0 65 95 0 65 95 0 65 95 0 65 95 0 65 95 0 65 95 0 65 95 0 65 95 0 65 95 0 65 95 0 65 93 0 65 95 1 64 97 1 64 97 1 64 95 1 64 95 0 65 95 0 65 95 0 65 95 0 65 95 0 65 95 0 65 95 0 65 95 0 65 95 0 65 95 0 65 95 0 65 95 0 65 95 0 65 95 0 65 95 0 65 95 0 65 95 0 65 95 0 65 95 0 65 95 0 65 95 0 65 95 0 65 95 0 65 95 0 65 95 0 65 95 0 65 95 0 65 95 0 65 95 0 65 95 0 65 95 0 65 95 0 65 95 0 65 95 0 65 95 0 65 95 0 65 95 0 65 95 0 65 95 0 65 95 0 65 95 0 65 95 0 65 95 0 65 95 0 65 95 0 65 95 0 65 95 0 65 95 0 65 95 0 65 95 0 65 95 0 65 95 0 65 95 0 65 95 0 65 95 0 65 95 0 65 95 0 65 93 0 65 93 0 65 93 0 65 95 1 66 98 0 66 98 0 65 95 0 65 93 0 65 95 0 65 95 0 65 95 0 65 95 0 65 95 0 65 95 0 65 95 0 65 95 0 65 95 0 65 95 0 65 95 0 65 95 0 65 95 0 65 95 0 65 95 0 65 95 0 65 95 0 65 95 0 65 95 0 65 95 0 65 95 0 65 95 0 65 95 0 65 95 0 65 95 0 65 95 0 65 95 0 65 95 0 65 95 0 65 95 0 65 95 0 65 95 0 65 95 0 65 95 0 65 95 0 65 95 0 65 95 0 65 95 0 65 95 0 65 95 0 65 95 0 65 95 0 65 95 0 65 95 0 65 95 0 65 95 0 65 95 0 65 95 0 65 95 0 65 95 0 65 95 0 65 95 0 65 95 0 65 95 0 65 95 0 65 95 0 65 95 0 65 95 0 65 95 0 65 95 0 65 95 0 65 95 0 65 95 0 65 95 0 65 95 0 65 95 0 65 95 0 65 95 
0 65 95 0 65 95 0 65 95 0 65 95 0 65 95 0 65 95 0 65 95 0 65 95 0 65 95 0 65 95 0 65 95 0 65 95 0 65 95 0 65 95 0 65 95 0 65 95 1 64 95 1 64 95 1 64 95 1 64 95 1 64 95 1 64 95 1 64 95 1 64 95 1 64 95 1 64 95 1 64 95 1 64 95 1 64 95 1 64 95 1 64 95 1 64 95 0 65 95 0 65 95 0 65 95 0 65 95 0 65 95 0 65 95 0 65 95 0 65 95 0 65 95 0 65 95 0 65 95 0 65 95 0 65 95 0 65 95 0 65 95 0 65 95 0 65 97 0 65 95 0 65 93 0 65 95 0 65 95 1 64 97 1 64 95 1 64 95 0 65 95 0 65 95 0 65 95 0 65 95 0 65 95 0 65 95 0 65 95 0 65 95 0 65 95 0 65 95 0 65 95 0 65 95 0 65 95 0 65 95 0 65 95 0 65 95 0 65 95 0 65 95 0 65 95 0 65 95 0 65 95 0 65 95 0 65 95 0 65 95 0 65 95 0 65 95 0 65 95 0 65 95 0 65 95 0 65 95 0 65 95 0 65 95 0 65 95 0 65 95 0 65 95 0 65 95 0 65 95 0 65 95 0 65 95 0 65 95 0 65 95 0 65 95 0 65 95 0 65 95 0 65 95 0 65 95 0 65 95 0 65 95 0 65 95 0 65 95 0 65 95 0 65 95 0 65 95 0 65 95 0 65 95 0 65 95 0 65 93 0 65 93 0 65 93 0 65 93 0 65 95 1 66 96 0 65 95 0 65 93 0 65 95 0 65 95 0 65 95 0 65 95 0 65 95 0 65 95 0 65 95 0 65 95 0 65 95 0 65 95 0 65 95 0 65 95 0 65 95 0 65 95 0 65 95 0 65 95 0 65 95 0 65 95 0 65 95 0 65 95 0 65 95 0 65 95 0 65 95 0 65 95 0 65 95 0 65 95 0 65 95 0 65 95 0 65 95 0 65 95 0 65 95 0 65 95 0 65 95 0 65 95 0 65 95 0 65 95 0 65 95 0 65 95 0 65 95 0 65 95 0 65 95 0 65 95 0 65 95 0 65 95 0 65 95 0 65 95 0 65 95 0 65 95 0 65 95 0 65 95 0 65 95 0 65 95 0 65 95 0 65 95 0 65 95 0 65 95 0 65 95 0 65 95 0 65 95 0 65 95 0 65 95 0 65 95 0 65 95 0 65 95 0 65 95 0 65 95 0 65 95 0 65 95 
0 65 97 0 65 97 0 65 97 0 65 97 0 65 97 0 65 97 0 65 95 0 65 95 0 65 95 0 65 95 0 65 93 0 65 93 0 65 93 0 65 93 0 65 93 0 65 93 0 65 95 0 65 95 0 65 95 0 65 95 0 65 95 0 65 95 0 65 95 0 65 95 0 65 93 0 65 93 0 65 93 0 65 93 0 65 93 0 65 93 0 65 93 0 65 93 0 65 95 0 65 95 0 65 95 0 65 95 0 65 95 0 65 95 0 65 95 0 65 95 0 65 95 0 65 95 0 65 95 0 65 95 0 65 95 0 65 95 0 65 95 0 65 95 0 65 97 0 65 95 0 65 95 0 65 95 0 65 95 0 65 95 0 65 95 0 65 95 0 65 95 0 65 95 0 65 95 0 65 95 0 65 95 0 65 95 0 65 95 0 65 95 0 65 95 0 65 95 0 65 95 0 65 95 0 65 95 0 65 95 0 65 95 0 65 95 0 65 95 0 65 95 0 65 95 0 65 95 0 65 95 0 65 95 0 65 95 0 65 95 0 65 95 0 65 95 0 65 95 0 65 95 0 65 95 0 65 95 0 65 95 0 65 95 0 65 95 0 65 95 0 65 95 0 65 95 0 65 95 0 65 95 0 65 95 0 65 95 0 65 95 0 65 95 0 65 95 0 65 95 0 65 95 0 65 95 0 65 95 0 65 95 0 65 95 0 65 95 0 65 95 0 65 95 0 65 95 0 65 95 0 65 95 0 65 95 0 65 95 0 65 95 0 65 95 0 65 95 0 65 95 0 65 95 0 65 95 0 65 95 0 65 95 0 65 95 0 65 95 0 65 95 0 65 95 0 65 95 0 65 95 0 65 95 0 65 95 0 65 95 0 65 95 0 65 95 0 65 95 0 65 95 0 65 95 0 65 95 0 65 95 0 65 95 0 65 95 0 65 95 0 65 95 0 65 95 0 65 95 0 65 95 0 65 95 0 65 95 0 65 95 0 65 95 0 65 95 0 65 95 0 65 95 0 65 95 0 65 95 0 65 95 0 65 95 0 65 95 0 65 95 0 65 95 0 65 95 0 65 95 0 65 95 0 65 95 0 65 95 0 65 95 0 65 95 0 65 95 0 65 95 0 65 95 0 65 95 0 65 95 0 65 95 0 65 95 0 65 95 0 65 95 0 65 95 0 65 95 0 65 95 0 65 95 0 65 95 0 65 95 0 65 95 0 65 95 0 65 95 0 65 95 0 65 95 0 65 95 0 65 95 0 65 95 
0 65 97 0 65 97 0 65 97 0 65 97 0 65 97 0 65 95 0 65 95 0 65 95 0 65 95 0 65 93 0 65 93 0 65 93 0 65 93 0 65 93 0 65 93 0 65 93 0 65 95 0 65 95 0 65 95 0 65 95 0 65 95 0 65 95 0 65 95 0 65 95 0 65 93 0 65 93 0 65 93 0 65 93 0 65 93 0 65 93 0 65 93 0 65 93 0 65 95 0 65 95 0 65 95 0 65 95 0 65 95 0 65 95 0 65 95 0 65 95 0 65 95 0 65 95 0 65 95 0 65 95 0 65 95 0 65 95 0 65 95 0 65 95 0 65 95 0 65 95 0 65 95 0 65 95 0 65 95 0 65 95 0 65 95 0 65 95 0 65 95 0 65 95 0 65 95 0 65 95 0 65 95 0 65 95 0 65 95 0 65 95 0 65 95 0 65 95 0 65 95 0 65 95 0 65 95 0 65 95 0 65 95 0 65 95 0 65 95 0 65 95 0 65 95 0 65 95 0 65 95 0 65 95 0 65 95 0 65 95 0 65 95 0 65 95 0 65 95 0 65 95 0 65 95 0 65 95 0 65 95 0 65 95 0 65 95 0 65 95 0 65 95 0 65 95 0 65 95 0 65 95 0 65 95 0 65 95 0 65 95 0 65 95 0 65 95 0 65 95 0 65 95 0 65 95 0 65 95 0 65 95 0 65 95 0 65 95 0 65 95 0 65 95 0 65 95 0 65 95 0 65 95 0 65 95 0 65 95 0 64 94 0 65 95 0 65 95 0 65 95 0 65 95 0 65 95 0 65 95 0 65 95 0 65 95 0 65 95 0 65 95 0 65 95 0 65 95 0 65 95 0 65 95 0 65 95 0 65 95 0 65 95 0 65 95 0 65 95 0 65 95 0 65 95 0 65 95 0 65 95 0 65 95 0 65 95 0 65 95 0 65 95 0 65 95 0 65 95 0 65 95 0 65 95 0 65 95 0 65 95 0 65 95 0 65 95 0 65 95 0 65 95 0 65 95 0 65 95 0 65 95 0 65 95 0 65 95 0 65 95 0 65 95 0 65 95 0 65 95 0 65 95 0 65 95 0 65 95 0 65 95 0 65 95 0 65 95 0 65 95 0 65 95 0 65 95 0 65 95 0 65 95 0 65 95 0 65 95 0 65 95 0 65 95 0 65 95 0 65 95 0 65 95 0 65 95 0 65 95 0 65 95 0 65 95 0 65 95 0 65 95 0 65 95 0 65 95 0 65 95 0 65 95 
1 64 95 1 64 95 1 64 95 1 64 95 1 64 95 1 65 93 1 65 93 1 65 93 1 65 92 1 65 92 1 65 92 1 65 92 1 65 92 1 65 92 1 65 92 1 65 92 1 65 93 1 65 93 1 65 93 1 65 93 1 65 93 1 65 93 1 65 93 1 65 93 1 65 92 1 65 92 1 65 92 1 65 92 1 65 92 1 65 92 1 65 92 1 65 92 1 65 93 1 65 93 1 65 93 1 65 93 1 65 93 1 65 93 1 65 93 1 65 93 1 65 93 1 65 93 1 65 93 1 65 93 1 65 93 1 65 93 1 65 93 1 65 93 1 65 93 1 65 93 1 65 93 1 65 93 1 65 93 1 65 93 1 65 93 1 65 93 1 65 93 1 65 93 1 65 93 1 65 93 1 65 93 1 65 93 1 65 93 1 65 93 1 65 93 1 65 93 1 65 93 1 65 93 1 65 93 1 65 93 1 65 93 1 65 93 1 65 93 1 65 93 1 65 93 1 65 93 1 65 93 1 65 93 1 65 93 1 65 93 1 65 93 1 65 93 1 65 93 1 65 93 1 65 93 1 65 93 1 65 93 1 65 93 1 65 93 1 65 93 1 65 93 1 65 93 1 65 93 1 65 93 1 65 93 1 65 93 1 65 93 1 65 93 1 65 93 1 65 93 1 65 93 1 65 93 1 65 93 1 65 93 1 65 93 1 65 93 1 65 93 1 65 93 1 65 93 1 65 93 1 65 93 1 65 93 1 65 93 1 65 93 1 65 93 1 65 93 1 65 93 1 65 93 1 65 93 1 65 93 1 65 93 1 65 93 1 65 93 1 65 93 1 65 93 1 65 93 1 65 93 1 65 93 1 65 93 1 65 93 1 65 93 1 65 93 1 65 93 1 65 93 1 65 93 1 65 93 1 65 93 1 65 93 1 65 93 1 65 93 1 65 93 1 65 93 1 65 93 1 65 93 1 65 93 1 65 93 1 65 93 1 65 93 1 65 93 1 65 93 1 65 93 1 65 93 1 65 93 1 65 93 1 65 93 1 65 93 1 65 93 1 65 93 1 65 93 1 65 93 1 65 93 1 65 93 1 65 93 1 65 93 1 65 93 1 65 93 1 65 93 1 65 93 1 65 93 1 65 93 1 65 93 1 65 93 1 65 93 1 65 93 1 65 93 1 65 93 1 65 93 1 65 93 1 65 93 1 65 93 1 65 93 1 65 93 1 65 93 1 65 93 1 65 93 1 65 93 1 65 93 1 65 93 
13 61 83 13 61 83 13 61 83 13 61 83 13 61 83 13 61 83 13 61 83 13 61 83 13 61 81 13 61 81 13 61 81 13 61 81 13 61 81 13 61 81 13 61 81 13 61 81 13 61 83 13 61 83 13 61 83 13 61 83 13 61 83 13 61 83 13 61 83 13 61 83 13 61 81 13 61 81 13 61 81 13 61 81 13 61 81 13 61 81 13 61 81 13 61 81 13 61 83 13 61 83 13 61 83 13 61 83 13 61 83 13 61 83 13 61 83 13 61 83 13 61 83 13 61 83 13 61 83 13 61 83 13 61 83 13 61 83 13 61 83 13 61 83 13 61 83 13 61 83 13 61 83 13 61 83 13 61 83 13 61 83 13 61 83 13 61 83 13 61 83 13 61 83 13 61 83 13 61 83 13 61 83 13 61 83 13 61 83 13 61 83 13 61 83 13 61 83 13 61 83 13 61 83 13 61 83 13 61 83 13 61 83 13 61 83 13 61 83 13 61 83 13 61 83 13 61 83 13 61 83 13 61 83 13 61 83 13 61 83 13 61 83 13 61 83 13 61 83 13 61 83 13 61 83 13 61 83 13 61 83 13 61 83 13 61 83 13 61 83 13 61 83 13 61 83 13 61 83 13 61 83 13 61 83 13 61 83 13 61 83 13 61 83 13 61 83 13 61 83 13 61 83 13 61 83 13 61 83 13 61 83 13 61 83 13 61 83 13 61 83 13 61 83 13 61 83 13 61 83 13 61 83 13 61 83 13 61 83 13 61 83 13 61 83 13 61 83 13 61 83 13 61 83 13 61 83 13 61 83 13 61 83 13 61 83 13 61 83 13 61 83 13 61 83 13 61 83 13 61 83 13 61 83 13 61 83 13 61 83 13 61 83 13 61 83 13 61 83 13 61 83 13 61 83 13 61 83 13 61 83 13 61 83 13 61 83 13 61 83 13 61 83 13 61 83 13 61 83 13 61 83 13 61 83 13 61 83 13 61 83 13 61 83 13 61 83 13 61 83 13 61 83 13 61 83 13 61 83 13 61 83 13 61 83 13 61 83 13 61 83 13 61 83 13 61 83 13 61 83 13 61 83 13 61 83 13 61 83 13 61 83 13 61 83 13 61 83 13 61 83 13 61 83 13 61 83 13 61 83 13 61 83 13 61 83 13 61 83 13 61 83 13 61 83 13 61 83 13 61 83 13 61 83 13 61 83 13 61 83 13 61 83 13 61 83 13 61 83 13 61 83 13 61 83 13 61 83 13 61 83 13 61 83 
