P3
160 160
255
63 46 27 63 46 27 63 46 27 63 46 27 59 41 24 59 41 24 57 42 24
57 42 24 59 44 26 50 35 17 65 52 33 96 83 65 150 136 120 76 63 47
67 54 38 55 42 26 61 48 32 65 51 35 71 57 41 72 58 42 67 51 39
64 48 35 61 44 32 58 42 29 64 48 35 62 46 33 59 43 30 57 41 28
51 35 22 50 34 21 48 32 19 50 34 21 59 44 28 141 125 110 106 90 75
81 66 51 65 52 33 61 48 30 59 46 28 57 44 25 51 36 18 61 43 26
74 54 38 82 62 46 84 66 52 98 87 70 136 133 113 152 153 132
153 154 135 173 173 155 156 157 139 138 139 120 111 111 95 69 69 53
67 67 51 78 76 60 67 58 45 71 60 48 72 61 49 71 60 48 82 70 58
89 77 65 108 98 88 152 145 133 218 213 201 251 249 236 165 161 147
97 91 73 86 76 55 86 72 49 96 79 55 110 93 71 105 88 69 99 82 63
70 55 35 148 133 113 182 165 145 91 74 55 87 70 48 84 67 46 92 75 54
89 72 50 85 69 45 83 66 42 86 67 44 92 73 49 93 74 49 90 72 46
89 71 45 68 50 24 53 35 9 60 42 16 66 47 24 85 66 42 91 75 51
70 54 30 151 137 114 152 140 117 72 58 35 75 58 36 89 66 49 93 66 50
85 56 39 71 42 25 81 50 31 100 69 49 100 69 47 81 50 29 86 55 33
79 48 26 79 48 24 84 54 30 83 55 28 86 59 32 91 65 40 97 74 50
110 88 66 228 209 186 94 77 55 87 68 47 95 69 50 95 66 48 91 64 46
88 64 44 96 74 54 54 35 14 49 32 11 50 35 13 47 30 8 56 36 15
72 46 25 82 52 30 84 51 28 76 43 20 72 42 15 75 48 18 77 52 22
83 63 31 77 64 32 60 49 17 69 61 27 82 74 40 82 72 39 86 75 42
89 81 45 74 69 32 76 69 39 72 64 42 38 29 14 27 17 7 30 20 12
28 17 14 32 18 18 32 18 18 32 18 16 32 19 14 34 22 14 39 26 19
47 35 25 52 40 28 63 46 27 63 46 27 63 46 27 63 46 27 62 44 28
62 44 28 61 45 28 61 45 28 64 49 31 63 47 30 66 53 35 72 59 40
149 135 119 102 89 73 55 42 26 61 48 32 61 48 32 61 48 32 62 49 33
65 51 35 61 44 32 58 42 29 55 39 26 54 37 25 59 43 30 55 39 26
50 34 21 47 30 18 49 33 20 58 42 29 67 51 39 70 54 41 66 51 35
106 90 75 147 131 116 69 53 38 65 52 33 61 48 30 59 46 28 57 44 25
52 37 19 60 42 25 71 51 35 77 56 40 80 61 47 93 82 66 132 128 109
147 148 127 156 157 139 177 178 160 165 165 147 147 148 129
113 114 98 74 74 58 62 62 46 75 73 58 62 52 39 60 48 36 57 46 34
60 48 36 71 60 48 90 78 66 106 96 86 134 127 116 181 176 164
251 249 236 236 232 218 115 109 90 86 76 55 99 84 62 101 84 60
92 75 54 95 77 58 89 72 52 78 63 43 91 76 56 208 190 171 92 75 56
88 71 49 92 75 54 103 86 64 99 82 61 96 79 55 92 76 52 88 69 46
82 63 40 71 52 26 59 40 15 51 32 7 57 38 13 72 53 28 89 71 45
88 69 46 104 85 62 95 78 54 78 62 38 109 95 72 194 182 159 77 62 40
76 59 37 89 66 49 95 68 52 91 62 44 79 50 33 86 55 35 98 67 48
98 68 46 86 55 33 87 56 35 80 49 28 79 48 24 83 53 29 84 57 29
92 65 38 100 74 49 104 81 57 85 64 41 224 205 182 114 98 76 90 71 50
88 62 43 89 60 42 86 59 41 87 62 43 90 68 48 59 40 19 47 30 8
49 34 12 45 28 6 53 34 13 66 40 19 76 46 24 78 45 22 73 41 17
72 42 15 75 48 18 77 52 22 85 65 33 61 47 15 60 49 17 77 69 35
78 70 36 86 75 42 76 66 33 89 81 45 66 61 24 69 62 30 76 68 43
36 27 10 25 16 3 29 19 11 28 17 14 32 18 18 32 18 18 32 18 16
32 19 14 34 22 14 39 26 19 47 35 25 52 40 28 63 46 27 63 46 27
64 47 28 64 47 28 64 47 30 64 47 30 64 49 31 64 49 31 66 51 33
67 52 35 62 49 31 55 42 24 96 83 67 158 145 129 72 58 42 54 41 25
57 43 27 57 43 27 57 43 27 58 44 28 55 39 24 54 38 23 52 37 21
52 37 21 47 30 18 54 37 25 64 48 35 72 56 43 78 62 47 76 60 45
73 58 42 71 55 40 72 56 41 61 45 30 164 148 133 90 74 59 65 52 33
61 48 30 59 46 28 57 44 25 54 38 21 59 41 24 65 45 29 68 48 32
73 54 40 86 75 59 125 121 102 140 141 120 152 153 134 176 177 159
166 166 148 152 153 134 116 116 100 80 80 64 56 57 41 73 71 56
64 55 42 52 40 28 47 35 23 53 41 29 65 54 42 81 69 57 93 83 73
121 113 102 156 151 139 205 202 189 255 255 241 182 176 158 99 89 67
104 89 67 96 79 55 80 63 41 82 65 45 81 63 44 79 64 44 59 44 24
182 165 145 118 101 81 92 75 54 89 72 50 90 73 51 88 71 49 83 66 42
81 64 40 66 47 24 51 32 9 54 36 10 75 57 31 85 66 40 82 64 38
87 68 43 95 77 51 95 76 53 118 99 76 96 79 55 88 71 47 66 52 29
213 200 177 100 86 63 77 60 39 89 66 49 99 72 56 98 69 51 89 60 42
100 69 49 103 72 53 103 72 51 100 69 47 89 58 37 82 52 30 82 52 28
91 61 37 92 65 38 98 71 43 103 78 52 104 81 57 82 60 38 208 189 166
139 122 100 78 58 37 82 56 37 86 57 40 87 60 42 86 61 42 83 61 41
65 45 25 45 28 6 45 31 8 47 30 8 53 34 13 64 38 17 72 41 19 78 45 22
73 41 17 73 43 17 76 49 19 98 73 43 94 75 43 54 41 8 61 51 18
77 69 35 78 70 36 86 75 42 76 66 33 88 80 44 67 62 25 72 66 34
81 74 47 49 41 19 34 25 9 32 22 14 27 16 13 31 17 17 31 17 17
31 17 15 31 18 13 33 20 13 38 25 18 46 34 24 50 39 27 63 46 27
63 46 27 63 46 27 64 47 28 68 50 33 68 50 33 66 51 33 66 51 33
66 51 33 59 44 26 57 44 25 59 46 28 64 50 34 146 133 117 112 99 83
51 37 21 55 42 26 54 41 25 54 41 25 53 40 24 52 37 21 52 37 21
52 37 21 52 37 21 77 61 46 76 60 47 73 57 44 72 56 41 72 56 41
69 53 38 65 49 34 63 47 32 62 46 31 59 44 28 119 103 88 147 131 116
65 52 33 61 48 30 59 46 28 55 42 24 56 40 23 59 41 24 61 41 25
64 44 28 68 50 35 82 71 54 120 116 97 136 137 116 142 143 125
168 169 150 161 162 143 148 149 133 116 116 100 84 85 69 52 52 36
71 69 53 71 62 49 53 41 29 45 33 21 54 42 30 68 56 44 69 57 45
78 68 58 116 109 97 127 122 110 173 171 158 253 248 234 228 222 203
117 107 85 99 84 62 83 66 42 80 63 41 74 56 37 83 66 46 72 57 37
71 56 36 119 102 83 151 133 114 97 80 58 77 60 39 66 49 27 62 45 24
57 41 17 55 39 15 74 55 32 92 73 49 99 80 54 92 73 47 83 65 39
78 59 33 81 63 37 92 73 47 97 78 55 127 108 84 97 80 56 96 79 55
63 48 26 180 166 143 129 115 92 78 61 40 87 65 48 99 72 56 103 74 56
96 67 49 93 62 42 90 59 40 90 60 38 93 62 40 93 62 40 89 58 37
94 64 40 107 76 52 97 69 42 99 71 47 101 76 50 102 78 54 80 59 37
163 144 120 163 146 125 87 68 47 85 58 40 86 57 40 85 58 40 83 59 40
78 56 36 70 50 29 43 26 5 44 30 7 55 38 17 59 40 19 68 42 22 75 45 23
79 46 23 74 42 19 73 43 17 76 49 19 89 65 34 79 59 27 54 41 8
68 58 25 69 61 27 82 74 40 82 72 39 86 75 42 88 80 44 78 72 36
85 79 45 85 79 47 67 60 35 46 38 20 36 26 16 24 13 10 28 15 15
29 16 16 28 15 13 28 15 11 31 18 11 35 23 16 43 31 22 48 36 24
63 46 27 63 46 27 64 47 28 66 48 29 68 50 33 68 50 33 66 51 33
66 51 33 70 54 37 62 46 29 61 45 28 65 50 32 64 48 33 86 70 55
156 140 125 57 41 26 54 38 23 51 35 20 56 40 25 55 39 24 64 48 33
72 56 41 79 63 48 77 61 46 73 58 42 71 55 40 69 53 38 66 51 33
63 47 30 62 46 29 61 45 28 62 46 29 62 46 29 62 46 29 70 54 37
179 164 146 88 73 56 50 35 17 54 38 21 50 35 17 61 45 28 61 43 26
64 44 28 64 44 28 56 38 24 69 58 41 117 113 94 145 146 125
140 141 122 163 164 148 167 167 151 145 145 129 115 114 101
106 106 93 64 65 49 65 63 48 77 67 55 55 43 31 38 26 14 60 48 36
61 49 37 65 54 42 66 56 46 95 88 76 118 113 101 135 132 119
225 220 206 255 253 235 152 141 120 101 87 64 98 82 58 91 74 53
83 66 46 77 60 41 86 71 51 87 72 52 57 40 21 103 85 66 53 36 14
45 28 6 50 33 12 62 45 24 75 58 34 82 65 41 88 69 46 96 77 54
99 80 56 87 68 45 86 67 42 87 68 43 77 58 32 89 71 45 95 76 53
128 109 86 112 96 72 91 75 51 70 55 33 120 105 83 188 171 149
104 85 64 98 76 58 96 69 53 93 64 47 93 64 47 91 62 42 89 60 40
89 60 38 90 62 39 92 64 42 97 69 46 100 73 48 99 71 47 97 69 44
91 63 38 93 67 44 102 78 54 83 61 39 118 99 76 199 183 161 87 68 47
85 58 40 82 53 35 81 55 36 82 58 39 87 66 46 78 58 37 49 32 11
49 34 12 53 36 14 61 42 21 70 43 23 74 43 22 74 42 19 67 35 12
66 36 10 75 47 20 80 55 25 73 54 22 78 65 33 60 49 17 75 67 33
83 75 41 89 79 46 76 66 33 95 87 51 81 76 37 85 80 41 83 77 40
87 81 51 65 57 37 35 25 15 31 20 17 32 18 18 31 17 17 34 21 18
36 23 19 39 26 19 36 24 17 42 30 20 50 39 27 63 46 27 64 47 28
67 49 30 68 50 33 68 50 33 68 50 33 66 51 33 66 51 33 64 49 31
69 53 36 66 51 33 58 43 25 57 41 26 55 39 24 69 53 38 64 48 33
55 39 24 62 46 31 71 55 40 80 65 49 81 66 51 74 59 44 67 52 37
63 47 32 64 49 31 64 49 31 63 47 30 62 46 29 58 43 25 59 44 26
62 46 29 64 49 31 69 53 36 64 49 31 51 36 18 111 95 78 136 121 103
52 37 19 61 45 28 55 39 22 61 45 28 62 44 28 64 44 28 64 44 28
53 35 20 60 49 32 99 95 76 136 136 118 140 140 124 159 159 143
162 163 147 145 145 129 116 116 102 108 107 94 78 79 63 78 76 60
72 63 50 61 49 37 42 30 18 74 62 50 77 65 53 62 52 39 49 42 31
93 88 76 105 100 88 122 118 103 182 178 161 238 232 214 211 201 179
117 105 82 105 91 66 91 75 51 87 70 48 67 53 33 64 49 29 54 39 19
36 19 0 113 96 77 105 88 67 71 54 33 80 63 41 78 61 40 83 66 42
90 73 49 97 78 55 104 85 62 100 81 58 100 81 58 94 75 50 90 72 46
80 61 36 99 80 54 100 81 58 123 104 81 105 89 65 88 71 47 87 73 50
86 72 49 205 188 167 108 89 68 99 77 59 90 66 49 87 60 42 93 64 47
89 60 40 89 60 40 89 60 38 89 60 38 85 57 35 102 73 51 106 78 54
97 69 44 95 67 42 92 66 41 94 70 46 100 76 52 83 61 39 87 68 45
220 203 182 108 89 68 89 63 44 89 60 42 82 56 37 75 51 32 76 54 34
71 51 31 49 32 11 54 39 17 55 38 17 59 40 19 67 41 20 76 45 26
70 37 16 63 30 7 61 31 5 70 43 15 75 51 20 73 50 19 82 66 35 66 55 22
68 60 26 71 63 29 73 62 29 80 70 34 90 83 44 79 74 33 84 79 37
84 79 39 84 77 45 71 63 41 41 31 18 28 17 12 27 14 11 31 17 17
35 22 20 39 26 21 39 26 19 38 25 18 43 31 22 50 39 27 64 47 30
67 49 32 68 50 33 68 50 33 68 50 35 68 50 35 66 51 33 66 51 33
74 59 42 73 58 40 62 46 29 48 32 15 49 34 16 49 34 16 65 50 32
135 120 102 102 87 69 69 53 36 67 52 35 76 60 43 72 57 39 66 51 33
61 45 28 59 44 26 58 43 25 58 43 25 61 46 26 59 44 24 59 44 24
62 47 27 64 49 29 64 49 29 69 53 36 62 46 29 48 32 15 66 51 33
164 149 131 79 64 46 56 40 23 59 44 26 61 45 28 62 44 28 64 44 28
64 44 28 52 33 19 48 37 20 83 79 60 129 129 111 140 140 124
152 152 136 155 156 140 145 145 129 119 119 105 110 110 96 97 97 81
95 93 78 85 76 63 53 41 29 64 53 41 75 63 51 72 63 50 71 62 49
72 64 53 79 74 62 101 97 83 120 116 99 148 142 124 226 221 200
251 241 217 168 157 131 119 108 82 70 56 31 56 41 19 51 39 15
64 51 30 69 54 34 73 59 36 97 82 60 177 162 140 81 67 44 91 74 53
82 65 43 85 68 47 102 85 63 106 87 63 113 94 70 97 78 55 113 94 70
108 89 64 95 77 51 85 66 40 111 93 67 106 87 63 117 98 75 94 77 53
82 65 41 83 68 44 72 58 33 211 195 171 131 112 91 96 74 54 86 61 42
83 59 40 92 66 45 88 62 41 87 61 40 87 61 38 87 61 38 100 74 51
100 74 51 95 70 44 88 63 37 89 64 38 95 70 44 97 74 50 96 73 49
97 75 53 77 58 34 211 194 173 102 83 62 78 51 33 86 57 40 92 66 45
88 64 42 89 67 45 77 58 34 46 29 5 44 30 5 57 41 17 58 37 15 65 39 18
79 48 28 70 37 16 63 30 7 61 31 5 70 43 15 75 51 20 70 48 17 71 56 23
69 59 24 67 59 23 64 56 20 75 65 30 81 71 36 85 78 39 76 71 29
83 79 32 84 79 35 84 78 41 71 64 37 41 31 18 28 17 12 28 15 13
32 18 18 35 22 20 38 25 20 35 23 16 34 22 14 40 28 18 47 35 23
67 49 32 68 50 33 68 50 33 68 50 33 68 50 35 68 50 35 66 51 33
66 51 33 65 50 32 61 45 28 62 46 29 70 54 37 76 60 43 83 67 50
79 64 46 119 103 86 152 137 120 72 57 39 61 45 28 62 46 29 58 43 25
61 45 28 63 47 30 64 49 31 64 49 31 65 50 32 67 53 33 70 55 35
63 48 28 63 48 28 63 48 28 63 48 28 58 43 25 58 43 25 48 32 15
52 37 19 121 106 88 135 120 102 63 47 30 64 49 31 61 45 30 61 45 30
62 44 30 62 44 30 49 33 20 41 32 16 74 73 55 118 119 100 140 140 124
147 147 131 151 151 135 145 145 129 122 121 108 111 111 97 110 110 94
108 106 91 95 88 74 64 55 42 60 51 38 72 63 50 74 65 52 59 52 38
91 84 71 84 79 65 107 103 86 131 127 108 139 133 113 206 198 176
255 248 224 210 200 174 129 117 89 82 71 43 88 76 51 87 75 51
105 93 72 111 99 78 102 88 65 91 76 54 183 168 146 100 86 63
101 87 64 94 77 55 106 89 68 133 116 95 118 101 77 127 108 84
102 83 60 130 111 88 116 97 72 97 79 53 87 68 43 121 102 77 109 90 67
113 94 70 87 70 46 78 62 38 87 70 46 69 54 30 159 142 118 162 143 119
91 69 49 82 60 40 83 59 38 91 68 46 88 62 41 87 61 40 87 61 38
87 61 38 129 103 80 96 71 47 77 51 28 81 56 30 87 62 36 98 72 47
100 76 52 94 70 46 72 51 28 54 35 12 172 155 133 126 109 88 85 63 43
90 66 47 93 69 47 81 57 35 79 55 33 70 51 27 46 29 5 49 33 9 61 42 19
56 35 12 63 36 16 79 51 31 73 42 21 67 35 12 66 36 10 76 46 20
78 51 22 72 49 18 62 47 13 63 50 16 69 61 25 68 60 24 94 84 48
79 68 33 81 73 35 73 69 25 81 78 31 85 81 36 89 84 47 67 60 33
37 28 13 34 23 18 29 16 14 31 17 15 34 21 16 35 22 18 32 19 12
29 17 8 35 23 11 43 32 20 68 50 35 67 49 34 64 46 32 63 45 31
71 53 39 68 50 35 62 44 30 59 40 26 68 50 33 81 63 46 85 70 50
80 65 45 77 61 44 74 59 42 71 56 38 69 53 36 151 136 118 100 85 67
67 52 35 61 45 28 67 49 32 69 51 35 73 55 36 75 58 38 74 56 37
71 54 35 73 55 36 75 58 38 66 48 29 68 51 31 68 51 31 62 45 26
64 47 30 66 48 31 66 48 31 63 46 29 94 79 61 169 153 136 88 73 56
67 52 37 59 43 32 55 38 30 50 35 26 47 33 24 37 27 17 33 28 16
45 43 30 104 104 90 127 127 114 139 139 125 141 141 128 138 138 124
123 121 108 108 106 93 113 110 97 124 122 109 101 97 85 73 69 55
64 60 45 77 73 56 86 79 63 68 62 44 87 81 62 103 97 78 116 110 91
136 130 109 146 141 118 180 173 148 255 252 225 233 224 197
154 145 116 119 110 81 112 103 76 116 106 82 120 110 86 125 113 90
119 107 84 86 74 50 170 157 134 160 148 125 144 132 109 119 104 82
139 124 102 158 144 121 146 129 107 149 132 111 117 100 76 135 119 95
120 104 80 109 92 68 90 74 47 116 99 73 113 94 68 107 88 63 83 65 39
80 61 36 82 65 41 88 71 47 102 85 61 206 187 164 87 66 44 92 71 48
87 66 44 94 70 48 88 64 40 98 75 51 97 74 50 96 73 49 124 100 79
88 64 42 88 62 41 94 68 45 101 75 52 95 69 46 86 62 38 80 56 32
72 51 28 61 42 21 106 90 66 109 95 70 66 49 25 59 40 17 68 44 23
87 61 40 101 77 55 98 76 54 74 57 35 47 30 8 58 38 18 59 38 18
66 42 20 75 46 26 74 43 22 69 39 15 69 39 13 76 46 20 78 51 22
75 53 20 73 54 22 72 54 22 84 71 37 86 75 40 89 81 45 83 75 39
87 82 43 85 80 39 83 78 34 84 79 39 89 84 49 67 60 35 36 27 14
32 22 16 30 19 16 30 19 16 30 20 14 30 20 14 34 23 16 34 24 14
30 21 8 41 31 18 64 46 32 61 43 28 55 37 23 50 32 18 59 40 26
64 46 32 73 54 40 78 60 46 82 64 47 80 62 45 71 56 36 62 47 27
67 52 35 65 50 32 62 46 29 59 44 26 93 78 60 171 156 138 77 61 44
66 51 33 70 52 36 71 54 37 73 55 36 74 56 37 70 53 34 70 53 34
71 54 35 70 53 34 68 51 31 67 49 30 64 47 28 62 45 26 64 47 30
68 50 33 69 51 35 68 50 33 81 66 49 112 96 79 137 122 104 73 58 42
58 41 33 54 36 31 47 32 26 42 32 24 37 29 20 33 27 18 38 35 25
82 81 70 113 113 100 127 127 114 133 133 119 133 133 119 125 123 110
114 111 99 113 110 97 123 121 108 110 108 95 88 86 73 64 62 46
69 65 48 90 84 68 82 76 58 79 72 54 118 112 92 123 117 96 126 121 100
131 126 102 146 141 116 228 221 196 246 237 210 159 149 123
135 126 100 121 112 86 125 115 89 130 120 96 133 123 99 136 127 103
114 105 81 154 144 120 214 202 178 179 167 143 159 147 124
175 163 140 203 191 168 171 157 134 165 148 126 132 115 91 139 122 98
118 101 77 112 96 72 90 73 49 139 123 96 106 87 61 93 74 49 75 57 31
86 67 42 85 69 45 95 78 54 85 69 45 212 196 172 103 84 61 101 80 58
94 73 51 83 61 39 88 64 40 93 69 45 95 71 47 103 80 56 133 109 88
91 68 46 84 57 37 82 56 35 73 47 24 79 53 30 84 61 37 89 65 44
64 42 22 50 30 10 59 42 18 105 91 66 80 66 41 90 73 49 98 75 53
89 63 42 95 71 49 92 71 48 70 53 32 47 30 8 54 35 14 56 34 14
62 38 17 70 43 23 75 46 24 72 41 19 72 41 17 79 49 22 79 52 23
78 54 21 76 54 23 75 55 23 82 67 33 82 72 37 82 74 38 78 73 34
88 84 42 86 81 40 83 78 36 80 75 36 87 81 49 65 58 33 37 28 15
34 23 16 30 20 14 30 19 16 30 20 14 30 20 14 31 21 13 32 23 12
31 22 9 43 34 21 56 39 22 62 44 28 68 50 33 73 55 38 81 63 46
81 63 46 80 62 45 78 61 44 68 50 33 66 48 29 65 50 30 69 54 34
69 54 34 66 51 31 63 48 28 61 46 26 72 57 37 154 139 119 134 119 99
72 57 37 68 51 31 68 51 31 67 49 30 66 48 29 63 46 27 68 51 31
73 55 36 73 55 36 70 53 34 63 46 27 60 42 23 62 45 26 63 46 29
68 50 33 71 54 37 71 54 37 73 58 40 58 43 25 164 149 131 95 80 65
59 42 34 51 34 28 44 29 23 38 28 20 34 27 18 32 26 17 35 32 21
59 58 47 88 88 74 113 113 100 124 124 110 127 127 114 124 122 109
118 116 103 113 110 97 121 118 105 113 110 97 99 96 83 67 65 50
70 66 51 86 79 63 90 84 68 77 71 53 117 111 92 125 119 99 110 104 83
118 113 90 123 117 94 185 179 156 246 238 213 169 161 136 137 130 103
128 121 94 131 124 97 136 129 102 140 133 105 144 137 112 154 146 121
148 140 116 218 208 184 194 183 162 184 174 152 194 183 162
234 221 200 194 181 161 178 164 141 157 143 118 156 142 117
123 109 86 118 103 81 109 92 68 141 125 101 107 88 65 85 66 42
70 51 27 94 75 52 91 75 49 94 80 53 76 62 35 193 176 150 138 122 95
101 82 57 90 72 46 80 59 35 86 65 40 85 64 39 92 71 46 111 90 65
119 97 75 79 55 33 69 45 24 68 44 23 68 43 19 64 38 15 55 32 8
49 26 4 55 33 13 65 45 25 74 57 33 197 181 157 80 66 41 71 55 31
74 50 26 75 50 26 91 68 44 92 71 48 73 56 32 48 32 8 50 30 10
50 30 10 56 35 12 63 40 18 75 50 26 72 44 22 74 44 20 81 51 25
82 55 25 80 56 23 79 57 23 77 57 23 81 66 30 78 68 30 74 66 28
73 68 29 87 83 41 87 83 39 84 79 37 80 75 36 81 75 43 62 54 29
36 27 12 35 25 17 30 20 14 30 19 16 30 20 14 30 20 14 28 18 10
31 22 11 32 23 10 45 36 23 78 61 44 82 64 47 84 66 50 85 68 51
73 55 38 71 54 37 69 51 35 68 51 31 64 47 28 57 40 21 58 43 23
67 53 33 79 64 44 77 62 42 73 58 38 71 56 36 76 61 41 91 76 56
177 162 142 98 83 63 62 45 26 60 42 23 57 40 21 55 38 19 57 40 21
63 46 27 71 54 35 75 58 38 70 53 34 62 45 26 59 41 22 62 45 26
63 46 29 68 50 33 71 54 37 74 56 39 67 52 35 62 46 29 98 82 65
140 124 109 66 49 41 50 33 27 43 28 21 36 26 18 32 24 16 29 26 16
40 40 28 48 48 36 63 63 52 99 99 88 112 112 101 119 119 108
115 112 102 121 118 105 118 116 103 121 118 105 100 97 85 103 101 88
79 76 64 87 85 70 71 67 52 87 80 64 84 78 62 100 93 75 122 116 97
100 94 73 108 102 81 124 118 97 154 149 128 214 208 185 162 157 134
143 138 112 140 135 110 144 139 111 150 143 116 154 147 119
138 133 107 180 175 149 155 147 122 173 166 141 193 185 163
194 183 162 198 188 166 245 235 213 198 188 166 182 172 150
177 167 143 179 167 143 134 119 97 126 109 88 135 119 95 120 104 80
109 90 67 94 75 52 77 58 34 108 89 66 101 84 58 85 71 44 91 77 50
144 131 103 172 155 129 92 76 50 82 64 38 86 67 42 85 64 39 80 59 35
90 69 44 118 97 72 92 71 48 56 35 12 56 33 11 62 38 17 53 28 4
59 33 10 66 42 18 72 48 24 73 52 30 75 56 35 68 51 27 208 191 167
92 78 53 77 61 37 73 49 25 81 55 32 94 70 46 93 72 47 73 56 32
48 32 8 45 28 6 46 27 6 51 32 9 58 37 15 75 52 28 72 47 21 74 46 19
81 53 24 83 56 24 81 57 24 80 58 24 78 59 24 82 67 31 74 64 27
69 62 23 65 60 19 81 77 33 86 82 38 85 80 39 81 76 37 74 68 36
56 48 24 31 22 7 32 22 14 30 20 14 30 19 16 30 20 14 30 20 12 25 16 5
30 20 10 34 24 11 46 37 24 81 66 46 76 61 41 69 54 34 69 54 34
75 58 38 73 55 36 71 54 35 69 52 33 63 46 27 67 49 30 71 54 35
75 58 38 88 70 51 85 68 49 82 65 45 80 62 43 80 62 43 76 59 40
140 123 104 175 158 138 59 41 22 54 37 17 50 33 14 53 35 16 56 39 20
59 41 22 75 58 38 78 61 42 77 60 41 83 66 46 66 48 29 61 44 24
68 50 33 70 52 36 62 44 28 68 50 33 68 50 33 66 48 31 66 48 31
135 117 103 73 56 48 42 24 21 34 19 15 27 16 11 28 22 15 28 24 16
30 29 20 39 38 29 59 58 49 80 79 70 97 96 87 104 103 94 104 101 93
107 104 94 110 107 97 114 111 101 91 88 77 84 81 70 86 83 71 96 94 81
96 91 77 72 68 53 70 66 51 86 82 65 103 98 82 93 90 70 93 90 70
103 99 80 133 127 109 175 169 149 144 138 117 134 129 106 152 147 123
151 146 120 144 137 112 166 159 134 160 155 129 174 169 143
155 150 125 193 188 162 200 194 171 199 191 169 214 206 184
236 230 207 208 202 181 181 176 152 206 200 177 211 203 178
155 140 118 148 128 107 131 112 89 121 102 79 123 104 81 106 87 63
93 74 51 116 97 74 85 69 45 77 61 37 124 107 83 99 83 59 187 170 146
101 84 60 95 78 54 89 70 47 79 60 35 77 58 32 87 68 43 113 94 68
56 37 13 52 31 9 55 33 11 63 40 18 72 46 23 79 53 30 89 66 42
120 97 73 77 56 33 57 38 15 62 46 22 188 172 145 135 119 95 86 67 44
86 65 40 97 74 50 101 77 53 89 68 43 77 58 34 50 34 10 46 29 7
43 26 5 45 28 4 53 34 11 64 43 18 63 40 14 70 45 17 83 56 26 90 63 31
87 63 28 83 62 26 82 63 26 90 76 37 79 69 29 76 69 28 78 73 32
87 83 39 77 72 28 93 88 47 88 83 44 84 77 45 60 53 28 39 31 15
34 23 16 30 20 14 30 20 14 30 20 14 30 20 12 31 18 9 33 21 9 34 22 10
48 37 22 85 70 48 71 56 34 74 60 37 65 51 28 81 64 42 78 61 40
77 60 39 73 56 34 77 60 41 78 61 42 81 63 44 82 65 45 80 62 43
77 60 41 75 58 38 71 54 35 69 52 33 62 45 26 71 54 35 182 165 145
101 83 64 60 42 23 53 35 16 56 39 20 55 38 19 56 39 20 71 54 35
75 58 38 84 67 48 88 70 51 60 42 23 62 45 26 68 50 33 71 54 37
60 42 25 63 46 29 64 47 30 59 41 24 62 44 28 80 61 49 106 89 83
51 33 30 43 27 23 28 17 12 26 20 13 28 24 16 27 26 18 30 29 20
46 45 36 57 57 48 70 69 61 84 83 75 86 83 75 89 86 78 93 90 80
95 92 82 79 76 66 80 77 67 85 82 69 92 89 76 100 95 83 78 73 61
69 64 52 83 78 64 94 90 76 85 81 66 85 81 66 94 90 74 122 115 99
148 142 124 134 128 110 140 135 114 150 144 123 159 154 130
154 149 124 172 167 141 168 165 139 185 183 156 178 176 149
206 201 175 196 191 168 205 202 178 217 214 190 226 223 199
223 219 198 192 191 168 236 236 211 214 208 185 165 151 128
175 156 135 145 126 105 152 133 110 148 129 105 109 90 67 110 91 68
122 103 80 98 82 58 108 91 67 116 99 75 63 47 23 194 177 153
106 90 66 91 75 51 80 63 39 70 51 25 63 44 18 122 103 78 111 93 67
72 53 30 71 52 28 70 49 26 74 50 28 74 48 25 77 51 28 115 91 67
95 71 47 71 50 27 76 54 32 79 60 35 161 145 118 156 140 116 87 68 45
85 64 39 96 73 49 91 68 44 80 59 35 71 52 28 47 30 6 45 31 8 44 30 7
47 30 6 54 35 12 58 37 13 58 38 10 62 40 11 71 46 16 84 57 25
77 51 16 78 54 19 89 70 33 98 84 46 89 80 40 88 81 40 91 86 44
99 95 50 87 83 39 96 92 50 92 87 48 87 81 49 60 53 28 39 31 15
37 27 19 31 21 15 30 20 14 30 20 12 30 20 12 31 18 9 33 21 9 34 23 8
47 36 21 156 142 117 85 71 46 76 61 37 71 57 32 80 63 41 78 61 40
76 59 37 69 52 31 78 61 42 77 60 41 75 58 38 74 56 37 70 52 36
68 50 33 64 47 30 62 44 28 60 42 23 52 34 15 49 32 13 102 84 65
163 146 127 73 55 36 61 44 24 54 37 17 54 37 17 54 37 17 68 51 31
73 55 36 83 66 46 89 72 52 70 53 34 61 44 24 68 50 33 71 54 37
58 42 27 62 46 31 66 48 31 63 46 29 63 46 29 53 34 22 97 79 74
57 39 36 44 28 25 30 20 14 25 19 12 24 21 13 26 25 16 27 26 18
35 35 26 44 43 34 48 47 39 56 55 47 65 62 54 68 65 57 72 69 59
74 71 61 65 62 52 74 71 61 84 81 70 86 83 73 94 89 80 84 79 69
78 73 63 85 80 68 93 88 76 84 79 67 84 79 67 93 89 74 101 97 83
136 132 117 129 125 108 148 144 125 147 143 124 168 164 143
169 166 142 181 178 152 178 176 149 196 196 169 205 205 177
213 211 184 195 192 168 217 217 194 227 226 203 217 217 194
227 226 203 204 206 182 233 235 210 183 180 156 201 186 166
208 188 170 172 153 132 177 157 136 135 115 95 144 125 104
150 130 110 120 100 79 106 90 66 116 102 77 92 78 53 63 49 24
104 89 65 81 67 42 60 43 19 64 48 24 94 75 50 92 73 47 102 84 58
96 78 52 81 62 39 81 62 39 75 53 31 76 52 31 77 51 28 87 61 38
117 94 70 80 56 32 73 52 30 90 68 46 92 73 47 134 115 89 187 170 146
88 69 46 84 63 38 95 71 47 94 70 46 85 64 39 80 61 38 57 41 17
49 34 12 47 32 10 49 33 9 58 39 16 57 36 11 59 39 12 61 38 10 63 38 8
84 57 25 77 51 16 78 54 19 89 70 33 101 86 48 93 83 43 93 86 46
99 94 52 103 99 55 94 90 46 95 91 49 95 90 51 91 84 52 59 52 27
38 29 14 41 30 23 31 21 15 31 21 15 30 20 12 30 20 12 31 18 9 33 21 9
34 23 8 47 36 21 158 144 119 135 121 96 70 56 31 77 62 40 71 54 33
70 53 32 66 49 27 64 47 26 67 49 30 63 46 27 59 41 22 55 38 19
62 44 28 60 42 25 56 39 22 54 36 19 59 41 22 54 37 17 48 31 12
57 40 21 161 144 125 131 113 94 57 40 21 57 40 21 55 38 19 53 35 16
66 48 29 69 52 33 69 52 33 85 68 49 91 74 55 62 44 28 68 50 33
70 54 39 58 42 27 62 46 31 47 31 16 50 34 19 47 31 16 43 28 17
48 34 27 53 40 35 34 23 18 32 24 18 26 20 13 23 20 12 23 22 13
26 25 16 28 28 19 34 33 25 34 33 25 34 33 25 51 48 40 53 50 42
57 54 43 59 56 46 54 52 41 71 68 57 82 79 69 82 79 69 86 81 71
82 76 67 87 82 73 96 90 81 96 90 81 86 81 69 86 81 69 96 91 79
99 94 82 135 130 118 131 126 112 154 150 133 145 140 124 176 172 153
179 176 154 186 185 163 180 179 157 201 200 178 221 220 198
219 218 195 198 197 174 233 232 209 239 241 217 217 219 195
205 207 184 219 221 198 240 242 219 200 199 175 238 228 206
221 206 186 194 180 157 176 161 139 146 131 109 175 158 136
161 144 122 130 113 91 112 98 73 107 93 68 83 68 44 62 47 23 97 82 58
148 134 109 91 75 51 101 84 60 113 94 68 90 72 46 94 75 50 99 80 54
71 52 26 77 58 34 78 57 34 79 58 33 76 53 29 105 79 56 96 73 49
81 57 33 82 60 38 94 73 51 94 75 50 118 100 74 206 190 166 88 69 46
85 64 39 94 70 46 88 64 40 78 57 32 72 53 30 54 37 13 50 35 13
48 33 11 52 35 11 59 40 17 61 40 15 65 45 17 65 42 13 62 37 6
90 63 31 89 62 28 85 61 26 83 62 26 96 80 42 90 78 39 91 84 43
98 93 51 103 99 55 99 95 50 94 90 48 99 94 55 94 88 56 59 52 27
38 29 14 44 34 26 32 22 16 31 21 15 30 20 12 30 20 12 31 18 9 33 21 9
34 23 8 47 36 21 101 87 64 172 158 135 86 72 49 52 38 15 55 40 20
52 37 17 51 36 16 51 36 16 55 40 20 56 41 21 55 40 20 49 34 14
56 40 23 59 44 26 59 44 26 56 40 23 55 40 20 55 40 20 55 40 20
52 37 17 88 73 53 193 178 158 77 62 42 48 33 13 50 35 15 64 49 29
90 75 55 86 71 51 87 69 50 95 77 58 99 82 65 78 61 44 67 52 37
61 48 32 55 42 28 47 34 20 46 34 22 39 30 19 35 25 15 32 24 16
28 22 15 30 24 20 25 22 16 23 19 14 23 19 14 21 17 11 18 17 10
19 18 11 21 17 9 28 24 16 33 30 22 36 33 25 31 28 20 38 35 27
45 42 34 49 45 37 64 60 52 57 53 45 88 85 75 94 91 81 85 81 73
89 86 78 93 90 82 93 90 82 96 93 83 92 89 78 98 95 84 103 100 90
120 117 106 142 139 126 153 151 138 158 156 141 145 143 128
166 164 149 180 178 163 191 189 173 169 166 151 191 189 173
220 221 205 212 213 195 214 215 194 227 229 208 238 239 218
239 240 219 222 221 201 236 235 215 213 212 189 217 217 194
228 225 201 211 206 183 191 183 159 173 166 141 184 176 152
184 174 150 168 158 134 156 143 120 136 124 100 128 115 92 100 86 63
88 74 51 108 94 71 212 197 175 130 113 89 114 98 74 105 89 65
110 93 69 92 73 47 100 81 56 73 52 28 79 58 33 85 64 39 86 65 40
113 90 66 105 82 58 94 70 46 87 63 39 86 62 38 89 68 43 110 92 66
124 106 80 210 192 166 89 71 45 86 65 40 90 69 44 86 65 42 73 52 30
66 47 24 62 46 22 45 31 6 48 34 9 52 35 11 59 40 17 59 38 14 62 41 14
66 43 14 84 59 29 103 74 43 97 69 35 89 62 28 81 57 22 99 80 43
92 78 40 89 80 40 106 99 58 101 97 53 94 90 46 92 87 46 95 90 51
88 79 48 50 41 17 39 27 13 38 25 18 34 21 16 33 20 15 32 19 12
31 18 11 31 18 9 29 18 6 38 26 12 48 37 22 101 87 64 126 111 89
150 136 113 67 53 31 58 43 23 54 39 19 49 34 14 47 32 12 47 32 12
50 35 15 51 36 16 54 39 19 56 40 23 59 44 26 63 47 30 62 46 29
59 44 24 57 42 22 55 40 20 55 40 20 63 48 28 151 136 116 149 134 114
54 39 19 54 39 19 64 49 29 83 68 48 80 65 45 84 67 48 76 59 40
78 61 44 74 59 42 64 50 34 55 42 28 52 38 25 47 35 23 36 28 19
30 25 18 26 20 13 22 18 13 21 20 14 23 21 15 23 21 15 19 18 11
21 17 11 23 19 14 20 19 13 19 18 11 19 16 8 26 23 15 36 33 25
44 41 33 39 36 28 30 27 19 53 50 42 50 47 39 70 66 58 71 67 59
84 81 70 99 96 85 87 84 76 87 84 76 91 87 79 95 92 84 100 97 87
106 103 92 104 102 91 109 106 96 130 127 117 148 145 134 160 158 145
170 167 154 153 151 138 183 180 167 173 172 161 191 191 180
181 179 166 196 194 181 220 220 207 214 214 198 226 227 209
234 236 215 238 239 218 234 236 215 237 236 216 238 237 217
221 220 198 231 231 208 221 220 196 199 198 173 193 190 166
186 184 157 200 195 169 192 187 161 186 179 154 165 158 133
147 137 113 161 149 126 120 105 83 107 93 70 111 96 74 192 178 155
130 113 89 130 113 89 130 113 89 85 69 45 90 72 46 87 68 43 75 54 27
79 59 31 84 63 36 94 74 47 103 80 56 100 76 52 93 69 45 87 63 39
82 59 35 93 69 45 119 98 73 68 50 24 200 181 156 106 87 61 86 65 40
86 65 40 85 64 41 72 51 28 66 47 24 66 49 25 45 31 6 48 32 8 52 35 11
59 40 17 59 38 14 62 39 13 66 43 14 86 61 31 105 73 43 99 68 35
90 62 28 83 57 22 104 83 47 104 88 50 98 84 46 101 91 51 103 96 53
94 90 46 92 87 46 95 90 51 88 79 48 50 41 17 39 27 13 38 25 18
35 22 18 33 20 15 32 19 12 31 18 11 28 16 7 35 23 11 48 37 22
60 48 34 98 84 59 95 81 56 164 150 125 140 125 103 80 66 43 72 58 35
65 51 28 61 46 24 50 35 13 49 34 12 49 34 12 55 40 20 61 46 26
59 44 24 63 48 28 66 51 31 65 50 30 62 47 27 59 44 24 57 42 22
61 46 26 92 77 57 179 164 144 99 84 64 59 44 24 64 49 29 76 61 41
76 61 41 82 65 45 68 51 31 67 52 35 71 56 38 55 42 26 52 38 25
43 32 20 42 32 22 33 25 17 28 22 15 22 18 13 18 17 10 19 18 11
18 17 10 23 21 15 18 17 10 19 16 10 23 19 14 24 22 16 23 21 15
21 17 9 28 24 16 40 37 29 51 48 40 46 43 35 30 27 19 53 50 42
57 53 45 80 77 69 80 77 69 89 86 78 101 98 90 91 87 79 84 80 72
87 84 76 99 95 87 104 101 93 123 120 112 114 111 103 118 115 107
133 133 121 152 151 140 169 169 158 177 177 166 170 170 159
194 193 182 179 178 167 191 191 180 200 199 186 202 202 188
220 220 207 213 216 199 223 224 205 232 233 214 236 236 218
231 232 213 244 243 223 235 234 214 223 222 200 231 231 208
223 222 200 208 207 185 205 202 178 213 210 186 211 206 183
225 220 197 190 182 159 190 182 159 167 157 133 163 150 127
132 120 97 121 108 85 107 94 71 162 147 125 161 144 120 132 115 91
127 111 87 75 58 34 93 74 49 79 60 35 76 55 28 80 60 33 83 62 35
103 82 55 94 70 46 93 69 45 90 67 43 89 66 42 95 71 47 97 74 50
82 61 36 71 50 25 185 166 141 128 109 84 83 62 37 82 61 36 79 58 35
70 49 26 68 49 26 73 56 32 47 30 6 48 32 8 53 34 11 59 40 17 59 38 14
61 38 12 66 41 13 89 62 32 106 72 43 102 66 35 93 60 28 84 56 22
95 71 36 102 80 44 101 84 47 107 95 56 103 96 53 94 90 46 92 87 46
95 90 51 88 79 48 50 41 17 39 27 13 38 25 18 35 22 18 34 21 16
32 19 12 31 18 11 29 17 8 40 28 16 53 41 27 60 48 34 99 85 60
92 78 53 107 93 68 171 157 132 108 94 69 99 84 62 88 74 51 81 67 44
67 53 31 62 47 25 57 42 20 58 44 21 66 52 29 63 48 28 62 47 27
65 50 30 66 51 31 65 50 30 65 50 30 62 47 27 59 44 24 83 68 48
115 100 80 164 149 129 78 63 43 62 47 27 72 57 37 72 57 37 75 58 38
83 66 46 74 59 42 58 42 27 41 28 14 47 35 23 44 34 24 37 29 20
35 29 22 29 25 20 23 21 17 21 20 16 14 13 9 17 15 9 20 19 13 19 18 11
22 18 13 22 18 13 24 22 16 26 25 18 24 20 15 30 26 21 43 39 34
54 51 43 49 45 37 38 35 27 45 42 34 65 62 54 92 88 80 78 74 66
101 98 90 100 97 89 93 90 82 81 78 70 85 81 73 102 99 91 109 106 98
137 134 126 122 119 111 125 122 114 140 140 128 163 163 152
179 178 167 179 178 167 188 187 176 196 196 184 190 192 180
187 189 177 214 213 200 208 208 194 219 221 207 214 217 202
205 206 190 219 220 202 230 231 212 231 232 213 233 231 213
227 225 205 223 222 202 207 206 186 195 194 172 209 208 186
212 209 185 217 214 190 222 216 193 229 223 200 202 195 172
197 189 166 202 192 168 147 137 113 152 140 117 142 129 106 101 89 65
135 122 99 203 188 166 119 103 79 101 84 60 82 65 41 96 78 52
81 63 37 76 55 28 79 59 31 89 68 41 101 81 54 87 63 39 87 63 39
89 66 42 90 67 43 103 80 56 93 69 45 98 77 52 76 55 30 174 156 130
144 125 100 82 61 36 79 58 33 75 53 31 68 46 24 71 52 28 77 61 37
47 30 6 48 32 8 53 34 11 62 41 16 61 38 12 61 38 12 65 40 12 90 61 32
108 72 43 104 65 35 95 59 28 86 55 22 102 75 41 93 71 35 89 70 33
102 87 49 103 96 53 94 90 46 92 87 46 95 90 51 88 79 48 50 41 17
39 27 13 38 25 16 36 24 17 34 21 16 32 19 12 31 18 9 31 19 7 41 29 17
49 38 23 51 37 23 92 80 52 92 80 52 94 82 54 123 112 84 151 138 110
102 88 63 101 87 62 91 77 52 91 77 52 91 77 52 91 77 52 91 77 52
76 61 39 66 52 29 58 44 21 55 40 18 63 48 26 57 42 20 61 46 24
67 53 31 54 39 19 66 51 31 84 69 49 161 146 126 119 103 86 71 56 38
65 50 30 61 46 26 59 41 22 70 53 34 68 51 31 49 33 18 38 26 14
38 30 21 34 27 18 29 24 16 23 19 14 19 17 13 17 15 11 14 14 12
17 15 13 17 15 11 19 17 13 20 19 15 19 17 13 21 20 16 28 27 23
33 31 27 38 34 31 35 31 27 33 29 26 57 53 48 40 37 31 44 40 35
42 38 32 68 65 59 93 89 84 80 76 71 91 87 79 106 102 94 91 90 82
95 94 85 87 86 77 103 102 93 130 129 120 152 151 142 126 125 117
127 126 118 149 149 138 160 159 148 182 182 170 172 171 160
195 194 183 195 194 183 193 196 181 193 196 181 218 218 206
202 201 190 205 207 193 210 212 197 190 191 175 219 220 204
217 218 199 208 208 190 215 213 196 202 201 183 200 198 181
203 202 184 194 193 171 207 206 182 220 217 193 223 220 196
231 226 203 215 209 186 193 185 163 207 199 177 184 174 152
160 150 128 164 151 130 157 144 123 123 110 90 143 130 109
221 207 184 119 104 82 101 84 60 120 104 80 125 107 81 78 59 33
73 53 26 80 60 33 93 73 45 87 67 40 79 55 29 82 59 33 90 67 41
94 71 44 85 59 34 94 71 44 97 76 49 86 66 38 117 96 71 171 150 125
83 65 39 78 59 33 92 71 48 82 60 38 87 68 45 87 68 45 56 37 13
49 30 6 61 43 17 63 42 17 55 32 6 69 47 18 68 43 15 82 53 24
107 71 40 108 70 38 95 60 26 85 54 19 96 70 33 86 64 26 93 75 35
102 88 47 107 101 57 98 93 49 91 86 44 95 90 51 84 76 44 41 31 7
39 27 13 40 28 18 36 24 17 34 22 14 32 19 12 31 18 9 37 23 11
50 36 22 53 39 26 50 34 19 92 81 50 90 79 49 101 90 59 93 82 51
142 129 99 139 125 98 98 84 57 100 86 59 97 83 56 97 83 56 97 83 56
97 83 56 94 80 55 83 68 46 72 58 35 65 51 28 63 48 26 61 46 24
61 46 24 65 51 28 71 56 36 79 64 44 70 55 35 97 82 62 112 96 79
66 51 33 65 50 30 55 40 20 59 41 22 66 48 29 62 45 26 49 33 18
32 23 12 29 24 16 26 20 13 22 18 13 17 15 11 16 14 12 14 14 12
14 14 12 17 15 13 17 15 13 19 17 13 20 19 15 21 20 16 23 21 17
28 27 23 31 29 25 36 32 29 37 33 30 43 39 36 71 67 63 46 43 37
54 51 45 58 54 49 67 64 58 92 88 82 95 92 86 94 91 83 117 114 106
105 104 96 112 111 103 112 111 103 120 120 111 134 133 125
172 171 162 138 137 128 144 143 134 158 157 146 163 163 152
174 173 162 172 171 160 194 193 182 194 193 182 192 194 180
192 194 180 209 208 197 186 185 174 190 192 178 194 197 182
181 181 165 207 207 191 198 199 183 186 186 168 183 180 165
186 184 169 187 185 170 196 195 177 181 180 158 207 206 182
220 217 193 216 213 189 221 215 192 209 204 180 199 191 169
207 199 177 192 182 161 197 187 165 194 183 162 160 148 127
152 140 119 145 133 112 190 175 153 119 104 82 117 100 76 124 107 83
100 81 56 99 80 54 92 71 44 100 80 52 100 80 52 96 75 48 104 81 55
105 82 56 98 75 49 86 62 36 93 67 42 95 72 45 91 70 43 85 64 37
96 75 50 193 174 149 88 70 44 75 57 31 97 75 53 91 70 47 88 69 46
85 66 42 58 39 16 50 31 8 60 42 16 60 42 16 55 34 7 69 47 18 68 44 13
74 47 15 112 79 47 109 74 40 103 70 35 105 77 41 94 71 33 88 67 28
95 79 39 105 93 52 106 100 56 100 95 54 95 91 49 95 90 53 83 74 43
39 29 5 34 23 8 34 22 12 36 24 17 34 22 14 32 20 10 31 18 9 39 25 14
52 38 25 56 40 25 48 32 17 93 82 49 95 84 52 102 91 59 85 74 41
105 91 62 176 162 133 113 99 70 95 82 52 97 83 54 97 83 54 97 83 54
97 83 56 97 82 58 97 82 58 97 82 58 87 73 48 79 67 43 73 61 37
65 53 29 62 50 27 70 55 33 74 60 37 62 47 25 59 44 24 92 77 59
80 65 47 72 57 37 70 55 35 59 41 22 59 41 22 56 39 20 49 33 18
35 25 15 28 22 15 23 19 14 17 15 11 16 14 10 14 14 12 14 14 14
14 14 12 15 16 13 15 16 11 19 17 13 20 19 15 25 23 19 24 22 18
26 24 20 28 27 23 36 32 29 37 33 30 43 39 36 71 67 63 74 71 65
74 71 65 84 80 72 84 80 72 101 98 90 99 95 87 120 120 111 125 124 115
101 100 91 126 125 117 139 138 129 120 120 111 129 131 119
168 170 158 148 150 138 143 145 133 155 157 145 158 160 148
161 163 151 172 174 162 182 184 172 182 184 172 182 184 170
182 184 170 190 192 180 162 164 152 158 161 146 163 165 151
162 162 149 182 182 168 167 167 151 148 149 133 144 142 127
163 161 145 158 156 141 171 169 152 176 174 154 201 200 178
212 209 187 209 205 184 206 203 181 201 195 174 206 200 179
208 201 178 199 191 169 206 199 174 191 183 159 169 159 135
155 145 121 117 105 82 153 141 118 177 163 138 137 123 98 109 92 68
105 89 63 103 85 59 106 87 59 111 93 65 99 78 51 99 78 51 119 98 71
87 67 40 79 59 31 103 80 54 103 80 54 93 69 43 84 63 36 83 62 35
82 64 36 193 177 148 94 78 49 77 58 32 91 70 45 90 69 44 80 59 35
76 55 30 61 42 19 51 32 9 57 41 15 58 39 14 56 35 8 70 48 19 67 43 12
68 41 9 104 72 40 97 65 33 87 58 25 88 61 27 88 66 30 81 65 27
92 78 40 104 95 55 109 102 61 103 99 57 100 95 56 98 92 55 84 75 46
36 26 5 28 18 6 27 17 9 35 25 17 32 22 14 32 20 10 32 20 10 41 27 16
57 43 29 57 41 26 44 28 13 95 85 50 104 94 59 99 88 53 104 94 61
95 82 52 136 123 93 162 148 119 97 83 54 97 83 54 97 83 54 97 83 54
97 83 56 95 81 56 99 85 60 104 89 65 105 91 66 99 86 63 96 84 61
87 75 51 71 58 35 49 34 12 61 46 24 65 51 28 64 51 30 74 61 43
126 113 95 90 77 59 65 52 33 55 42 26 51 37 21 47 34 18 46 34 22
36 28 19 29 25 20 25 23 19 18 16 12 14 14 12 14 14 12 13 13 13
13 13 13 14 14 12 15 16 11 18 16 12 20 19 15 27 26 22 25 23 19
26 24 20 26 24 20 38 34 31 35 31 27 33 29 26 57 53 50 78 74 68
65 61 56 86 83 75 92 88 80 103 100 92 118 115 107 127 126 118
139 138 129 116 115 106 119 118 110 141 140 132 140 139 130
130 132 120 161 163 151 165 167 155 142 144 132 151 153 141
156 158 146 153 154 142 173 175 163 168 170 158 168 170 158
168 170 158 168 170 158 162 164 152 140 142 130 132 134 119
129 132 117 142 142 129 159 159 145 138 138 124 116 116 100
116 114 99 141 139 123 127 125 109 135 133 117 170 168 150
184 182 162 194 193 173 204 200 181 196 192 173 193 190 168
211 206 185 207 201 178 202 197 171 195 188 163 165 158 133
171 164 139 142 133 109 126 116 92 150 138 112 181 169 144
147 132 108 125 110 86 104 90 63 105 89 63 109 93 64 104 86 58
90 72 44 87 67 40 91 70 43 78 57 30 83 62 35 103 82 55 110 89 62
90 69 42 78 57 30 80 62 34 87 71 42 174 158 129 102 86 57 82 64 36
83 62 37 72 51 26 61 40 15 65 44 19 64 45 22 52 33 10 56 40 16
56 37 13 55 34 9 72 49 22 67 42 14 68 41 11 81 52 21 88 59 26
84 58 23 81 57 22 77 58 21 73 58 20 85 75 35 98 91 50 112 107 65
102 98 56 101 96 57 102 97 60 88 79 50 39 29 7 29 20 7 25 15 7
35 25 17 32 22 14 32 20 10 32 20 10 41 27 16 59 45 32 59 44 28
43 27 12 79 68 35 81 70 38 85 74 41 87 76 43 95 84 54 94 83 52
147 136 106 130 119 89 90 79 51 89 78 50 87 75 47 87 75 47 94 80 55
94 80 55 93 79 54 93 79 54 86 74 48 75 63 38 64 52 26 67 55 30
78 65 42 89 77 54 96 84 61 83 73 51 66 60 39 86 79 61 117 110 94
61 54 41 42 35 24 34 27 18 29 20 14 28 22 17 26 23 17 24 22 18
21 20 16 18 16 12 13 11 10 13 11 10 13 13 13 13 13 13 16 14 12
16 14 12 18 16 14 19 17 15 24 22 20 19 17 15 26 24 22 35 33 32
45 41 40 49 44 43 46 42 39 57 53 50 65 61 56 60 57 49 74 73 64
97 97 85 99 99 88 115 114 103 131 130 121 138 137 128 131 130 121
129 128 119 131 130 121 160 159 150 121 123 111 160 161 149
178 180 168 146 147 135 147 148 139 136 138 128 147 148 139
149 151 141 164 166 156 151 153 143 142 144 134 142 144 132
116 118 106 121 123 111 112 114 102 118 120 108 125 125 113
130 129 118 110 109 98 102 102 88 109 109 95 112 112 99 130 130 114
120 121 105 152 152 136 156 157 141 173 173 155 186 184 167
179 176 157 181 177 156 202 199 175 191 189 162 204 201 175
179 174 146 176 172 144 161 154 126 155 148 120 132 122 96
138 128 102 185 173 147 142 130 102 154 143 115 118 107 79 107 93 66
106 91 62 97 81 52 90 74 45 82 64 36 79 61 33 83 65 37 93 75 47
100 82 54 86 68 38 77 59 28 89 71 41 97 82 50 103 87 58 105 91 62
74 58 29 66 48 20 79 59 31 83 62 35 87 64 37 83 60 36 73 52 30
49 29 8 48 31 12 51 31 13 66 45 25 75 52 28 71 46 18 65 38 9 78 52 20
78 52 20 82 58 25 95 73 39 99 82 46 78 66 29 92 85 46 107 102 63
106 101 59 100 95 54 99 94 55 106 100 64 95 89 59 43 35 13 23 14 1
21 11 3 31 21 13 31 21 13 33 21 11 32 20 10 40 26 15 52 36 23
56 40 25 48 32 17 93 82 51 90 79 49 87 76 45 85 74 43 80 69 38
85 73 45 92 80 52 152 141 113 112 101 73 100 88 62 89 77 52 85 73 47
84 70 45 76 61 37 65 51 26 57 43 18 67 55 30 82 70 45 97 86 60
105 94 68 104 92 69 105 93 70 101 89 65 90 80 58 78 75 53 65 63 46
82 80 65 60 57 47 37 34 26 29 25 22 23 19 18 24 20 19 21 20 16
19 17 13 17 15 11 17 15 11 13 11 10 13 11 10 12 12 12 12 12 12
14 12 11 16 14 12 17 15 13 19 17 15 21 19 18 30 28 26 24 22 20
38 36 34 44 40 39 46 42 41 47 43 40 51 47 42 59 56 48 72 69 61
64 64 53 74 73 62 97 97 85 129 128 117 148 147 139 144 143 134
140 139 130 125 124 115 127 126 118 168 167 158 120 122 110
161 163 151 179 181 169 144 146 134 151 153 143 125 126 117
129 131 121 141 142 133 143 145 135 128 130 120 116 118 108
114 116 106 93 95 85 100 102 90 94 96 84 101 103 91 109 108 97
103 102 91 103 102 91 84 84 73 99 99 88 108 107 94 119 120 103
115 115 99 130 130 116 151 151 137 160 160 144 161 162 143
153 152 132 177 174 152 192 189 165 186 184 157 192 190 161
186 184 155 188 183 155 173 168 140 151 144 117 137 130 103
140 131 104 169 160 133 150 138 110 124 113 85 96 85 57 109 98 70
98 84 55 89 73 44 77 61 33 76 60 31 81 65 36 81 65 36 82 64 36
82 64 36 73 55 25 75 58 27 60 44 13 80 64 33 90 76 47 105 91 62
137 121 92 90 74 45 92 73 45 91 68 42 89 64 38 86 62 36 72 51 26
51 31 11 46 28 9 50 33 16 61 42 23 73 49 27 71 46 18 65 38 9 81 54 22
82 55 23 82 58 25 87 68 34 95 80 44 92 82 44 97 89 51 96 91 52
99 94 52 98 93 51 102 97 58 109 104 67 105 98 68 58 50 28 32 23 10
28 18 10 31 21 13 31 21 13 33 21 11 33 19 10 40 23 13 42 26 13
44 28 13 47 31 16 108 96 68 105 94 66 102 91 63 100 88 60 83 72 44
82 70 45 72 60 34 117 105 80 130 118 93 92 79 56 81 69 46 60 48 25
54 42 19 62 50 27 73 61 37 81 69 46 93 81 55 97 86 60 102 90 65
102 90 65 104 92 69 107 94 71 102 90 65 92 82 58 78 75 53 64 62 44
45 43 30 65 62 52 33 30 22 25 21 18 19 15 14 21 16 15 18 16 12
14 13 9 12 10 6 13 12 8 13 11 10 13 11 10 13 11 10 13 11 10 16 14 12
17 15 13 18 16 14 19 17 15 21 19 18 34 32 31 28 26 25 38 36 34
47 43 40 45 41 38 49 45 41 46 43 37 53 50 42 52 49 41 70 70 59
73 73 59 85 85 72 126 126 114 156 158 146 161 163 151 133 135 123
136 138 126 137 139 127 162 164 152 127 129 117 154 156 144
172 174 162 151 153 141 150 152 142 118 119 110 115 117 107
122 124 114 118 119 112 100 101 94 84 85 78 79 80 73 72 74 64
82 83 73 78 80 70 88 90 80 89 88 79 85 85 76 89 88 79 73 72 63
88 87 76 102 102 88 105 106 90 106 107 91 122 121 108 136 135 122
134 135 119 123 123 105 149 147 127 169 168 145 169 168 143
191 191 163 181 178 150 190 188 157 186 185 153 183 179 149
157 150 121 159 153 123 156 149 120 163 154 125 160 151 122 105 96 67
90 81 52 116 105 77 105 91 62 91 77 48 74 61 31 81 68 38 85 70 41
85 70 41 85 70 41 85 70 41 63 45 14 57 39 8 89 73 42 99 86 54
107 94 62 132 119 86 148 135 103 91 76 45 93 75 45 94 71 42 91 66 38
86 62 36 71 50 25 54 35 14 43 26 7 52 34 17 56 36 17 68 46 24
70 44 19 67 40 10 85 59 27 86 60 26 82 59 23 78 59 22 90 76 37
102 93 52 102 95 54 94 90 48 102 98 56 101 97 55 106 101 61
112 106 69 113 106 77 72 64 42 36 29 15 30 22 13 30 22 13 31 21 13
33 21 11 34 20 11 37 21 10 40 23 11 42 26 11 44 28 13 93 81 57
95 83 60 99 86 63 101 89 65 103 91 68 88 76 53 79 67 43 64 51 28
68 56 33 76 64 41 58 46 22 78 65 42 93 81 57 94 82 58 94 82 58
94 82 58 93 81 55 94 82 56 96 84 59 99 87 61 97 85 62 102 90 67
99 87 61 88 78 54 76 73 51 54 53 35 38 36 23 44 41 33 31 27 22
22 18 15 17 13 12 18 14 13 13 12 8 11 9 5 12 10 6 12 10 6 12 10 8
12 10 8 13 11 10 13 11 10 16 14 12 17 15 13 18 16 14 19 17 15
25 23 21 32 30 28 38 36 34 35 33 32 51 47 44 44 40 37 46 43 37
47 44 38 64 60 52 53 50 40 45 45 31 63 63 50 102 102 88 120 120 107
142 142 131 150 152 140 142 144 132 133 135 123 134 136 124
170 172 160 139 141 128 142 144 132 161 163 151 162 164 152
143 145 135 120 121 112 112 113 104 101 103 93 95 97 89 76 77 70
58 59 52 51 52 45 55 56 47 66 68 58 66 68 58 78 80 70 70 69 61
81 80 71 70 69 61 68 67 58 78 78 67 98 98 87 94 94 80 101 100 87
119 119 105 119 119 105 118 118 102 117 117 101 131 130 112
179 178 158 171 170 147 181 181 154 175 173 144 193 192 160
178 177 145 182 178 148 171 164 135 185 178 149 177 170 141
166 160 130 168 159 130 111 102 73 105 96 67 119 108 80 118 104 75
100 87 57 88 75 45 87 74 44 87 71 42 94 78 49 103 87 58 110 94 65
86 68 38 90 75 43 95 82 50 119 106 74 118 108 75 103 93 60
165 152 120 94 78 47 94 76 46 94 71 42 91 66 38 86 62 36 70 49 24
57 37 17 41 24 5 52 34 15 52 33 12 64 43 20 68 43 17 67 40 10
88 61 29 90 64 29 82 59 23 72 53 16 89 75 36 101 91 51 99 92 51
102 98 56 106 101 59 103 99 57 106 101 59 112 106 69 113 107 75
78 70 48 36 29 15 27 20 11 29 21 12 30 20 12 32 20 10 33 19 10
36 20 9 47 30 18 50 34 19 42 26 11 88 73 53 74 60 40 71 56 36
79 64 44 77 62 42 62 47 27 60 48 27 74 62 39 85 72 49 144 132 109
99 86 63 81 69 46 80 68 44 88 76 53 88 76 53 89 77 54 95 83 58
95 83 58 95 83 58 95 83 58 100 87 64 95 83 60 85 73 47 69 59 35
57 53 34 51 51 35 49 49 36 39 38 29 20 19 13 18 16 12 14 12 11
12 10 8 12 10 6 12 10 6 12 10 6 12 10 6 13 11 10 13 11 10 13 11 10
13 11 10 16 14 12 17 15 13 18 16 14 23 21 19 25 22 23 28 26 27
40 38 38 34 32 31 38 34 31 44 40 37 44 40 35 43 39 34 59 56 48
53 50 40 47 45 32 54 52 39 89 87 74 110 108 95 146 146 134
140 140 128 163 163 152 133 133 121 133 133 121 163 163 152
139 141 128 127 129 117 148 150 138 139 141 128 127 128 119
104 105 96 95 97 87 85 87 77 73 75 67 47 48 41 34 35 28 34 35 28
47 48 41 49 50 43 54 55 48 57 58 51 62 61 52 74 73 64 56 55 47
69 68 59 74 73 62 97 97 85 80 79 68 89 89 75 103 103 89 97 97 83
117 117 101 122 122 106 166 165 147 174 173 153 169 168 145
159 159 132 188 185 157 191 189 158 183 181 152 169 165 137
184 177 148 192 185 156 180 174 142 188 182 150 170 162 130
133 124 93 140 131 100 156 145 114 118 104 75 120 106 77 106 93 63
95 82 52 93 80 50 119 105 76 112 98 69 120 105 76 101 85 54 99 84 53
97 84 52 106 93 61 99 86 54 84 71 39 172 159 127 98 83 52 85 67 36
83 61 32 78 53 25 71 45 20 58 37 13 51 31 11 47 30 10 50 33 14
53 34 13 62 40 18 73 47 24 68 40 13 84 58 23 91 65 28 85 61 24
76 57 18 91 77 36 96 87 45 95 88 45 109 105 61 102 98 54 99 95 50
108 104 60 106 101 61 114 108 74 87 80 55 37 30 14 31 24 12 29 21 12
30 20 12 32 20 10 33 19 10 38 22 11 55 39 26 67 49 34 42 24 10
93 78 58 69 54 34 62 47 27 74 60 40 83 68 48 74 60 40 76 64 43
88 75 55 83 71 48 115 103 79 147 135 112 103 91 68 96 84 61 99 86 63
96 84 61 92 79 56 92 80 54 92 80 54 92 80 54 92 80 54 92 79 56
87 75 51 79 67 41 64 55 31 49 45 26 38 38 22 34 34 20 34 33 25
19 18 11 18 16 12 14 12 11 12 10 8 12 10 6 12 10 6 12 10 6 12 10 6
13 11 10 13 11 10 13 11 10 13 11 10 16 14 12 17 15 13 18 16 14
23 21 19 18 15 16 24 21 22 30 27 28 51 48 47 51 47 44 52 48 45
45 41 36 39 36 28 50 47 36 56 53 42 63 60 47 73 71 58 75 73 60
107 104 92 149 149 138 142 142 131 154 154 142 147 147 135
130 129 118 161 161 149 136 138 126 130 132 120 140 142 130
126 128 116 112 113 104 88 90 80 80 82 72 70 71 62 45 47 39 27 28 21
20 21 14 26 27 20 34 35 28 38 40 32 43 44 37 47 48 41 56 55 49
69 68 59 52 51 42 63 62 54 75 74 65 88 87 76 90 90 78 90 90 78
103 103 89 102 102 88 115 115 99 125 125 109 152 151 133 155 153 133
130 129 107 177 176 151 178 176 147 176 174 143 186 184 155
203 199 171 215 209 179 218 211 181 220 214 182 186 180 148
159 150 119 181 172 141 188 179 148 144 133 102 129 116 86
154 140 111 150 137 107 120 106 77 120 106 77 116 103 73 111 97 68
125 111 82 105 90 59 131 115 84 113 100 68 115 102 70 104 91 59
112 99 67 185 172 140 94 78 47 85 67 36 84 62 33 81 56 28 77 51 26
62 41 16 52 35 13 47 32 12 49 34 14 54 37 15 63 42 19 72 46 23
65 38 11 91 65 30 102 76 39 107 83 46 99 80 41 104 90 49 106 94 53
95 88 45 98 94 47 105 101 54 101 97 51 106 102 57 109 105 63
110 105 68 109 102 75 55 49 31 34 27 14 31 24 12 32 22 14 34 22 12
36 21 12 44 28 17 57 41 28 60 42 27 39 21 6 84 68 51 99 84 66
114 99 81 119 103 86 112 96 79 101 86 68 90 78 57 87 74 53 76 64 43
68 56 35 132 122 98 145 135 111 105 95 71 100 91 67 102 92 68
97 87 63 95 83 58 95 83 58 95 83 58 95 83 58 88 76 53 79 67 43
67 55 30 56 46 22 41 37 18 27 28 11 23 22 11 27 26 18 19 18 11
17 15 11 14 12 11 13 11 10 12 10 6 12 10 6 12 10 6 12 10 6 13 11 10
13 11 10 13 11 10 13 11 10 17 15 13 18 16 14 19 17 15 23 21 19
30 28 26 30 28 26 25 22 23 39 37 35 58 54 51 59 55 50 52 48 43
46 43 35 50 47 36 59 56 46 77 74 61 93 90 78 99 96 83 107 104 92
149 149 138 166 165 154 148 148 137 154 154 142 137 136 125
155 155 144 132 134 121 133 135 123 126 128 116 106 108 96 88 90 80
65 67 57 57 59 49 47 48 39 23 24 17 17 18 13 15 16 11 21 22 17
26 26 22 30 31 26 36 37 32 43 44 39 51 49 43 62 61 54 45 43 37
57 56 50 64 64 55 81 80 71 85 85 74 88 87 76 99 99 86 103 103 89
108 108 92 124 124 108 134 132 114 130 129 109 125 125 102
181 181 156 171 169 142 176 174 145 196 194 165 221 216 188
211 204 174 214 208 178 216 210 178 183 176 144 190 181 150
198 190 158 205 197 165 175 164 134 176 162 133 182 168 139
170 157 127 143 130 100 154 140 111 133 119 90 129 116 86 126 112 83
133 118 86 117 101 70 99 86 54 107 94 62 121 108 76 97 84 52
164 151 119 126 111 80 99 81 50 91 69 40 81 56 28 76 53 27 66 47 22
55 38 17 48 33 13 48 33 13 56 39 18 61 42 19 68 45 21 59 34 6
88 62 25 110 84 45 116 93 53 100 82 40 99 83 40 108 97 53 109 100 55
107 102 53 109 106 57 103 100 53 103 100 53 116 112 68 112 107 67
112 105 75 82 76 56 33 27 11 33 26 15 35 25 17 36 24 15 38 23 15
47 30 20 58 42 29 54 36 21 43 25 11 130 115 97 126 110 93 123 108 90
123 108 90 126 110 93 123 108 90 116 103 83 109 96 76 104 92 71
89 77 56 93 84 60 156 147 122 119 109 85 92 82 58 99 89 65 104 94 70
103 91 66 103 91 66 103 91 66 103 91 68 87 74 53 69 57 36 54 42 21
49 39 19 26 22 5 23 22 9 21 21 10 17 16 7 18 17 10 17 15 11 14 13 9
13 11 10 12 10 6 12 10 6 12 10 6 12 10 6 13 11 10 13 11 10 13 11 10
13 11 10 17 15 13 18 16 14 19 17 15 23 21 19 30 28 26 31 29 27
37 34 33 31 27 26 54 50 47 61 58 52 61 58 50 59 56 48 65 62 52
78 75 64 86 83 71 99 96 83 100 97 85 110 108 95 146 146 134
151 150 139 146 146 134 151 150 139 151 150 139 146 146 134
124 123 112 129 131 119 111 113 101 86 88 76 66 68 58 43 45 35
35 36 27 24 26 18 20 21 16 20 21 16 16 17 12 12 12 8 19 19 15
24 25 20 33 33 29 40 40 36 45 43 37 57 56 50 40 39 32 52 50 44
46 45 36 75 74 65 67 66 55 81 80 69 91 91 80 101 100 87 99 99 86
119 120 103 121 119 101 116 114 97 159 158 138 171 170 147
160 157 131 182 179 153 199 197 168 204 200 172 205 198 169
213 206 177 201 195 163 209 203 171 221 213 182 217 208 177
224 215 184 205 197 165 208 197 167 184 171 141 164 151 121
163 150 120 177 164 134 163 150 120 161 147 118 128 115 85 125 110 78
116 100 69 149 136 104 130 117 85 116 103 71 93 80 48 164 151 119
159 143 112 131 113 83 113 93 63 94 71 42 83 60 34 71 52 26 59 42 20
50 35 15 49 34 14 59 42 20 61 44 22 65 44 22 55 33 4 102 76 39
125 100 58 122 99 57 104 86 42 97 82 37 112 101 55 112 104 57
107 102 53 112 108 59 106 102 55 101 97 51 121 117 73 108 103 64
115 109 77 82 77 53 37 30 14 34 27 16 36 26 18 38 25 16 39 25 16
41 24 14 56 40 27 53 35 20 52 33 19 121 106 86 123 108 88 126 111 91
127 112 92 127 112 92 126 111 91 125 110 90 122 107 87 118 106 83
116 104 81 111 101 77 109 99 75 163 154 129 111 101 77 100 91 65
88 78 52 96 84 59 100 88 62 103 91 68 102 90 67 107 94 73 83 70 52
60 47 31 43 32 20 32 26 17 21 21 12 16 15 6 12 11 2 17 15 9 16 14 10
14 13 9 13 12 8 13 11 10 13 11 10 13 11 10 13 11 10 13 11 10 13 11 10
13 11 10 16 14 12 18 14 15 24 19 21 26 22 21 25 21 20 33 29 26
39 35 32 44 40 35 44 40 35 50 44 39 55 49 44 62 56 49 58 53 45
56 51 41 82 76 67 100 97 85 115 112 100 115 112 100 108 106 93
145 143 130 139 137 124 163 160 149 155 152 141 149 146 135
120 117 106 118 118 106 115 114 103 84 84 73 68 67 56 46 45 36
30 29 20 20 19 11 20 19 13 18 16 12 18 16 12 18 16 12 18 16 12
18 16 12 31 29 25 25 23 19 28 27 23 23 21 15 47 46 39 52 50 44
45 43 37 54 53 44 66 65 56 63 62 54 77 76 68 74 73 62 98 98 87
96 96 82 115 115 99 116 114 97 121 119 101 198 196 178 143 142 122
156 153 131 186 184 159 196 193 167 197 193 165 219 212 183
194 188 156 207 201 169 215 209 175 206 198 165 216 207 174
230 221 190 240 232 200 210 200 167 210 200 167 186 175 142
179 168 135 182 169 137 177 164 132 159 146 114 119 106 74 109 93 62
113 98 67 136 123 91 151 138 106 115 102 70 118 105 73 165 149 120
191 176 147 143 125 97 114 94 66 99 78 51 100 79 54 88 69 46 83 66 44
54 39 19 50 35 15 57 42 20 57 40 19 56 40 16 58 38 8 103 80 44
128 103 64 131 108 68 113 95 53 107 91 48 115 104 60 110 102 57
102 95 50 113 109 62 114 110 64 108 104 58 122 118 74 113 108 68
117 111 79 76 71 46 29 22 4 33 26 15 35 25 17 36 24 15 38 23 15
45 29 18 50 34 21 57 39 25 62 44 30 108 93 73 113 98 78 120 105 85
125 110 90 127 112 92 126 111 91 126 111 91 126 111 91 126 111 89
123 111 88 119 107 84 117 105 82 136 124 100 168 156 133 109 97 72
112 101 75 102 90 65 96 84 59 87 75 51 86 74 50 90 78 57 96 83 65
82 68 55 49 37 27 32 26 21 21 20 16 16 14 8 12 11 4 16 14 10 16 14 10
14 13 9 13 12 8 13 11 10 13 11 10 13 11 10 13 11 10 13 11 10 13 11 10
14 12 11 17 15 13 22 17 19 23 18 20 31 27 26 42 38 34 39 35 32
46 43 37 54 51 43 59 56 48 51 46 39 71 65 60 58 53 45 68 62 55
82 76 67 94 89 80 106 103 90 125 123 110 109 107 94 121 118 105
127 124 111 138 136 123 157 154 144 146 144 133 138 135 125
108 105 95 95 94 83 67 66 55 47 47 35 33 32 23 30 29 20 16 15 6
11 10 1 13 12 6 16 14 10 16 14 10 16 14 10 16 14 10 18 16 12 26 24 20
26 24 20 25 23 19 21 20 16 40 39 32 53 52 45 40 39 32 48 47 41
74 73 64 52 51 42 78 78 69 77 77 66 88 87 76 104 104 90 110 110 96
102 100 85 155 153 135 174 173 155 139 138 120 177 173 154
198 195 173 203 200 176 209 204 176 207 201 171 187 181 149
214 208 174 199 193 159 202 194 160 210 202 168 220 212 180
227 219 187 221 210 177 215 204 171 193 182 149 192 181 148
191 178 146 182 169 137 148 135 103 146 132 100 140 125 93 128 113 82
129 116 84 127 114 82 121 108 76 120 107 75 144 128 99 173 157 128
127 108 80 106 85 58 94 73 49 90 72 46 90 73 49 84 67 46 54 39 19
46 34 13 45 31 8 47 32 10 50 34 10 53 35 7 104 83 47 131 108 70
122 101 62 106 87 48 108 94 53 109 98 56 111 104 61 119 112 69
109 105 61 113 109 64 109 105 61 126 121 77 110 105 66 121 115 83
80 75 49 38 32 13 32 25 14 34 23 16 35 23 14 37 22 14 49 32 22
55 39 26 66 47 33 71 53 39 132 117 95 127 112 90 120 105 83
116 102 79 121 106 84 123 109 86 128 111 90 127 110 89 132 117 95
129 115 92 126 111 89 123 109 86 112 97 75 168 153 131 151 137 112
129 117 91 130 118 93 116 104 79 99 86 63 93 81 57 80 67 46 73 60 44
67 53 40 64 52 43 32 26 21 21 20 16 16 14 8 12 11 4 16 14 10 14 13 9
14 13 9 14 13 9 13 11 10 13 11 10 13 11 10 13 11 10 15 10 10 15 10 10
17 13 12 19 15 14 25 21 20 23 19 18 23 19 18 26 22 19 40 34 29
46 40 33 61 55 46 71 66 56 66 61 54 66 61 54 80 75 68 71 66 56
89 83 74 103 97 88 104 102 89 110 108 95 109 107 94 124 122 109
115 112 102 130 127 117 141 138 127 136 133 123 132 129 121 86 83 75
54 53 44 40 39 30 23 22 13 25 24 17 20 19 13 11 10 3 9 7 1 11 9 5
13 12 8 13 11 10 13 11 10 13 11 10 17 15 13 21 19 18 27 25 24
21 19 18 19 17 13 31 29 25 55 54 50 34 33 29 47 46 39 73 71 65
51 50 41 77 76 68 66 65 54 96 95 84 85 85 72 110 110 96 116 114 99
174 173 155 148 146 128 167 166 148 186 182 166 216 212 193
184 181 157 219 215 187 186 180 150 193 187 155 208 202 168
183 177 142 188 180 146 197 189 155 208 199 168 211 202 171
214 203 170 215 204 171 194 183 151 204 194 161 211 198 166
171 158 126 172 159 127 151 138 106 135 120 89 130 114 83 137 124 92
141 128 96 140 127 95 132 119 86 128 115 85 155 139 111 116 98 70
107 89 61 101 82 57 90 74 47 96 79 55 87 70 48 51 36 16 42 27 7
40 25 3 44 30 7 53 36 12 58 40 12 80 61 29 118 97 61 103 83 47
99 82 44 111 99 59 117 108 68 120 113 72 114 109 68 105 100 58
110 106 64 110 106 64 129 124 83 121 116 79 120 114 82 88 83 57
34 28 10 32 25 14 35 25 17 35 23 14 37 22 14 44 28 17 54 37 25
67 49 34 75 57 42 144 130 107 142 127 105 140 125 103 137 123 100
127 112 90 125 108 86 123 106 84 125 108 86 134 117 96 130 116 93
127 112 90 125 110 88 128 113 91 111 96 74 166 152 127 140 125 101
130 116 91 123 111 86 116 104 81 107 94 73 96 83 65 76 63 47 55 42 28
48 36 26 32 26 21 21 20 16 16 14 8 12 11 4 14 13 9 14 13 9 14 13 9
14 13 9 13 11 10 13 11 10 13 11 10 13 11 10 15 10 10 16 12 11
18 14 13 22 17 17 23 17 17 33 26 24 35 29 26 30 24 20 32 26 19
35 30 20 53 48 36 65 60 48 68 62 53 82 76 69 77 72 62 80 75 66
84 79 69 115 110 101 112 107 95 91 86 74 114 109 97 119 114 102
118 112 103 121 118 108 123 120 110 130 127 117 118 116 105 61 58 50
31 29 23 28 27 21 41 40 36 30 28 24 20 19 15 13 12 8 11 9 5 12 10 8
12 10 8 12 10 8 12 10 8 12 10 8 16 14 12 17 15 13 27 25 24 19 17 15
17 15 11 23 21 17 55 54 50 30 28 24 49 48 42 61 60 53 59 58 49
73 72 63 61 61 49 77 77 66 87 87 73 99 96 83 129 127 112 192 190 172
164 162 145 184 182 164 199 195 178 185 182 162 196 193 169
203 198 173 165 159 129 209 203 171 192 186 152 174 169 134
177 169 135 182 174 140 185 177 146 192 184 153 195 185 152
202 192 159 197 187 154 216 205 173 214 201 169 196 183 151
173 160 128 155 142 110 144 128 97 134 119 88 140 127 95 141 128 96
166 153 121 127 113 84 121 108 78 148 134 105 114 99 70 117 99 73
113 97 71 101 84 58 101 84 60 89 72 48 50 35 13 38 23 3 43 28 6
50 35 13 62 46 22 69 53 26 78 60 29 128 110 77 117 100 67 127 112 79
112 102 67 133 125 89 129 124 87 98 92 55 101 96 59 109 104 67
113 108 68 133 128 88 128 122 88 148 141 111 68 63 40 34 28 12
32 25 14 35 25 17 35 23 14 36 21 12 35 18 8 45 29 16 62 44 30
73 54 40 134 117 96 137 120 98 140 123 102 142 125 104 148 131 110
146 127 106 139 120 99 134 114 93 124 105 84 121 105 83 119 102 81
116 99 77 120 103 82 112 95 74 131 114 90 163 147 123 124 107 85
113 98 76 109 95 72 101 86 66 93 78 60 91 75 60 71 57 43 33 21 11
28 22 17 19 17 13 14 13 7 13 12 6 14 13 9 14 13 9 14 13 9 14 13 9
14 12 11 14 12 11 14 12 11 14 12 11 14 12 11 17 15 13 19 17 15
24 20 19 30 21 19 32 24 20 42 34 30 37 29 22 47 39 31 42 35 24
53 46 34 68 61 50 59 51 42 87 79 70 94 86 77 93 85 76 73 65 54
101 93 82 96 89 78 101 93 82 101 93 82 114 106 95 133 126 115
119 114 102 120 117 106 108 105 95 78 75 64 47 44 36 24 20 17
44 40 39 46 42 41 32 28 27 31 29 27 17 15 13 9 7 5 9 7 5 10 8 6
10 8 6 10 8 6 10 8 6 11 9 7 17 15 13 28 26 25 19 17 15 13 12 8
14 13 9 51 49 45 33 31 27 35 34 28 53 52 45 62 61 54 70 69 61
68 66 55 85 82 71 96 94 81 99 96 83 148 144 129 181 176 162
174 170 153 176 172 155 206 203 183 184 180 161 212 209 187
158 152 129 185 178 151 204 197 165 152 147 112 152 147 112
156 148 114 164 156 123 176 167 136 184 176 144 192 181 150
192 181 150 192 181 150 192 181 150 200 189 156 202 192 159
204 194 161 166 153 121 183 169 140 156 143 113 146 132 102
155 141 112 155 139 111 119 103 75 108 94 67 146 132 104 116 99 73
125 109 82 127 108 84 116 99 75 103 86 62 83 68 44 69 54 32 58 46 22
45 33 10 56 41 19 59 45 20 47 30 6 89 73 46 114 98 72 123 110 80
121 110 79 123 114 83 153 149 116 152 148 115 109 105 72 105 102 67
107 103 68 119 113 78 155 149 114 141 135 102 158 151 124 61 55 35
32 25 9 37 29 18 35 25 17 34 22 12 34 20 11 31 15 5 48 32 19 74 56 41
85 67 53 124 107 85 126 109 88 130 113 91 133 116 95 144 125 104
145 126 105 148 128 107 144 125 104 146 127 106 141 121 100
134 114 93 134 114 93 124 105 84 115 96 75 111 92 69 148 132 108
148 131 110 117 100 78 112 97 75 98 83 63 66 51 33 63 47 32 57 43 29
47 35 25 25 19 14 17 15 11 13 12 6 14 13 7 14 13 9 14 13 9 14 13 9
14 13 9 14 12 11 14 12 11 14 12 11 14 12 11 17 15 13 19 17 15
23 21 19 30 26 23 42 34 30 38 25 20 34 21 16 30 20 12 38 29 18
55 45 34 70 60 48 71 62 49 69 59 48 60 50 42 110 102 94 91 84 73
86 78 67 79 71 60 87 79 68 86 78 67 91 84 73 96 89 78 116 109 97
108 100 89 98 93 83 82 79 69 57 54 41 38 35 27 36 31 31 30 25 27
22 17 19 17 12 14 16 13 14 12 10 10 13 11 12 13 11 12 10 7 8 10 8 6
10 8 6 10 8 6 11 9 7 14 12 11 24 22 20 26 24 22 13 11 10 16 14 10
44 42 38 38 36 32 31 29 25 45 43 37 60 59 52 68 67 60 79 76 68
106 103 92 106 103 90 100 97 85 188 183 169 174 169 155 170 166 149
195 190 174 186 182 166 202 198 179 178 175 153 167 162 138
212 205 178 156 149 120 142 136 104 156 150 116 157 149 116
163 155 123 170 162 130 176 167 136 179 168 137 179 168 137
179 168 137 179 168 137 193 182 151 218 207 177 221 210 179
182 171 141 177 164 134 163 150 120 157 144 114 159 146 116
148 134 105 128 115 85 105 91 64 136 122 95 138 122 95 128 112 86
128 112 88 138 121 97 120 106 81 105 94 68 87 75 51 54 42 19 53 41 18
71 58 35 65 53 29 57 43 18 78 64 39 133 119 94 126 115 89 109 99 73
127 123 95 157 155 126 177 175 146 110 108 77 122 121 89 138 134 101
116 110 78 187 181 149 190 183 153 186 179 154 72 65 47 46 39 25
37 29 18 35 25 17 34 22 12 33 19 10 38 22 11 52 36 23 76 58 44
85 67 53 113 93 72 115 96 75 118 99 76 121 102 79 129 110 89
135 115 95 141 121 100 142 122 102 150 128 109 149 127 107
150 128 109 147 125 105 148 126 106 137 116 96 131 112 89 108 89 66
147 130 109 126 109 88 109 95 72 90 78 57 67 52 35 51 35 20 37 23 9
32 20 10 22 16 11 14 13 9 13 12 8 14 13 9 14 13 9 14 13 9 14 13 9
14 13 9 14 12 11 14 12 11 14 12 11 14 12 11 19 17 15 23 21 19
28 26 25 32 28 25 37 26 23 53 38 34 52 37 31 42 30 20 33 21 11
50 39 27 65 54 42 65 56 43 62 52 39 63 53 43 91 84 73 107 100 86
99 89 77 105 95 83 91 81 69 94 85 72 94 86 75 93 85 74 103 96 85
94 86 75 73 68 59 56 53 42 38 38 24 32 31 22 26 24 22 12 9 12 10 7 10
18 15 18 10 7 10 13 10 14 14 12 15 14 12 15 10 7 8 10 7 8 8 8 8 8 8 8
10 10 10 9 9 9 15 15 15 34 34 34 16 14 12 17 15 13 34 32 31 45 43 41
28 27 23 38 36 32 57 56 50 66 64 58 70 66 58 99 96 85 92 89 76
106 103 90 211 206 192 178 174 159 155 151 136 214 210 195
179 175 159 221 218 198 165 162 141 192 186 163 191 184 157
140 133 103 149 143 111 159 154 119 157 151 119 159 153 121
162 155 125 164 155 127 163 155 123 163 155 123 163 155 123
163 155 123 197 186 156 213 201 173 190 179 151 161 150 122
175 161 134 176 162 135 167 156 128 154 143 115 150 138 110
125 114 86 104 93 65 133 119 92 141 127 102 132 117 93 132 117 93
141 127 102 100 87 64 124 114 90 114 105 81 72 63 39 60 49 28
105 95 73 90 80 58 68 56 33 94 82 58 143 134 110 143 136 111
105 100 75 171 169 142 205 205 177 203 203 176 104 105 75 141 139 110
178 173 143 156 149 120 207 201 171 214 209 181 155 150 127 49 43 27
38 31 19 37 29 20 36 26 18 34 22 12 33 19 10 40 23 13 51 35 22
71 53 39 78 60 46 104 82 62 106 84 64 110 88 66 112 90 68 117 95 73
122 101 79 128 107 82 134 113 90 133 109 90 139 115 96 146 122 103
146 124 104 149 127 107 155 133 113 148 127 104 136 116 96 123 106 84
138 121 99 102 87 67 85 72 53 51 37 21 44 30 18 32 20 10 18 8 0
18 15 9 13 12 8 13 12 8 13 12 8 14 13 9 14 13 9 14 13 9 14 13 9
14 12 11 14 12 11 14 12 11 14 12 11 23 21 19 28 26 25 31 29 27
30 26 23 55 44 41 62 49 44 54 41 34 54 42 32 53 41 29 48 36 24
58 47 33 74 62 48 62 51 36 59 50 37 87 78 65 113 103 91 94 85 72
87 78 65 110 101 88 92 83 70 106 96 86 100 92 81 103 96 85 87 79 70
61 55 46 40 38 27 27 26 18 30 28 22 24 21 22 14 12 15 10 7 10 10 7 10
9 6 9 16 13 16 17 14 17 11 8 11 10 7 8 10 7 8 8 8 8 8 8 8 10 10 10
7 7 7 10 10 10 41 41 41 17 15 13 18 16 14 27 25 24 49 47 46 34 33 29
33 31 27 49 48 42 63 62 56 75 72 64 96 93 83 93 90 78 143 140 128
216 211 197 151 147 133 172 168 154 209 204 190 192 188 173
220 216 199 183 179 160 204 199 176 146 142 113 158 152 122
169 162 130 162 155 123 158 152 120 157 150 121 156 149 120
154 147 117 154 145 116 153 144 115 153 144 115 153 144 115
161 150 122 164 152 126 142 130 104 150 138 112 170 156 131
187 173 148 174 162 137 149 137 111 139 127 102 123 111 86 108 96 70
124 112 87 125 114 88 133 121 98 133 121 98 125 113 90 119 109 85
117 107 83 110 100 76 103 93 71 98 88 66 118 108 86 95 84 63
106 98 76 122 115 90 141 133 109 166 161 135 115 113 86 191 190 165
252 252 227 231 233 207 136 137 112 164 163 138 217 214 190
229 223 200 216 211 187 226 221 200 110 104 85 32 25 11 36 28 17
37 29 20 36 26 18 34 22 12 33 19 10 34 17 7 44 28 15 61 43 28
66 47 33 151 127 107 118 94 75 116 92 70 105 82 58 110 87 61
113 91 62 120 98 67 126 104 75 139 115 94 136 109 91 134 107 89
134 110 91 145 121 102 151 127 107 149 127 107 143 123 103 110 92 73
103 85 66 84 68 51 55 42 28 39 27 15 34 23 16 27 19 13 13 7 2 14 10 6
12 10 6 13 12 8 13 12 8 13 12 8 13 12 8 13 12 8 13 12 8 14 12 11
14 12 11 14 12 11 14 12 11 13 11 10 18 16 14 30 28 26 42 38 34
49 43 38 56 50 43 60 52 43 57 47 37 63 51 39 68 56 44 75 61 48
85 71 55 88 77 60 60 48 34 88 76 62 117 105 91 112 101 86 103 91 77
106 95 81 97 85 73 69 59 46 88 79 68 100 92 81 95 87 78 58 53 45
38 34 29 25 23 19 26 26 26 21 21 21 14 14 14 11 8 9 10 7 8 10 7 8
11 8 9 12 12 12 47 47 47 22 22 22 10 11 8 8 9 6 8 9 6 9 10 7 9 10 7
9 10 7 17 18 15 41 39 38 18 16 14 21 19 18 67 65 63 24 20 17 39 35 32
53 50 44 65 61 56 71 67 59 91 88 77 103 101 88 172 170 157
202 197 183 142 138 123 197 192 180 181 176 164 230 223 211
192 185 171 223 217 198 193 187 166 147 142 117 157 152 122
158 154 121 152 148 115 151 145 115 159 153 123 159 152 125
149 142 117 147 137 113 135 126 102 141 131 107 134 124 100
146 136 112 135 126 102 138 128 104 152 140 117 165 153 129
152 140 117 145 133 110 146 134 111 138 128 104 139 129 105
119 109 85 127 117 93 154 144 120 142 132 111 149 139 118 138 128 106
136 128 106 126 118 95 127 119 97 126 118 95 107 99 79 130 122 102
115 107 85 126 121 98 155 150 125 153 151 122 167 164 138 202 202 177
228 227 205 250 251 230 243 244 223 187 187 169 177 175 159
241 237 222 247 242 228 218 211 200 245 238 227 96 89 78 36 31 21
35 30 20 38 30 21 36 26 18 35 23 14 34 20 11 35 18 8 37 21 8 48 30 16
55 37 23 168 144 127 155 131 112 127 103 84 127 104 80 112 90 61
112 90 59 115 93 59 120 98 67 128 102 79 113 86 68 110 84 65
123 97 78 124 100 81 127 103 84 113 91 71 92 70 50 74 54 36 58 43 25
75 62 46 71 60 48 44 34 24 32 24 18 23 17 13 13 9 3 12 10 6 12 10 6
12 10 6 12 10 6 13 12 8 13 12 8 13 12 8 13 12 8 14 12 11 14 12 11
14 12 11 14 12 11 32 30 28 34 32 31 31 29 27 24 22 18 37 33 28
45 42 34 56 51 41 61 54 43 50 41 28 65 54 42 92 78 64 94 81 65
96 85 68 89 76 60 65 51 37 112 99 85 118 105 91 112 101 86 107 96 82
103 91 77 88 76 64 93 83 73 94 86 77 85 80 70 57 53 45 37 35 29
23 23 23 26 25 28 21 21 21 14 14 14 11 8 9 10 7 8 11 8 9 9 6 7
21 21 21 79 79 79 61 61 59 8 9 6 5 5 3 6 6 4 8 9 6 9 10 7 9 10 7
9 10 7 51 48 47 18 16 14 21 19 18 54 52 50 30 26 23 37 33 30 56 52 46
59 56 48 53 50 42 86 83 73 101 98 88 196 194 181 157 152 140
158 154 142 211 206 194 186 182 170 222 214 203 194 187 173
245 239 223 176 171 150 154 149 124 162 158 130 150 145 115
125 121 91 148 141 111 159 152 125 164 157 132 157 150 125 126 116 94
141 131 109 121 111 90 121 111 90 132 122 100 133 123 101 140 130 108
150 141 117 147 135 112 137 125 102 135 122 99 142 129 106
148 138 114 143 134 110 135 126 102 145 135 111 163 153 131
168 158 136 150 142 120 155 147 125 131 124 101 133 125 102
140 132 109 96 89 66 110 102 82 166 158 138 150 144 121 124 119 95
189 186 160 172 170 141 187 187 160 229 229 204 237 238 215
252 253 234 246 246 230 223 223 209 206 203 193 250 247 239
255 252 245 250 244 240 244 235 231 73 65 58 34 28 21 36 31 21
38 30 21 36 26 18 35 23 14 34 20 11 37 21 10 37 21 8 43 25 11
53 35 20 134 111 96 176 154 136 144 123 103 128 107 84 135 115 87
131 110 81 127 107 75 126 104 75 112 88 67 103 79 60 89 65 46
80 55 36 82 58 39 75 51 32 79 57 37 94 73 53 104 85 66 94 79 61
81 68 52 112 100 88 71 61 51 49 41 35 36 30 25 30 26 21 12 10 6
12 10 6 12 10 6 12 10 6 13 12 8 13 12 8 13 12 8 13 12 8 14 12 11
14 12 11 14 12 11 14 12 11 30 28 26 25 23 21 28 26 25 37 35 31
36 32 27 42 38 30 55 50 40 67 60 48 80 71 58 64 53 41 76 63 49
102 88 75 102 89 73 103 90 74 107 91 76 95 80 65 121 107 91
122 108 92 111 98 82 112 99 85 104 92 80 100 90 80 91 84 75 82 76 67
53 50 42 33 31 27 20 20 20 22 22 24 21 21 21 16 13 14 11 8 9 11 8 9
16 13 14 13 11 12 9 9 9 45 45 45 28 28 26 7 7 5 7 9 6 6 6 4 7 7 5
10 8 6 9 10 7 9 10 7 38 36 32 40 38 34 19 19 17 34 32 31 38 34 31
33 30 24 58 54 49 51 48 40 59 56 48 61 58 50 96 93 83 220 217 206
128 125 112 176 173 160 191 188 177 219 214 204 202 197 185
232 227 213 213 209 192 185 182 162 182 177 152 153 149 120
136 131 101 140 136 106 158 153 125 157 152 124 144 139 113
127 119 97 128 120 98 106 98 76 123 116 93 128 120 98 130 119 98
135 125 106 138 127 108 134 124 102 128 115 94 121 108 87 121 111 90
133 123 101 142 132 111 131 124 101 145 138 115 154 146 123
164 156 134 169 161 138 152 145 122 155 150 127 143 137 116
132 126 106 126 121 100 114 108 87 147 142 121 190 185 164
147 142 119 164 161 137 184 182 155 205 205 175 227 227 199
233 235 210 252 251 231 255 255 239 252 250 235 243 241 228
228 225 217 249 245 240 255 253 250 255 255 253 247 241 238 72 66 63
34 26 22 33 25 19 38 30 21 36 26 18 35 23 14 34 20 11 42 25 15
38 22 9 41 23 9 52 33 19 138 118 104 144 124 108 178 158 140
149 129 109 146 128 102 134 115 87 120 102 71 110 89 62 84 63 40
76 52 33 77 53 34 86 61 42 113 89 70 103 79 60 94 73 53 93 73 55
98 81 62 77 61 44 59 45 32 70 60 48 76 69 60 48 42 35 33 30 24
31 27 24 12 10 6 12 10 6 12 10 6 12 10 6 13 12 8 13 12 8 13 12 8
13 12 8 14 12 11 14 12 11 14 12 11 14 12 11 14 12 11 21 19 18
31 29 27 34 33 29 43 39 34 42 38 30 53 47 38 66 58 49 84 74 64
88 76 64 78 64 50 87 73 60 112 99 83 110 97 81 116 101 85 112 96 81
114 100 84 129 115 99 123 110 94 116 102 89 108 94 83 107 95 86
99 89 81 86 81 73 50 46 41 30 28 24 16 16 16 21 21 23 21 19 20
16 13 14 11 8 9 11 8 9 16 13 14 27 25 26 7 7 7 5 5 5 7 7 5 15 16 13
9 12 8 10 11 8 9 7 5 9 7 5 8 9 6 9 10 7 12 10 6 70 69 65 22 23 20
20 19 15 44 40 35 31 27 22 61 58 50 45 42 34 56 52 44 60 57 49
122 119 109 199 196 186 121 118 105 203 201 188 172 169 159
233 230 219 200 196 184 240 235 223 193 189 175 197 193 174
182 177 154 167 163 134 157 152 122 155 151 121 136 131 103
139 134 109 130 124 101 115 109 86 113 105 83 126 118 95 124 117 94
127 119 97 139 128 109 142 132 113 128 118 99 111 100 81 116 103 83
111 99 78 117 107 85 130 119 98 124 117 94 119 111 88 152 145 122
165 157 135 162 154 131 150 142 122 155 150 129 144 138 117
130 124 103 159 153 132 134 129 108 145 139 118 155 150 129
171 165 144 180 175 151 190 187 163 197 194 168 220 220 190
231 231 204 223 223 198 255 255 239 255 255 243 255 252 239
241 238 227 235 232 224 250 246 241 255 251 247 255 255 253
255 249 246 99 93 90 33 25 21 25 17 11 38 30 21 36 26 18 35 23 14
33 21 11 43 28 17 40 23 11 41 23 11 47 29 14 160 141 129 130 111 97
146 128 111 140 123 104 109 92 70 84 68 44 81 65 38 95 79 52
114 93 70 126 104 84 136 115 95 132 109 92 131 108 91 129 107 90
120 98 80 104 85 66 78 61 44 66 51 35 38 26 12 30 20 10 46 38 29
30 25 18 21 17 11 10 8 4 13 11 10 13 11 10 13 11 10 13 11 10 13 11 10
13 11 10 13 11 10 13 11 10 14 12 11 14 12 11 14 12 11 14 12 11
16 14 12 18 16 14 20 18 17 21 20 16 31 27 22 35 31 23 43 38 28
48 41 32 73 63 53 79 68 56 90 77 63 89 75 62 104 88 73 112 96 81
109 94 78 106 90 75 119 103 88 121 105 90 122 106 91 116 100 87
114 100 88 105 93 83 95 85 77 88 80 73 71 67 61 40 38 36 33 33 33
23 23 25 21 19 20 17 14 15 12 10 10 11 8 9 14 12 13 12 10 10 8 8 8
8 8 8 8 9 6 9 10 7 9 10 7 9 10 7 11 9 7 17 15 13 15 16 13 9 10 7
9 7 3 52 50 46 46 44 42 21 20 16 56 52 46 29 26 18 60 57 49 35 32 21
51 48 40 50 47 39 163 160 149 160 158 147 126 121 111 209 203 194
193 188 179 230 224 215 240 235 223 232 227 215 225 220 206
224 220 203 222 216 193 194 189 161 164 159 129 145 141 110
155 148 120 144 137 112 127 119 97 120 112 90 129 121 99 123 116 93
121 113 91 123 116 93 142 132 111 127 117 95 124 114 92 131 121 99
109 96 76 126 114 93 132 122 100 123 112 91 110 102 82 137 129 109
148 140 120 148 140 120 157 149 129 151 143 125 143 135 117
138 130 110 145 137 117 149 141 121 152 144 124 156 148 128
173 165 145 180 172 152 192 186 163 216 211 187 233 230 204
217 215 186 241 241 213 234 233 208 249 246 226 255 255 243
255 254 242 250 246 234 247 244 233 255 251 243 255 255 250
255 252 247 252 246 241 162 156 151 42 34 28 42 34 28 44 36 27
36 26 18 34 22 12 39 27 17 38 24 13 40 23 13 42 26 13 50 34 21
115 99 86 84 68 55 80 65 49 84 68 51 107 92 72 126 111 89 142 127 105
160 143 119 159 140 117 157 135 116 155 133 115 153 130 113
151 129 112 150 128 111 138 118 100 124 104 88 89 71 56 58 44 30
32 20 8 23 13 3 26 18 10 21 15 10 17 13 10 14 13 9 14 12 11 13 11 10
13 11 10 13 11 10 13 11 10 13 11 10 13 11 10 13 11 10 14 12 11
14 12 11 14 12 11 14 12 11 14 12 11 16 14 12 18 16 14 20 19 15
26 23 17 32 29 21 43 38 30 49 44 34 49 42 31 60 51 38 74 62 48
88 74 61 98 82 67 106 90 75 109 94 78 106 90 75 105 89 74 125 109 94
136 120 105 128 112 99 118 104 93 112 98 87 102 89 80 93 84 78
67 64 58 37 34 33 30 30 30 22 22 24 20 18 19 17 14 15 12 10 10 11 8 9
14 12 13 12 10 10 8 8 8 8 8 8 8 9 6 9 10 7 9 10 7 9 10 7 13 11 10
16 14 12 14 14 12 12 12 8 28 27 21 19 18 11 62 61 57 24 22 18
45 41 36 32 29 21 59 56 46 36 33 23 52 49 41 65 62 54 199 196 188
143 140 130 146 140 131 188 182 173 233 228 218 240 235 225
248 243 231 247 242 230 248 244 229 243 239 223 236 230 207
201 196 170 166 161 133 141 137 109 131 124 99 119 111 86 114 106 84
117 110 87 124 117 94 126 118 95 131 124 101 140 132 109 124 114 92
123 112 91 127 117 95 135 125 104 128 115 94 133 121 100 123 112 91
105 95 73 140 131 111 137 129 109 138 130 110 157 149 129 138 130 112
138 130 112 138 130 112 138 130 112 158 150 130 145 137 117
150 142 122 169 161 141 170 162 142 174 166 146 189 184 161
217 212 187 224 222 193 223 220 192 252 252 225 242 241 216
255 251 232 255 252 237 255 255 244 254 249 237 252 250 235
255 253 241 255 255 248 255 255 247 255 250 240 192 187 175 46 39 27
45 38 26 44 36 27 35 25 17 34 22 12 38 25 16 38 24 13 38 24 13
42 26 13 50 34 21 90 76 65 108 94 81 122 108 94 114 100 84
163 150 131 165 152 131 146 134 111 154 139 117 163 143 122
164 142 122 164 142 125 165 143 126 156 134 116 155 133 115
144 124 106 130 110 94 106 88 74 69 56 42 49 37 25 31 22 11 22 14 5
15 9 4 16 12 9 19 17 13 13 11 10 13 11 10 13 11 10 13 11 10 13 11 10
13 11 10 13 11 10 13 11 10 14 12 11 14 12 11 14 12 11 13 11 10
13 11 10 13 11 10 16 14 12 18 16 12 16 12 7 21 17 11 26 23 15
33 27 18 47 40 29 55 45 32 63 52 37 71 57 43 90 77 61 99 85 69
108 92 77 106 90 75 106 90 75 106 90 75 119 103 88 137 121 108
114 100 88 108 94 83 98 86 76 89 81 73 65 59 54 33 31 27 27 27 27
19 18 21 20 18 19 16 14 12 12 10 8 12 10 8 13 11 12 12 10 10 8 8 8
8 8 8 9 9 9 10 10 10 9 9 9 9 9 9 16 14 12 13 11 10 12 12 10 14 15 10
23 21 15 15 11 6 71 70 66 40 38 34 42 38 30 47 45 34 70 67 56
47 45 34 37 34 26 107 103 98 187 184 176 137 134 126 171 168 160
203 200 192 240 236 228 255 252 241 254 251 238 251 249 236
254 251 238 255 253 237 251 246 222 197 192 167 155 151 123
124 119 91 110 103 78 109 102 77 116 109 86 122 114 92 122 114 92
140 132 109 133 125 102 107 99 77 114 104 83 123 112 91 127 117 95
126 116 94 118 106 85 112 100 79 120 110 88 138 128 106 128 120 100
140 131 111 144 136 116 129 121 101 119 110 92 126 117 99 136 128 110
143 135 117 154 145 125 142 134 114 145 137 117 164 156 136
158 150 130 165 157 137 185 179 156 207 202 176 211 209 180
207 205 176 247 247 217 251 251 224 254 250 231 238 233 219
254 249 237 247 242 228 244 243 223 242 241 219 249 248 228
252 251 233 250 247 228 217 213 194 66 60 41 53 44 29 45 36 25
35 25 17 33 21 11 38 25 16 38 24 13 38 24 13 42 26 13 50 34 21
139 125 114 144 130 119 140 127 113 133 120 104 128 114 98
165 152 134 151 138 118 150 135 115 151 131 113 156 134 116
161 139 121 164 142 125 154 132 114 153 130 113 141 121 102
125 107 90 98 82 67 68 54 41 55 43 31 37 27 17 23 15 6 16 10 6
15 11 8 13 12 8 13 11 10 13 11 10 13 11 10 13 11 10 13 11 10 13 11 10
13 11 10 13 11 10 14 12 11 14 12 11 14 12 11 14 12 11 10 8 6 12 10 8
14 12 11 16 14 12 23 19 16 23 19 14 22 18 13 23 18 11 33 25 17
44 36 25 56 46 36 63 51 39 85 74 60 93 79 63 101 87 72 106 90 75
97 81 66 104 88 73 109 91 76 108 89 77 105 89 76 97 83 72 86 74 65
79 69 61 62 56 49 31 27 24 24 22 20 15 15 15 20 18 17 16 14 12
12 10 8 12 10 8 13 11 12 12 10 10 8 8 8 8 8 8 9 9 9 10 10 10 9 9 9
11 8 9 18 14 13 13 8 7 11 9 5 17 15 11 24 21 13 14 10 2 26 25 18
84 80 72 47 45 34 67 64 54 84 81 68 64 61 50 60 57 49 143 139 134
202 199 191 159 156 148 203 200 192 210 207 199 250 247 239
252 249 241 247 243 235 251 248 238 255 255 243 255 255 242
254 251 229 190 185 160 141 137 107 105 101 71 108 101 74 117 110 85
128 120 98 134 126 104 117 110 87 105 97 74 107 99 77 123 116 93
119 109 87 127 117 95 123 112 91 107 97 76 95 82 62 128 115 94
140 130 108 126 116 94 120 112 92 119 110 90 114 106 86 103 95 75
106 97 80 119 110 92 136 128 110 149 140 123 135 127 107 138 130 110
143 135 115 145 137 117 156 148 128 168 159 139 180 175 151
190 185 162 202 199 171 181 179 148 227 225 196 255 255 228
245 241 220 217 213 194 241 237 220 234 230 211 224 221 195
228 223 195 231 227 198 235 230 202 219 215 187 200 195 169 69 61 38
39 31 13 45 36 25 34 23 16 33 21 11 36 24 15 38 24 13 38 24 13
42 26 13 50 34 21 144 128 115 144 128 115 144 128 115 144 129 113
130 115 99 136 120 105 163 148 130 155 139 122 148 127 111
150 130 112 155 135 116 158 138 120 152 132 114 141 121 102
129 109 91 109 91 74 86 70 55 68 54 41 42 30 18 29 19 9 25 17 9
18 12 7 15 11 8 13 12 8 13 11 10 13 11 10 13 11 10 13 11 10 13 11 10
13 11 10 13 11 10 13 11 10 18 16 14 13 11 10 12 10 8 17 15 13 13 8 7
14 9 8 14 9 8 15 10 10 17 13 10 17 13 10 17 13 10 19 12 10 23 14 12
26 18 14 34 26 22 45 35 29 53 44 31 62 51 36 76 65 50 86 72 58
91 75 62 94 75 63 95 74 63 94 73 62 99 78 67 91 72 63 78 61 53
60 47 40 37 29 22 21 17 11 18 16 12 20 21 16 17 15 13 14 12 11
13 11 10 13 11 10 12 10 8 11 9 7 9 10 7 9 9 9 9 9 9 12 11 14 17 14 15
19 17 17 44 40 39 28 24 20 25 19 14 18 12 5 28 24 16 25 22 12
26 24 11 96 94 79 107 102 90 97 92 80 120 117 104 146 144 133
149 145 137 203 200 194 234 233 227 219 218 212 237 234 226
247 243 235 255 254 248 254 253 247 255 255 253 255 255 251
255 255 245 255 255 241 249 246 224 174 169 143 134 130 100
127 120 91 151 144 117 148 140 116 122 114 92 112 104 81 105 95 71
117 107 83 114 105 81 120 110 86 102 92 68 111 101 77 100 91 67
113 103 79 132 122 98 119 109 85 104 94 72 96 86 64 102 91 72
110 99 80 102 94 76 116 108 90 110 102 84 122 114 96 128 119 102
124 116 98 133 124 104 157 149 129 127 119 99 137 129 109 144 136 116
162 154 134 182 176 156 175 170 147 179 174 148 180 175 147
220 218 189 219 217 188 242 240 211 204 201 175 189 186 160
207 202 174 181 172 141 186 176 140 195 186 146 201 192 151
196 186 151 156 147 118 48 39 19 45 36 23 40 28 18 35 23 14 32 20 10
36 24 15 36 22 10 39 25 14 46 32 21 54 40 29 148 132 117 148 132 117
148 132 117 148 132 117 148 132 117 129 113 98 143 127 112
165 147 130 153 133 117 155 134 118 156 136 118 158 138 120
153 134 115 143 123 105 131 111 93 114 97 80 81 66 51 59 45 32
41 29 17 42 32 22 25 17 9 18 12 7 15 11 8 13 12 8 13 11 10 13 11 10
13 11 10 13 11 10 13 11 10 13 11 10 13 11 10 13 11 10 14 12 11 11 9 7
12 10 8 19 15 14 21 16 15 19 15 14 18 14 13 18 14 11 14 10 6 15 9 6
15 9 6 15 9 6 18 11 9 20 11 12 23 13 14 26 18 14 26 18 10 36 27 14
45 36 23 56 44 32 66 52 41 78 61 51 89 70 60 90 69 60 86 64 56
82 61 52 73 56 48 65 53 46 42 34 28 26 23 17 20 19 13 17 18 13
13 11 10 14 12 11 13 11 10 12 10 8 12 10 8 11 9 7 9 10 7 9 9 9 9 9 9
12 11 14 17 14 15 19 17 15 35 30 29 43 37 34 37 29 22 34 26 20
26 20 11 37 34 22 43 41 23 82 81 63 157 153 138 155 150 138
174 172 159 233 230 219 224 221 213 241 237 231 252 251 244
255 255 250 255 253 248 255 252 247 255 254 248 255 254 250
255 253 254 255 253 252 255 255 247 255 255 241 241 238 216
182 177 152 144 138 108 156 149 120 140 133 105 128 121 96 126 118 95
114 106 84 109 99 75 99 89 65 109 99 75 111 101 77 116 106 82
110 100 76 106 96 72 125 115 91 120 110 86 107 98 74 107 97 76
119 109 87 134 124 104 124 113 94 106 97 80 99 90 73 108 100 82
119 110 92 121 112 95 114 105 88 116 108 88 127 119 99 129 121 101
130 122 102 131 123 103 150 142 122 155 150 129 178 172 149
179 174 148 169 165 137 199 197 168 181 178 150 213 211 182
176 174 145 154 152 123 162 158 128 133 125 91 152 142 105
158 149 106 161 149 108 172 160 123 129 117 89 39 28 11 38 29 16
40 28 18 34 22 12 32 20 10 35 23 14 40 26 15 44 30 18 51 37 25
59 45 34 153 135 118 153 135 118 153 135 118 153 135 118 153 135 118
151 133 116 126 108 92 162 144 128 160 140 124 159 139 123
158 138 120 157 137 119 153 134 115 146 127 108 135 115 97 121 104 87
97 81 66 81 67 54 54 42 30 36 26 16 25 17 9 19 13 8 15 11 8 13 12 8
13 11 10 13 11 10 13 11 10 13 11 10 15 11 8 15 11 8 15 11 8 15 11 8
18 14 11 16 12 9 21 17 13 28 24 20 33 26 24 30 24 22 27 20 18
23 17 13 18 12 7 19 11 7 19 11 7 18 12 7 16 10 6 16 10 8 18 11 9
19 13 8 20 14 7 24 16 9 24 16 9 29 20 14 37 27 21 49 38 33 61 48 43
72 57 50 67 51 43 66 50 39 61 47 38 57 45 38 40 32 26 28 24 18
21 20 14 14 15 10 13 11 10 13 11 10 12 10 8 10 8 6 10 8 6 11 9 7
9 9 9 9 9 9 10 10 10 13 13 13 17 14 15 19 17 15 32 28 25 48 42 37
52 44 37 58 50 41 58 53 43 66 62 48 78 76 58 98 96 78 160 155 141
178 174 159 195 193 178 240 237 224 233 229 223 238 234 231
248 247 243 255 255 253 254 253 247 254 253 247 255 254 250
254 254 252 254 254 254 255 253 252 255 255 247 255 255 241
255 254 232 193 188 162 188 182 152 133 126 96 106 99 72 86 79 54
86 78 56 89 82 59 103 93 69 111 101 77 123 113 89 107 98 74 90 80 56
92 82 58 112 102 78 121 112 88 114 105 81 118 108 84 126 116 94
136 126 105 118 107 88 110 99 80 91 82 65 112 103 85 106 97 80
112 103 85 109 101 83 100 91 74 94 86 66 106 98 78 114 106 86
106 98 78 114 106 86 133 124 104 134 129 106 151 145 122 174 169 145
160 155 129 162 157 132 158 153 127 160 155 129 136 131 105
123 118 92 131 124 97 99 92 63 118 109 78 112 104 68 115 105 67
129 118 85 113 104 77 45 33 19 45 32 23 40 28 18 34 22 12 31 18 9
35 23 14 40 26 15 44 30 18 51 37 25 59 45 34 155 138 119 155 138 119
155 138 119 155 138 119 152 134 115 153 136 116 149 132 113
138 120 101 166 146 130 164 144 128 159 139 121 156 136 118
152 132 114 148 128 109 137 117 99 124 106 89 102 89 73 76 65 50
46 37 24 34 27 16 23 18 11 17 14 8 13 12 8 12 10 8 13 11 10 13 11 10
13 11 10 12 10 8 14 10 6 15 11 8 15 11 8 15 11 8 24 20 17 24 20 17
30 26 23 40 33 31 41 35 30 36 30 25 30 24 20 29 20 16 26 18 14
26 18 14 26 18 14 26 18 14 23 14 10 19 13 8 16 10 6 16 10 6 15 9 4
16 10 6 18 12 7 22 16 11 19 13 8 25 18 16 30 24 22 42 34 30 42 30 23
48 34 25 49 37 27 48 37 29 30 22 15 22 18 13 19 17 13 13 12 8
13 11 10 12 10 8 10 8 6 10 8 6 10 8 6 11 9 7 9 9 9 9 9 9 10 10 10
13 13 11 18 16 14 21 17 13 39 32 28 41 35 28 65 57 48 76 69 58
106 101 89 97 92 78 113 111 93 134 132 112 163 159 142 225 220 206
221 219 204 254 251 238 237 234 228 249 245 242 255 255 251
255 255 251 253 252 245 253 252 245 254 255 250 254 254 252
254 254 254 254 254 254 255 255 249 255 255 243 234 230 211
200 195 169 147 140 110 127 120 91 116 109 82 98 90 65 83 75 52
98 90 67 117 107 83 111 101 77 86 77 53 77 67 43 107 98 74 114 105 81
126 116 92 97 87 63 91 81 57 114 105 81 121 111 90 109 98 77
102 91 72 68 57 40 89 81 63 86 77 60 98 89 72 101 93 75 95 87 69
84 75 58 87 79 61 78 70 50 77 69 49 102 94 74 95 87 67 110 102 82
122 114 92 105 100 77 117 112 88 152 147 123 124 119 95 110 105 81
124 119 95 100 94 71 83 75 52 80 72 50 66 59 34 72 65 40 54 45 16
61 52 23 68 58 32 68 58 36 43 32 18 35 23 14 40 28 18 33 21 11
31 18 9 34 22 12 36 21 12 39 25 14 46 32 21 54 40 29 172 153 132
172 153 132 171 151 131 170 150 129 165 146 125 160 141 120
156 136 116 155 135 116 140 123 104 172 154 135 158 140 121
162 145 126 159 141 124 149 132 115 138 120 103 119 103 86 105 92 76
86 75 61 66 57 44 47 39 31 28 22 15 17 14 8 12 10 6 10 11 8 10 10 10
12 10 10 12 10 8 14 9 8 14 9 8 14 9 8 18 11 9 20 13 11 33 26 24
46 39 37 51 45 41 47 39 35 45 36 32 42 34 30 37 29 22 30 20 14
30 20 14 34 23 18 34 23 18 28 17 12 27 16 13 24 15 11 22 13 9 19 11 7
18 9 8 18 9 8 16 10 8 19 12 10 19 12 10 17 13 12 16 14 12 17 13 10
30 22 15 31 21 13 30 22 13 30 22 15 23 17 13 20 13 11 16 12 9
13 11 10 11 9 7 11 9 7 10 8 6 11 9 7 11 9 7 11 9 7 9 10 7 9 10 7
9 10 7 13 13 11 18 16 12 25 22 16 36 30 25 36 31 23 62 55 44 69 62 49
107 103 88 125 121 104 134 130 111 135 131 112 169 165 148
217 213 196 243 241 224 250 248 235 250 248 242 234 233 229
250 248 244 254 255 250 255 254 250 255 254 250 254 255 250
254 254 252 254 254 254 254 254 254 255 255 249 255 255 243
241 237 218 162 157 132 117 111 79 117 111 79 126 117 90 112 102 78
124 114 90 109 99 75 93 84 60 88 78 52 92 83 56 104 95 68 106 97 70
100 91 65 97 88 61 96 86 60 105 95 71 86 77 53 74 63 42 74 63 42
76 65 46 93 82 66 72 61 47 81 69 55 89 77 63 88 76 62 75 63 49
57 46 32 60 49 32 63 52 35 63 52 35 58 48 31 82 71 52 89 78 59
98 90 69 106 98 78 86 78 58 86 78 58 108 102 81 61 55 35 68 62 42
62 57 36 54 48 30 48 42 24 42 33 16 37 29 11 34 25 5 34 25 5 34 25 7
35 26 11 36 27 14 38 29 18 41 29 19 33 21 11 32 19 12 34 22 14
40 28 18 36 24 15 33 21 11 49 37 27 164 145 122 165 146 123
167 148 125 168 149 126 174 155 132 171 151 131 168 149 128
164 144 124 149 132 113 149 132 113 169 152 133 158 140 121
156 139 122 148 131 114 134 119 101 116 101 83 102 89 73 76 64 52
58 48 38 51 43 34 28 22 15 17 13 10 12 10 8 9 10 7 10 10 10 10 10 10
12 10 8 13 8 7 13 8 7 14 9 8 16 12 9 20 13 11 28 22 17 33 25 21
38 30 23 41 33 27 48 37 32 39 29 23 37 27 21 43 30 26 41 28 23
50 37 33 56 43 39 56 43 39 45 32 27 38 24 22 29 18 15 28 17 14
22 11 8 18 9 8 18 9 8 16 10 8 16 12 9 16 12 9 14 13 9 14 13 9 17 14 6
19 13 6 19 13 6 19 13 8 18 11 9 16 10 10 14 9 8 13 8 7 11 9 7 11 9 7
11 9 7 11 9 7 11 9 7 11 9 7 9 10 7 9 10 7 8 9 6 13 12 8 19 16 10
24 21 13 33 27 20 44 39 29 63 56 45 82 75 62 110 105 89 135 131 114
140 136 117 148 144 125 178 174 157 211 207 190 239 235 218
255 255 242 246 245 236 238 236 232 252 252 247 252 252 247
255 254 250 255 254 250 254 255 250 254 254 252 254 254 254
254 254 254 255 255 249 255 255 243 248 244 225 161 156 131
110 104 72 107 101 69 121 112 86 117 107 83 93 84 60 81 71 47
90 81 54 86 77 51 86 77 51 89 79 53 102 92 66 102 92 66 98 89 62
91 82 55 86 77 53 77 67 43 71 61 40 71 61 42 93 82 66 55 44 27
53 41 27 67 55 41 84 73 58 65 54 40 52 40 26 49 38 23 55 44 27
48 37 20 42 31 14 38 27 10 70 60 40 77 67 47 86 78 58 93 84 67
74 66 48 65 57 39 73 67 48 37 31 12 40 34 16 37 30 14 31 24 8 27 20 7
25 18 5 28 18 8 28 18 8 30 20 10 30 20 10 31 24 12 34 27 16 38 31 19
38 29 18 33 21 11 31 18 11 34 22 14 38 25 16 35 23 14 34 22 12
52 39 30 151 132 107 155 136 110 159 141 115 164 145 120 167 149 123
168 149 126 171 152 129 167 148 125 167 150 128 139 122 102
153 136 116 169 152 133 163 146 127 155 138 119 141 126 106
123 108 90 105 92 76 77 65 53 57 47 37 47 39 31 28 22 15 18 14 11
12 10 8 9 10 7 10 11 8 10 11 8 12 10 8 11 9 7 12 10 8 12 10 8
14 12 11 18 14 11 22 13 7 27 17 9 32 22 14 36 26 18 39 26 19 47 34 27
50 38 31 47 32 26 44 29 23 55 41 34 65 50 43 66 51 45 66 51 45
57 41 37 48 33 29 41 26 22 31 18 13 22 11 8 20 9 6 18 10 6 16 10 6
15 11 6 13 12 6 12 13 6 12 11 2 14 10 2 14 10 4 14 10 6 14 9 8 13 8 9
13 8 9 13 8 9 11 8 9 11 8 9 11 9 7 11 9 7 11 9 7 11 9 7 9 10 7 9 10 7
8 9 4 13 12 8 18 15 9 23 20 12 41 36 26 49 42 31 60 53 39 74 67 53
103 97 81 140 134 116 138 132 113 158 152 133 172 166 147 204 198 180
231 225 207 253 248 234 244 241 233 243 241 235 255 255 251
247 248 243 254 255 250 254 255 250 254 255 250 252 255 252
255 255 255 255 255 255 255 255 251 255 255 245 238 234 215
173 168 142 152 146 114 110 104 72 92 83 54 106 97 70 83 74 47
82 72 46 85 76 49 89 79 53 90 81 54 88 78 52 74 64 38 83 74 47
79 70 44 64 55 28 57 48 24 71 62 37 86 76 55 92 82 62 68 57 40
70 59 42 63 52 37 75 63 49 52 40 26 48 37 22 54 43 28 67 55 41
44 36 18 35 26 9 38 30 12 52 44 26 51 43 25 58 50 32 69 60 42
75 69 51 46 39 23 36 29 13 46 39 23 36 29 13 26 20 4 25 18 5 24 17 3
22 14 3 20 12 6 22 13 9 23 14 10 25 17 13 26 18 14 29 24 16 36 31 23
42 35 26 41 31 20 35 23 14 33 20 13 36 24 17 35 23 14 34 22 12
35 23 14 55 43 33 117 99 73 122 103 78 130 111 86 136 117 92
143 124 99 151 132 107 159 141 115 160 141 118 164 144 124
167 148 129 137 117 99 168 149 130 175 158 138 167 150 130
152 138 118 135 120 102 114 100 84 90 78 66 63 53 43 39 31 23
28 22 15 18 14 11 12 10 8 9 10 7 10 11 8 10 11 8 12 10 8 11 9 7
12 10 8 12 10 8 14 12 11 18 14 11 17 9 2 31 21 13 36 26 18 30 20 10
41 29 19 44 29 20 51 36 27 59 42 34 57 40 32 66 50 39 72 56 45
71 54 44 77 58 49 74 55 45 71 52 43 62 43 36 45 28 23 34 16 11
25 10 4 20 9 4 16 11 4 15 11 6 12 13 6 10 12 4 12 11 4 11 10 3 11 9 5
11 9 7 13 8 9 13 8 9 13 8 9 13 8 9 11 8 9 11 8 9 11 9 7 11 9 7 11 9 7
11 9 7 9 10 7 9 10 7 8 9 4 12 10 6 17 14 8 22 19 11 33 28 16 37 30 16
63 57 43 73 66 50 90 84 66 134 128 110 127 121 103 155 149 131
150 143 125 197 191 175 225 219 203 231 226 212 241 238 227
245 244 237 255 255 252 243 244 239 253 253 249 254 255 250
252 255 250 252 255 252 254 254 254 255 255 255 255 255 251
255 255 245 236 232 216 187 182 158 129 122 95 107 100 71 110 100 74
118 108 82 113 104 77 112 103 76 112 103 76 107 98 72 90 81 54
69 60 33 69 60 33 84 75 48 81 71 45 60 50 24 74 64 40 88 77 56
92 82 60 85 75 56 70 59 42 47 36 19 60 48 34 47 36 21 42 31 16
53 41 29 57 46 34 51 42 29 41 32 16 27 18 2 30 21 6 46 37 22 38 29 14
46 37 22 55 49 33 62 55 42 48 41 28 27 20 7 25 18 5 25 18 5 18 11 0
18 11 0 19 12 1 20 13 4 15 9 4 16 10 8 20 13 11 21 15 12 21 15 12
26 20 15 35 29 24 42 34 28 41 30 23 34 22 14 32 19 12 35 23 16
33 21 11 33 21 11 35 23 14 57 45 36 116 97 74 111 92 69 106 87 63
102 83 60 92 73 49 104 85 62 125 103 81 137 116 94 155 131 112
164 137 121 152 127 111 128 106 88 158 138 120 139 122 102 119 104 84
92 77 59 72 58 42 63 51 39 58 48 38 47 39 31 35 29 22 25 21 18
17 15 13 13 11 10 12 10 8 12 10 8 12 10 8 12 10 8 12 10 8 13 11 10
13 11 10 15 11 8 26 20 15 27 19 13 29 18 13 28 18 10 42 30 20
45 30 22 53 39 28 67 48 38 70 48 39 82 58 48 89 65 55 89 66 53
79 56 44 84 61 46 90 67 52 93 70 58 70 44 37 57 33 27 45 25 18
41 27 20 23 15 8 15 11 6 12 13 6 12 12 8 13 11 10 13 11 10 13 11 10
13 11 12 10 7 8 10 7 8 10 7 8 10 7 8 11 9 7 11 9 7 11 9 7 11 9 7
11 9 7 11 9 7 11 9 7 11 9 7 11 9 7 11 9 5 16 12 7 19 16 8 27 22 10
37 33 18 55 49 33 69 63 45 83 77 59 96 90 72 115 108 92 127 121 105
136 127 112 161 151 138 202 193 180 223 216 202 207 206 195
245 246 236 250 252 242 249 250 243 253 254 247 254 255 248
254 255 248 253 253 249 254 254 254 254 254 254 255 254 250
255 254 246 246 241 229 186 179 163 121 113 93 102 91 70 106 96 72
112 103 76 113 104 77 110 100 74 103 93 69 100 91 67 88 78 54
71 62 37 81 71 45 78 69 42 76 67 40 74 64 38 84 74 50 82 72 50
72 62 43 61 50 31 48 37 20 47 36 19 44 35 20 43 34 21 41 31 18
55 45 34 51 41 31 30 20 10 24 15 4 30 20 10 37 29 20 41 34 25
33 25 17 40 32 24 51 43 34 58 50 43 51 43 36 33 25 19 26 18 12
25 17 11 18 12 5 18 12 5 18 12 5 18 12 5 18 12 7 18 12 7 18 12 7
18 12 7 19 16 10 19 16 10 35 31 25 39 32 28 41 30 25 35 22 18
31 18 11 32 19 12 33 21 11 33 21 11 35 23 11 53 41 29 115 96 73
109 90 67 101 82 59 94 75 52 82 63 40 83 64 41 87 66 44 90 66 47
102 76 57 110 80 65 103 76 60 89 64 48 89 66 49 100 80 62 105 88 69
121 106 88 114 100 84 93 82 70 72 62 52 56 49 40 30 25 18 21 17 13
12 10 8 9 7 5 12 10 8 12 10 8 12 10 8 12 10 8 12 10 8 13 11 10
13 11 10 15 11 8 23 17 13 25 19 14 27 19 13 30 20 14 40 27 20
44 29 20 55 38 28 69 50 41 86 63 53 95 69 60 97 72 60 94 68 56
94 69 54 94 69 52 93 68 49 91 67 50 91 63 52 72 44 35 61 40 31
44 27 19 34 23 16 21 16 6 13 12 4 12 12 8 13 11 10 13 11 12 13 11 12
13 11 12 10 7 8 10 7 8 10 7 8 10 7 8 11 9 7 11 9 7 11 9 7 11 9 7
11 9 7 11 9 7 11 9 7 11 9 7 11 9 7 11 9 7 14 10 6 17 14 6 21 16 4
30 26 11 40 34 18 52 45 29 73 66 50 83 77 61 98 92 76 109 102 88
117 108 95 134 124 114 185 175 165 226 219 208 243 242 231
248 250 238 255 255 248 238 239 229 252 253 245 254 255 248
254 255 248 253 253 249 253 253 253 255 253 254 255 253 250
255 253 246 255 255 249 230 221 208 164 154 137 118 107 88 116 106 82
109 99 73 100 91 65 95 85 59 76 66 42 65 56 32 62 52 28 65 56 32
83 74 47 77 68 41 70 61 34 64 55 31 65 55 34 57 47 26 61 50 31
75 64 45 63 52 35 56 45 30 44 35 22 37 28 15 37 27 17 46 37 26
41 34 25 26 18 10 24 14 6 29 19 11 32 24 18 37 29 22 39 31 25
41 33 27 45 36 32 47 39 35 39 31 27 29 20 16 25 17 13 20 12 8 18 12 7
18 12 7 18 12 7 18 12 7 18 12 7 18 12 7 18 12 7 18 12 7 19 16 10
19 16 10 35 31 25 39 32 28 42 31 28 35 22 20 31 18 13 32 19 12
34 22 12 33 21 11 34 22 10 53 41 29 121 101 81 113 93 72 100 80 60
92 72 51 75 56 35 74 55 34 73 52 32 74 50 31 66 40 21 78 49 32
89 63 44 93 68 49 89 67 47 136 116 96 142 125 104 128 113 93
115 101 85 98 86 74 76 66 55 62 55 46 30 25 18 21 17 13 12 10 8 9 7 5
12 10 6 12 10 6 12 10 6 12 10 6 13 12 8 13 12 8 13 12 8 15 11 8
21 15 10 23 17 13 29 20 14 34 23 18 31 18 11 37 22 14 50 33 23
66 47 37 77 54 43 90 64 55 100 74 62 101 75 63 111 86 72 108 83 66
104 80 61 102 78 58 96 69 53 94 69 54 69 46 33 54 37 25 43 32 20
32 25 11 19 17 4 13 12 4 13 11 10 14 12 13 13 11 12 13 11 12 10 7 8
10 7 8 10 7 8 10 7 8 11 9 7 11 9 7 11 9 7 11 9 7 11 9 7 11 9 7 11 9 7
11 9 7 11 8 9 11 9 7 13 8 5 16 12 7 22 19 9 32 27 15 34 29 15
42 38 23 65 61 46 73 69 55 86 79 65 93 85 74 111 104 93 124 116 108
140 133 124 136 131 121 150 147 137 184 184 173 243 245 233
255 255 248 252 253 243 254 255 246 254 255 246 253 254 247
254 252 251 255 253 252 255 253 248 255 253 244 254 247 234
229 220 205 180 169 150 145 134 113 117 107 81 100 91 63 89 80 51
88 78 52 83 74 47 70 61 34 61 51 25 61 51 25 49 39 15 55 45 21
63 53 29 69 59 35 79 69 48 82 72 50 70 60 40 50 40 21 34 23 6 35 24 9
35 25 13 36 27 14 41 31 20 41 31 20 36 28 19 29 21 12 24 16 7 25 17 9
27 19 13 27 21 14 34 28 21 36 31 23 40 34 29 42 36 31 39 32 28
36 30 25 38 29 25 30 21 17 18 12 7 18 12 7 18 12 7 18 12 7 18 12 7
18 12 7 18 12 7 18 12 7 19 16 10 19 16 10 35 31 25 39 32 28 42 31 28
35 22 20 31 18 13 32 19 12 34 22 12 33 21 11 34 22 10 53 41 29
107 87 67 96 77 56 81 62 41 71 51 31 61 42 21 70 48 28 79 57 37
88 64 44 91 64 46 93 64 47 95 69 50 98 74 55 89 67 47 106 86 65
125 108 86 93 78 58 94 81 65 90 78 66 76 66 55 59 51 42 35 29 24
25 21 18 17 15 13 13 11 10 12 10 6 12 10 6 12 10 6 12 10 6 13 12 8
13 12 8 13 12 8 15 11 8 19 13 8 22 16 11 30 22 15 36 25 20 38 25 18
44 29 20 61 44 34 77 58 49 91 68 57 102 76 67 106 81 69 104 79 67
108 83 68 108 83 66 106 82 63 106 82 63 106 79 61 95 71 51 87 65 48
66 48 31 52 39 23 42 33 18 32 25 9 21 16 4 15 11 8 14 12 13 13 11 12
13 11 12 10 7 8 10 7 8 10 7 8 10 7 8 11 9 7 11 9 7 11 9 7 11 9 7
11 9 7 11 9 7 11 9 7 11 9 7 11 8 9 11 8 9 13 8 7 14 10 4 16 13 5
23 20 10 23 21 8 26 21 9 40 35 23 44 39 27 53 47 38 57 52 42 55 49 42
34 28 21 26 20 13 20 14 7 15 12 4 17 16 7 75 76 64 186 188 178
252 253 243 254 255 246 254 255 244 254 253 245 254 253 247
255 253 250 255 253 246 255 254 242 247 241 225 197 188 170
146 136 114 135 126 102 110 100 74 91 82 53 83 74 45 90 81 54
69 60 33 75 65 39 74 64 38 67 57 33 68 58 34 70 60 36 72 63 39
75 65 43 82 72 50 67 56 37 50 40 21 43 32 16 48 37 22 43 32 20
36 27 14 31 22 11 39 30 19 32 23 12 27 20 11 27 20 11 24 16 7 24 16 7
22 17 9 21 15 8 23 18 11 30 25 18 41 35 30 48 42 37 27 21 16 32 26 21
36 27 23 25 17 13 18 12 7 18 12 7 18 12 7 18 12 7 18 12 7 18 12 7
18 12 7 18 12 7 19 16 10 19 16 10 35 31 25 39 32 28 41 30 27 35 22 20
31 18 13 32 19 12 33 21 11 32 20 10 34 22 10 53 41 29 77 56 33
69 47 25 70 49 26 72 51 28 72 50 31 78 56 36 88 64 44 93 68 49
96 70 51 88 62 43 88 62 43 95 71 51 100 78 58 92 72 51 102 85 63
115 100 80 78 64 50 67 55 43 46 37 26 40 32 26 27 21 16 19 15 12
14 12 11 12 10 8 10 11 6 12 10 6 12 10 6 14 10 6 16 12 9 18 14 11
21 17 13 23 17 15 19 13 8 21 15 10 26 18 12 30 20 14 43 31 24
51 36 27 61 44 34 70 51 42 79 58 47 96 72 62 101 78 66 97 74 61
101 79 64 110 87 70 110 88 68 103 79 58 98 71 51 96 72 53 94 73 53
87 67 49 66 51 33 57 43 27 45 34 17 30 22 11 19 15 12 14 12 13
13 11 12 12 10 10 11 8 9 11 8 9 11 8 9 11 8 9 11 9 7 11 9 7 11 9 7
11 9 7 11 9 7 11 9 7 11 9 7 11 9 7 11 8 9 11 8 9 11 9 7 11 9 5
11 10 3 11 10 3 11 10 1 13 9 1 24 20 15 24 20 15 24 20 15 24 20 15
24 20 15 32 29 23 36 32 27 24 20 15 23 21 15 25 24 17 24 23 14
52 51 42 200 198 192 254 253 245 253 253 241 255 255 244 255 254 246
255 255 247 255 253 244 255 254 240 239 233 215 179 171 149
134 124 100 103 93 67 90 81 54 89 79 53 77 68 41 69 60 33 70 60 36
76 66 42 76 66 42 68 58 34 64 54 33 67 56 35 72 62 41 76 66 44
70 60 40 63 53 33 54 43 26 47 36 19 39 27 13 29 18 6 29 19 9 41 31 20
23 13 5 23 13 5 22 14 5 22 14 5 24 16 9 16 8 1 14 8 1 21 15 8
23 17 13 30 24 20 23 17 13 30 24 20 41 35 30 42 36 31 30 21 17
26 18 14 20 14 9 18 12 7 14 8 3 12 6 1 18 12 7 16 10 6 21 15 10
29 23 18 21 15 10 26 20 15 37 31 27 33 27 22 41 30 27 38 27 24
38 25 20 35 23 16 33 21 11 32 20 8 39 25 14 54 41 27 125 103 81
105 83 61 105 83 61 87 66 44 75 53 33 79 57 37 86 61 42 90 66 47
87 60 42 84 57 39 82 58 39 86 61 42 96 74 54 95 76 55 97 80 58
114 99 79 97 84 70 58 46 37 37 27 19 26 18 12 21 15 10 16 12 11
12 10 10 12 10 10 10 11 8 12 10 6 14 10 6 14 10 6 16 12 9 18 14 11
22 16 13 23 17 15 20 14 9 22 16 11 29 20 14 34 23 18 40 27 20
44 29 20 49 32 22 60 41 31 75 54 43 90 66 56 100 77 65 104 81 68
107 85 69 104 81 66 104 82 62 109 85 63 107 81 60 103 77 58 96 72 53
85 63 45 76 58 42 65 49 34 53 40 24 39 30 19 19 15 12 14 12 13
13 11 12 12 10 10 11 8 9 11 8 9 11 8 9 11 8 9 11 9 7 11 9 7 11 9 7
11 9 7 11 9 7 11 9 7 11 9 7 11 9 7 11 8 9 11 9 7 11 9 5 11 9 5 11 9 5
12 10 6 12 10 6 13 12 8 14 13 9 16 14 12 16 14 12 17 15 11 19 17 13
51 49 45 48 47 43 77 76 70 105 104 100 69 67 63 11 10 3 35 35 26
131 130 123 238 237 228 255 255 247 245 244 233 255 252 241
255 253 241 255 253 239 255 253 235 239 231 208 179 172 147
134 125 96 102 93 64 91 82 55 75 65 39 84 75 48 82 72 46 76 66 42
70 60 36 70 60 36 77 67 43 79 69 48 76 66 44 70 60 38 67 56 35
58 48 29 54 43 24 47 36 19 43 32 18 39 27 15 34 22 10 30 20 10
32 23 12 32 22 14 31 21 13 30 22 13 30 22 13 23 15 8 16 8 1 14 8 1
21 15 8 21 15 10 26 20 15 16 10 6 21 15 10 39 32 28 41 35 30 32 24 20
31 22 18 25 19 14 22 16 11 19 13 8 16 10 6 18 12 7 16 10 6 21 15 10
29 23 18 23 17 13 27 21 16 36 30 25 32 24 20 39 29 25 38 27 24
38 25 20 35 23 16 32 20 10 31 19 7 39 25 12 54 41 27 150 129 107
121 100 77 104 82 60 98 76 54 79 57 37 80 59 39 84 60 41 84 60 41
85 58 40 87 60 42 86 61 42 82 58 39 97 75 55 99 79 58 90 73 51
79 64 44 71 57 43 42 30 20 37 27 19 34 26 20 18 12 7 14 9 8 12 10 10
11 8 9 10 11 8 12 10 6 14 10 6 14 10 6 16 12 9 18 14 11 22 16 13
23 17 15 19 13 8 23 17 13 32 24 18 39 29 23 46 33 26 46 32 23
48 31 21 61 42 32 78 57 46 85 62 51 87 64 52 92 69 56 105 82 69
108 86 71 108 86 69 106 82 63 105 78 60 101 74 58 94 69 52 83 60 45
78 57 44 67 48 36 56 38 26 41 29 19 21 15 12 16 13 14 13 11 12 11 8 9
11 8 9 11 8 9 11 8 9 11 8 9 11 9 7 11 9 7 11 9 7 11 9 7 11 9 7 11 9 7
11 9 7 11 9 7 11 9 7 11 9 7 11 9 5 11 9 5 11 9 7 11 8 9 11 8 9 11 8 9
12 10 10 12 10 10 12 10 10 12 10 8 23 24 21 40 40 38 21 22 17
44 45 40 148 147 143 182 180 176 19 18 11 26 25 16 55 54 48
174 173 164 250 249 238 253 253 239 249 247 232 251 250 232
254 250 231 255 250 229 201 194 169 150 143 116 121 112 84 92 83 54
88 78 52 71 62 35 68 58 32 60 50 24 76 66 42 70 60 36 70 60 36
76 66 42 72 62 41 64 54 33 54 44 22 46 36 14 53 42 23 52 41 22
49 38 21 48 37 22 41 29 17 40 28 18 32 23 12 23 13 3 31 21 13
31 21 13 30 22 13 30 22 13 23 15 8 16 8 1 14 8 1 21 15 8 34 28 23
36 30 25 22 16 11 25 19 14 20 14 9 25 19 14 18 10 6 19 11 7 32 26 21
29 23 18 26 20 15 23 17 13 18 12 7 16 10 6 21 15 10 29 23 18 27 21 16
28 22 17 35 29 24 29 20 16 39 29 25 37 26 23 38 25 20 35 23 16
32 20 10 31 19 7 39 25 12 54 41 27 136 115 93 154 132 110 115 94 72
98 76 54 83 61 41 82 60 40 83 59 40 82 58 39 88 62 43 96 70 51
95 71 51 87 62 43 79 57 37 83 64 43 85 65 44 73 55 36 69 56 42
60 48 38 38 28 20 25 17 11 15 9 4 14 9 8 12 10 10 11 8 9 10 11 8
10 11 6 12 10 6 14 10 6 16 12 9 18 14 11 22 16 13 23 17 15 19 13 8
25 19 14 33 25 19 43 32 27 46 33 26 39 25 16 41 24 14 53 34 24
64 43 32 71 48 37 76 53 40 87 64 52 96 73 60 87 64 52 87 65 50
96 73 58 90 65 51 89 66 51 89 66 53 81 61 47 68 49 37 58 42 31
48 31 23 33 20 13 21 15 12 14 12 13 12 10 10 11 8 9 11 8 9 11 8 9
11 8 9 11 8 9 11 9 7 11 9 7 11 9 7 11 9 7 11 9 7 11 9 7 11 9 7 11 9 7
11 9 7 11 9 7 11 9 5 11 9 5 11 9 7 11 8 9 10 7 8 10 7 8 10 7 8 10 7 8
9 6 7 9 7 5 13 13 11 19 19 17 27 28 23 34 35 30 181 179 175
116 114 110 7 6 2 11 10 3 17 15 9 88 87 78 244 244 230 248 249 233
244 243 225 249 248 228 252 248 227 252 247 223 197 189 164
144 137 110 106 97 68 82 73 44 75 65 39 85 76 49 71 62 35 69 60 33
70 60 36 76 66 42 76 66 42 70 60 36 69 59 37 65 55 34 61 51 29
57 47 26 56 46 26 57 47 28 60 49 32 60 48 34 42 30 18 45 32 23
34 24 14 16 6 0 23 13 5 23 13 7 22 13 7 22 13 7 22 13 7 17 9 2 14 8 1
22 17 9 32 26 21 32 26 21 15 9 4 15 9 4 18 12 7 25 19 14 20 12 8
24 15 11 36 30 25 34 28 23 30 24 20 28 22 17 18 12 7 16 10 6 21 15 10
29 23 18 29 23 18 30 24 22 34 27 25 26 17 16 38 27 24 37 27 21
36 24 17 35 23 16 32 20 10 31 19 7 39 25 12 54 41 27 105 83 61
139 117 95 148 127 104 111 89 67 93 72 49 91 70 47 84 63 40 79 55 33
86 62 40 87 63 41 88 64 42 88 64 42 86 64 44 86 64 44 79 59 39
67 49 30 51 35 22 40 28 18 37 27 19 26 18 12 19 13 8 15 10 10 11 8 9
9 9 9 9 10 7 9 10 5 11 9 5 13 8 5 17 13 10 21 15 12 23 17 15 23 17 15
25 19 14 26 20 15 30 22 15 29 18 13 32 19 12 51 36 27 63 46 36
64 46 34 65 44 33 72 49 37 80 57 47 86 63 53 80 57 45 84 61 48
80 59 48 71 50 39 81 60 49 75 56 44 58 42 29 61 47 36 50 38 29
39 29 21 31 21 13 25 17 11 15 10 10 12 10 10 11 8 9 10 7 8 10 7 8
10 7 8 10 7 8 10 7 8 11 9 7 11 9 7 11 9 7 11 9 7 13 8 7 13 8 7 13 8 5
13 8 5 13 8 5 13 8 5 13 8 5 13 8 5 13 8 5 13 8 7 13 8 7 13 8 7 10 8 6
10 8 6 10 8 6 10 8 6 9 7 5 14 12 11 25 23 19 34 33 29 139 137 133
71 69 68 4 2 2 13 11 12 21 17 13 60 57 49 241 238 225 226 224 206
231 231 208 244 244 219 235 233 206 247 242 217 168 161 133
131 124 97 103 97 67 83 76 46 77 68 41 69 60 33 88 78 52 74 64 38
86 74 50 80 67 46 71 58 37 66 53 33 53 43 21 61 51 29 63 53 31
60 49 28 54 43 24 52 41 24 49 40 23 42 33 18 45 36 23 38 29 18
29 19 11 20 13 4 26 18 12 26 18 14 26 18 14 26 18 14 19 11 7 19 11 7
24 15 11 26 18 14 25 17 13 33 25 21 29 20 16 23 14 10 32 24 20
33 25 21 32 24 18 40 32 26 46 38 32 52 44 37 48 40 34 38 30 23
29 20 14 29 20 14 27 19 15 26 18 14 32 25 23 32 25 25 33 25 28
34 25 26 37 26 23 36 25 20 34 23 16 32 19 12 36 24 15 48 34 23
54 41 27 50 36 22 97 75 53 98 76 54 131 109 87 132 110 88 99 78 55
91 70 47 85 64 41 83 61 39 84 61 39 89 65 44 94 70 48 98 75 53
91 69 49 87 66 46 78 58 37 67 49 30 52 36 23 44 29 20 45 32 25
36 25 20 20 12 8 15 10 10 11 8 9 9 9 9 9 10 7 9 10 5 11 9 5 13 8 5
19 12 10 21 15 12 23 17 15 25 18 16 29 23 18 23 17 13 27 19 13
43 32 27 62 49 42 68 54 45 70 53 43 69 51 39 74 54 40 75 52 39
72 49 39 71 48 37 75 52 39 78 55 44 73 52 43 65 44 35 55 38 28
59 45 34 52 40 28 45 36 25 32 24 16 23 15 8 16 11 4 14 10 4 11 9 7
10 7 8 9 6 7 10 7 8 10 7 8 10 7 8 10 7 8 10 7 8 11 9 7 11 9 7 11 9 7
11 9 7 13 8 7 13 8 7 13 8 5 13 8 5 13 8 5 13 8 5 13 8 5 13 8 5 13 8 5
13 8 5 13 8 7 13 8 7 11 7 4 10 8 4 10 8 4 10 8 4 10 8 6 13 11 10
20 19 15 30 28 24 155 154 150 147 145 144 13 10 14 9 6 9 15 10 10
67 64 58 221 218 206 220 218 198 220 219 194 221 221 194 245 243 214
244 239 211 187 180 153 135 128 101 103 97 67 93 86 57 91 82 55
98 89 62 81 71 45 60 50 26 51 38 17 53 41 20 57 44 23 60 48 27
50 40 19 62 52 30 68 58 36 65 55 36 63 52 35 57 46 30 46 38 20
35 26 11 37 28 15 36 26 16 34 27 18 33 25 17 23 15 8 23 14 10
23 14 10 22 13 9 22 13 9 24 15 11 27 19 15 30 21 17 30 21 17 37 28 24
39 31 27 33 25 21 37 28 24 40 32 26 42 34 28 51 43 36 54 46 40
68 60 52 65 57 48 46 38 29 46 38 29 39 31 25 30 22 15 23 14 10
32 25 23 33 26 26 33 25 28 34 25 26 35 24 21 36 25 20 34 23 16
34 22 14 39 25 16 60 46 35 62 49 35 50 36 22 90 68 46 100 79 56
103 81 59 139 117 95 117 95 73 101 80 58 96 74 52 100 79 56 88 64 42
89 65 44 90 66 45 91 68 46 94 73 53 92 70 50 79 59 39 66 48 29
49 33 20 39 25 16 36 24 17 27 16 11 20 12 8 15 10 10 11 8 9 8 8 8
9 10 7 9 10 5 12 10 6 13 8 5 19 12 10 21 15 12 23 17 15 25 18 16
29 23 18 26 20 15 29 20 14 38 28 22 39 26 19 46 32 23 61 44 34
75 56 44 90 70 56 87 64 52 83 59 49 79 56 46 75 51 41 78 55 44
75 51 43 65 44 35 49 32 22 47 35 25 48 36 26 37 27 17 22 14 5 14 8 1
13 7 2 11 7 4 10 8 6 9 6 7 9 6 7 9 6 7 10 7 8 10 7 8 10 7 8 10 7 8
11 9 7 11 9 7 11 9 7 11 9 7 13 8 7 13 8 7 13 8 5 13 8 5 13 8 5 13 8 5
13 8 5 13 8 5 14 8 5 14 8 5 14 7 7 14 7 7 11 7 4 11 7 4 11 7 4 11 7 4
15 11 8 17 13 10 22 18 15 28 24 20 90 88 84 208 206 204 97 94 97
25 22 25 25 21 20 78 74 68 201 199 186 200 199 179 206 206 178
209 210 180 236 234 205 243 239 208 192 185 158 116 109 82 79 72 45
85 78 51 76 67 40 64 55 28 96 86 60 75 65 41 79 66 45 75 63 42
72 59 38 69 57 36 69 59 37 71 61 40 65 55 34 54 43 24 82 71 54
76 65 48 65 57 39 53 44 29 46 37 26 43 33 25 34 27 18 31 23 14
26 18 12 26 18 12 26 18 12 25 17 11 25 17 11 27 19 13 31 23 16
33 25 19 22 13 7 25 17 11 33 25 19 29 20 14 34 26 20 42 35 26
69 62 53 47 39 31 62 55 46 69 62 51 66 58 47 54 47 36 61 54 43
49 42 31 34 27 18 24 16 9 32 26 21 33 26 24 33 26 24 34 25 24
32 22 18 34 23 18 35 25 17 38 25 18 48 34 25 59 45 34 60 46 33
54 41 27 103 81 59 112 90 68 110 88 66 113 92 69 135 114 91 115 94 72
108 87 65 119 97 75 117 93 72 111 87 66 103 79 58 97 73 52 96 74 54
96 74 54 83 64 43 67 49 30 62 46 33 47 33 24 38 25 18 23 13 7
20 11 10 15 10 10 10 7 8 8 8 8 8 9 6 9 10 5 12 10 6 13 8 5 19 12 10
21 15 12 23 17 15 25 18 16 26 20 15 31 22 18 27 19 13 18 8 2 25 12 5
30 15 7 48 31 21 69 51 39 81 61 47 83 60 47 82 58 48 80 57 47
80 57 47 84 61 50 82 58 50 69 50 43 46 32 23 28 18 8 29 19 9 20 13 4
18 12 5 14 10 4 14 10 4 13 12 8 9 7 5 9 6 7 9 6 7 9 6 7 10 7 8 10 7 8
10 7 8 10 7 8 11 9 7 11 9 7 11 9 7 11 9 7 13 8 7 13 8 7 13 8 5 13 8 5
13 8 5 13 8 5 13 8 5 13 8 5 14 8 5 14 8 5 14 7 7 14 7 7 11 7 4 11 7 4
11 7 4 11 7 4 17 13 10 19 15 12 23 19 16 26 22 19 32 30 26
133 131 130 175 172 176 96 91 95 77 72 71 157 153 148 159 157 144
180 179 159 180 180 153 207 205 176 218 216 187 242 237 209
212 205 178 119 112 84 78 71 44 95 88 61 67 57 31 48 38 14 62 52 28
85 76 51 43 30 9 50 37 16 58 45 24 65 52 31 68 58 36 72 62 43
69 58 39 61 50 31 76 65 48 74 63 46 71 62 45 64 55 40 38 29 18
41 30 23 41 34 25 44 36 27 34 26 20 34 26 20 34 26 20 34 26 20
27 19 13 30 22 15 33 25 19 36 27 21 30 22 15 30 22 13 38 30 21
39 31 23 44 36 27 52 44 33 49 42 31 77 70 59 77 70 59 67 60 46
63 57 43 69 62 49 67 60 46 56 50 36 42 35 24 33 25 17 32 26 19
33 27 20 33 27 22 34 26 22 29 20 14 32 22 16 36 26 18 40 28 18
55 41 30 52 38 27 55 42 28 65 49 36 112 90 68 111 89 67 108 87 65
106 85 62 119 97 75 143 122 100 118 96 74 124 102 80 122 101 79
127 106 83 120 99 76 104 82 60 89 67 47 86 64 44 83 61 41 72 52 34
65 49 36 46 32 23 34 22 14 32 22 18 18 9 8 13 8 7 10 7 8 7 7 7 8 9 6
9 10 5 12 10 6 17 13 10 21 15 12 23 17 15 26 19 17 29 23 20 34 26 22
32 24 20 31 21 15 30 20 14 27 15 7 43 28 19 61 44 34 76 58 46
83 63 49 94 73 60 99 78 67 96 75 64 101 80 69 89 68 57 73 52 43
59 39 32 32 19 12 23 15 6 19 12 3 15 10 2 15 11 6 12 10 6 12 10 6
10 8 6 9 6 7 9 6 7 9 6 7 10 7 8 10 7 8 10 7 8 10 7 8 10 7 8 11 9 7
11 9 7 10 8 6 10 8 6 17 13 12 15 10 10 11 7 4 9 5 2 10 6 3 10 6 3
13 9 3 13 9 3 14 8 5 14 8 5 15 8 8 15 8 8 13 8 5 13 8 5 13 8 5 13 8 5
17 13 10 19 15 12 31 27 24 23 19 16 16 12 11 47 43 44 146 141 145
121 116 120 127 120 122 92 86 81 143 138 126 162 158 139 165 163 138
194 189 163 206 201 173 237 232 204 188 181 156 116 109 84 91 83 58
62 54 29 62 52 28 57 47 26 54 44 22 77 67 45 51 38 17 54 41 23
59 46 28 62 49 31 62 51 32 63 52 35 71 60 44 60 49 32 63 52 35
74 63 46 73 65 47 59 50 35 35 25 15 29 19 11 29 18 13 27 16 11
25 15 7 32 22 14 23 13 5 29 19 11 21 11 3 28 18 10 41 30 23 29 19 11
35 25 17 39 30 19 46 37 26 52 43 32 53 46 34 68 61 48 49 43 29
84 78 64 89 82 69 67 60 44 34 28 12 90 84 68 74 67 51 58 51 35
54 48 32 63 57 43 53 46 34 56 49 38 45 37 28 40 32 26 34 27 18
34 23 16 35 25 17 41 29 19 50 35 24 52 36 23 57 41 28 68 50 35
92 71 48 98 76 54 107 86 63 114 93 70 113 92 69 127 106 83 139 117 95
121 100 77 127 106 83 124 102 80 115 94 72 103 81 59 80 59 39
75 53 33 70 48 28 64 44 28 69 52 42 72 57 50 69 56 51 58 47 44
29 20 18 21 14 16 13 7 11 7 5 6 7 7 5 9 10 5 12 10 6 16 12 9 18 11 9
19 12 10 21 15 12 23 17 15 26 18 14 29 20 16 35 24 19 38 25 18
32 18 9 43 27 16 56 38 26 66 47 35 75 55 41 90 70 56 102 81 70
103 82 71 99 78 67 83 62 53 64 42 36 50 33 25 24 14 6 19 11 5 15 10 2
13 9 3 12 10 6 12 10 8 8 9 6 7 7 5 9 6 7 9 6 7 10 7 8 10 7 8 10 7 8
10 7 8 10 7 8 10 7 8 10 8 6 11 9 7 12 10 8 13 11 10 15 10 10 14 9 8
13 8 5 13 8 5 13 8 5 13 8 5 13 9 3 13 9 3 15 9 6 15 9 6 15 8 8 15 8 8
13 8 5 13 8 5 13 8 5 13 8 5 17 13 10 19 15 12 31 27 24 23 19 16
14 9 8 40 36 37 77 71 75 92 86 91 63 56 58 99 93 88 148 143 131
141 137 118 169 164 141 196 191 166 194 189 161 244 239 211
208 201 176 130 123 98 93 86 61 80 73 48 85 75 53 69 59 37 82 72 50
79 69 48 64 51 32 67 54 36 72 59 40 75 62 44 79 69 52 76 65 48
77 66 49 61 50 33 58 48 31 70 59 42 70 61 44 56 47 32 38 29 18
35 25 17 39 29 23 41 30 25 29 19 11 35 25 17 25 15 7 32 22 14
29 19 11 29 19 11 38 28 20 31 22 11 36 26 16 45 36 25 49 39 27
59 50 37 62 56 40 54 48 32 68 62 46 80 74 55 98 92 74 83 77 59
53 47 28 87 81 60 91 86 65 86 80 59 80 74 53 88 82 63 89 83 67
81 74 60 48 41 30 42 35 26 34 27 18 34 23 16 36 24 15 43 28 19
51 35 24 52 36 23 59 40 26 68 50 35 95 76 53 99 80 56 104 85 62
108 89 66 118 96 74 110 88 66 129 108 86 126 104 82 96 74 52 90 68 46
85 64 41 84 63 40 100 78 58 106 84 64 105 83 63 103 83 67 95 79 69
86 71 64 68 55 50 44 33 30 29 20 18 21 14 16 13 7 11 7 5 6 7 7 5
10 11 6 14 13 9 16 12 9 18 11 9 19 12 10 21 15 12 23 17 15 24 15 11
27 19 15 34 23 18 38 25 18 33 19 10 47 30 20 59 40 28 63 45 33
87 66 53 95 75 61 97 77 65 93 72 61 94 73 64 80 59 50 59 37 31
40 23 15 21 11 3 15 10 2 14 8 3 13 9 3 11 9 5 8 9 6 7 7 7 7 7 7 7 7 7
8 8 8 10 7 8 10 7 8 10 7 8 10 7 8 10 7 8 10 7 8 11 9 7 12 10 8
17 15 13 19 17 15 21 16 15 21 16 15 23 19 16 23 19 16 22 18 15
18 14 11 15 11 6 15 11 6 15 9 6 15 9 6 15 8 8 15 8 8 13 8 5 13 8 5
13 8 5 13 8 5 17 13 10 19 15 12 31 27 24 23 19 16 15 11 8 46 42 41
59 54 58 61 56 60 69 62 64 92 86 81 139 134 120 135 132 110
155 150 127 207 202 176 217 213 185 225 221 193 172 165 140
120 112 88 80 73 48 74 67 42 68 58 36 75 65 43 53 46 23 64 54 33
67 56 37 70 60 40 75 64 45 78 68 49 88 77 60 84 73 56 85 74 58
69 58 41 62 51 34 74 63 46 73 65 47 59 50 35 46 36 28 41 30 25
42 32 24 39 29 21 32 22 14 38 28 20 29 19 9 36 26 16 41 31 20
30 20 10 37 27 17 34 24 11 46 37 24 58 49 36 46 37 24 60 51 36
64 55 38 72 63 46 64 56 36 91 83 62 92 84 64 93 85 65 76 67 47
85 77 55 105 100 77 112 107 84 107 101 78 116 111 87 126 121 100
122 116 97 61 55 39 41 34 23 34 27 18 35 25 17 36 24 15 43 28 19
51 35 24 52 36 23 59 40 26 68 50 35 122 103 80 114 95 72 102 83 60
94 75 52 94 73 51 82 60 38 83 61 39 103 81 59 114 93 70 117 95 73
124 102 80 134 113 90 134 112 92 121 99 79 112 90 70 97 78 59
78 62 49 54 40 31 39 26 19 28 17 14 18 9 8 14 7 7 10 5 7 9 6 7 7 7 5
10 11 6 14 13 9 17 13 10 21 15 12 23 17 15 26 19 17 28 22 19 34 26 22
31 23 16 28 18 10 28 16 9 29 14 5 51 35 24 66 47 35 66 47 35 79 58 45
92 71 58 101 80 69 100 79 68 96 75 66 78 56 48 53 31 25 31 14 9
17 9 2 13 9 3 11 8 2 11 9 5 8 9 6 8 9 6 7 7 7 7 7 7 8 8 8 7 7 7
10 7 8 10 7 8 10 7 8 10 7 8 10 7 8 10 7 8 11 9 7 13 11 10 21 16 15
25 21 20 30 24 22 34 26 22 38 29 25 40 32 26 39 31 27 35 24 21
29 18 13 24 16 9 17 8 4 17 8 6 15 8 8 15 8 8 13 8 5 13 8 5 13 8 5
13 8 5 17 13 10 19 15 12 31 27 24 23 19 16 16 12 9 36 31 31 79 74 76
81 76 78 66 60 58 101 96 89 147 143 126 139 135 114 167 162 138
186 181 155 228 223 195 225 217 192 133 125 100 124 117 92 93 86 61
80 72 50 83 73 51 54 44 22 59 51 29 64 56 36 61 50 31 64 54 35
70 60 40 74 63 44 83 72 55 84 73 56 92 81 65 82 71 54 71 60 44
83 72 55 83 74 56 67 58 43 55 44 36 42 31 26 32 22 14 24 14 6
35 25 17 41 30 23 32 23 12 38 29 18 49 39 29 31 22 11 36 27 14
35 25 13 65 56 43 72 63 50 44 35 20 59 51 33 72 64 44 80 72 52
71 63 41 99 91 69 85 77 53 102 95 70 101 94 67 98 91 63 121 116 88
138 133 105 132 128 100 147 142 117 167 162 138 167 161 141 79 72 54
41 34 21 34 27 18 35 24 19 36 24 17 43 28 19 51 35 24 52 36 23
59 40 26 68 50 35 92 73 49 80 61 38 73 54 31 74 55 32 93 73 53
103 84 63 116 97 76 121 101 81 146 127 106 141 121 100 125 106 85
130 111 90 133 111 91 121 99 79 111 89 69 90 71 52 74 58 46 51 36 27
34 22 14 22 11 6 22 13 11 19 12 12 14 9 10 9 6 7 12 10 8 12 10 6
16 12 9 19 15 12 19 12 10 22 16 13 29 23 18 33 27 22 36 27 23
32 24 18 29 19 11 28 16 9 37 22 14 55 38 28 62 44 32 69 51 37
93 72 59 89 69 55 96 75 64 109 88 77 92 70 62 85 63 55 65 43 37
37 20 14 14 8 3 9 10 5 8 9 4 8 9 6 6 6 4 8 9 6 14 14 12 17 18 15
7 5 6 9 6 7 9 6 7 9 6 7 9 6 7 9 6 7 10 7 8 10 7 8 11 8 9 17 13 12
25 18 18 31 22 20 46 33 28 53 38 32 58 42 31 56 37 28 55 36 29
57 35 31 57 35 29 55 36 29 33 18 14 24 10 10 19 12 14 15 10 12 13 8 7
13 8 5 13 8 5 13 8 5 28 24 20 28 24 20 28 24 20 28 24 20 23 19 16
38 34 31 61 55 50 108 103 96 120 115 105 104 99 85 147 141 123
144 138 117 176 171 148 200 195 169 243 236 211 194 187 162 99 89 67
76 66 44 89 79 57 92 82 60 94 86 66 78 70 50 79 71 51 76 67 47
92 83 66 76 67 49 63 54 37 59 51 33 75 64 47 81 70 53 84 73 56
84 73 56 83 72 55 81 70 53 77 66 49 75 63 49 61 49 39 47 34 27
32 22 14 29 19 11 45 36 25 32 23 12 30 20 10 36 26 16 67 58 45
44 35 22 43 34 21 42 32 20 69 60 44 73 64 49 79 70 55 74 66 48
88 77 58 96 86 64 88 77 56 90 81 54 87 81 51 103 98 63 117 112 75
138 133 98 149 143 111 166 160 128 181 175 145 195 188 161
204 199 176 217 211 191 97 91 73 36 29 13 41 30 23 35 24 19 36 24 17
41 27 18 50 33 23 51 35 22 57 39 25 67 49 34 101 82 59 111 92 69
117 98 75 115 96 73 113 93 72 117 98 77 124 105 84 130 111 90
137 118 97 152 133 112 132 113 92 132 113 92 129 108 88 118 96 76
104 82 62 85 65 46 50 34 19 37 23 11 31 18 9 25 15 7 20 12 8 19 12 10
18 14 13 16 14 12 14 10 6 14 10 6 16 12 9 19 15 12 21 15 12 23 17 15
28 22 17 30 24 20 32 24 18 31 23 16 30 20 12 31 18 9 50 35 24
52 36 23 61 43 28 80 61 47 90 70 56 92 71 58 99 78 67 107 86 75
92 70 62 79 57 49 56 34 27 30 15 9 13 8 5 8 11 7 8 9 6 7 7 5 6 6 4
9 10 7 14 14 12 17 18 15 10 7 8 7 5 6 9 6 7 9 6 7 9 6 7 9 6 7 10 7 8
10 7 8 11 8 9 17 12 14 25 18 18 32 22 18 48 34 27 59 40 30 66 45 34
65 42 30 74 48 39 74 48 39 74 48 39 72 49 41 57 38 33 37 21 20
19 9 15 19 11 16 15 10 10 15 11 8 15 11 8 15 11 8 23 19 16 23 19 16
23 19 16 23 19 16 23 19 16 32 29 23 49 44 34 92 87 75 122 118 103
124 119 103 143 137 118 157 151 130 153 148 125 212 208 182
229 222 197 170 162 140 123 112 91 62 52 30 54 44 22 76 66 44
76 67 47 67 59 39 62 53 33 56 48 28 70 61 44 84 75 58 86 77 60
74 66 48 82 71 54 70 59 42 67 56 39 74 63 46 76 65 48 74 63 46
70 59 42 68 57 40 58 47 35 56 44 32 58 49 36 58 49 36 51 42 29
39 30 17 32 23 10 38 29 16 62 53 37 56 47 32 56 47 32 53 44 29
58 49 34 69 60 44 83 74 58 98 89 72 104 93 74 97 87 65 89 79 55
106 97 70 109 103 71 124 119 82 137 132 93 157 152 115 169 162 130
186 180 150 213 206 179 236 229 204 249 243 222 249 242 224
110 104 87 36 29 15 41 30 23 35 24 19 36 24 17 41 27 18 50 33 23
51 35 22 57 39 25 67 49 34 139 122 98 137 120 96 124 107 83 109 92 68
122 103 82 128 108 88 135 115 95 137 118 97 136 116 96 134 114 93
149 129 109 132 113 92 127 105 85 117 95 75 96 77 56 74 54 36
42 26 11 36 22 8 36 25 13 36 26 16 27 19 13 22 16 11 17 13 10
16 14 10 14 10 6 15 11 8 17 13 10 19 15 12 25 18 16 25 18 16 26 20 15
26 20 15 27 19 13 29 20 14 32 22 14 35 23 14 55 41 30 59 43 30
67 49 34 88 70 55 87 66 53 95 75 61 102 81 70 103 82 71 94 73 64
70 48 39 44 22 16 23 8 2 13 8 5 7 9 6 7 7 5 9 7 5 6 6 4 9 10 7
14 14 12 17 18 15 14 12 13 7 5 6 9 6 7 9 6 7 10 7 8 10 7 8 10 7 8
10 7 8 12 10 10 17 12 14 25 18 18 32 22 18 50 35 28 63 44 35 72 51 40
73 50 38 82 59 44 83 58 44 83 58 44 83 57 48 74 52 46 52 34 34
19 4 11 18 8 16 20 13 13 18 14 11 20 13 11 19 12 10 19 13 8 18 12 7
16 12 7 16 12 7 19 16 10 29 26 18 46 40 31 89 84 72 133 128 114
139 135 118 150 143 125 169 164 143 188 183 159 246 241 218
200 192 170 116 109 86 104 93 74 84 74 54 72 62 41 58 48 27 51 43 23
57 49 29 54 48 28 55 50 29 56 47 30 77 68 51 86 77 60 78 69 52
77 68 51 83 74 56 79 70 53 69 60 42 69 58 41 67 56 39 63 53 33
61 50 31 52 41 22 62 51 32 69 60 40 70 62 42 66 58 38 63 55 35
59 51 31 50 42 22 55 46 26 73 65 45 72 64 44 70 62 42 65 57 37
80 72 54 79 70 53 108 100 80 135 127 105 120 112 90 100 93 68
110 103 76 148 141 111 154 150 118 160 157 121 173 169 138
209 204 180 223 217 196 245 239 221 255 250 234 255 250 234
255 252 237 119 114 102 47 39 31 41 30 25 36 25 20 36 24 17 41 27 18
50 33 23 51 35 22 57 39 25 67 49 34 123 106 82 117 100 76 117 100 76
124 107 83 131 112 91 134 114 93 137 118 97 139 120 99 134 114 93
127 107 86 138 119 98 144 125 104 124 102 82 110 88 68 90 71 50
61 42 23 54 36 19 49 33 18 48 35 21 49 37 27 39 29 21 32 24 18
24 20 15 21 17 13 14 10 6 15 11 8 17 13 10 19 15 12 27 20 18 26 19 17
26 20 15 25 19 14 24 16 9 29 18 13 34 23 16 39 27 17 48 34 23
72 56 43 82 64 49 87 68 54 85 64 51 97 77 63 104 83 72 101 80 69
94 73 64 64 42 34 36 14 8 17 2 0 11 7 4 8 9 6 9 7 5 9 7 5 6 6 4
9 10 7 14 14 12 17 18 15 17 14 15 10 7 8 9 6 7 9 6 7 10 7 8 10 7 8
10 7 8 10 7 8 12 10 10 17 12 14 25 18 18 32 22 18 51 36 29 66 46 39
77 56 44 79 56 44 83 61 43 84 60 43 86 59 43 86 59 45 78 54 46
64 41 40 24 8 11 21 9 13 22 15 15 21 17 13 22 16 13 22 16 13 13 7 2
13 7 2 11 8 2 11 8 2 15 12 4 32 26 17 53 48 36 101 97 85 149 145 130
148 144 127 169 163 145 182 176 156 219 214 193 237 230 207
174 167 144 109 101 81 78 68 49 96 85 66 91 81 61 93 83 64 85 77 57
70 62 42 45 39 18 34 28 10 57 48 31 56 47 30 62 53 35 66 58 40
66 58 40 65 57 39 69 60 42 74 66 48 69 58 41 67 56 39 63 52 35
61 50 31 47 37 15 63 53 29 71 64 37 72 65 40 79 72 47 84 76 51
81 74 49 64 57 32 55 47 22 80 73 48 83 75 50 86 78 56 79 71 49
95 88 65 81 74 51 108 100 78 145 138 115 148 140 118 135 128 103
136 131 105 161 157 129 179 174 146 197 193 165 219 215 189
245 239 223 253 246 235 255 252 241 255 251 239 255 250 240
255 252 243 121 116 106 49 44 34 39 31 25 36 26 18 36 24 15 41 27 16
50 34 21 53 34 22 57 39 25 67 49 34 104 87 65 121 105 83 134 117 96
134 117 96 136 116 96 137 118 97 138 119 98 139 120 99 132 113 92
137 118 97 132 115 93 124 105 84 131 112 91 111 92 71 83 64 43
71 51 33 67 47 31 74 56 41 74 58 46 71 56 45 58 46 39 46 36 30
34 26 22 26 20 15 26 19 17 23 17 15 25 18 16 26 19 17 26 19 17
27 20 18 29 23 18 33 27 22 37 29 22 39 29 23 43 31 24 47 35 25
68 54 43 66 50 37 75 57 42 89 69 55 83 63 47 95 75 61 97 77 63
102 81 70 97 77 65 73 52 43 45 24 15 27 13 6 13 8 5 8 9 6 12 10 8
12 10 8 10 11 8 10 11 8 12 12 10 12 12 10 10 7 8 10 7 8 9 6 7 9 6 7
10 7 8 10 7 8 10 7 8 10 7 8 10 7 10 15 10 12 23 17 17 34 22 22
48 33 29 56 37 30 75 54 45 83 63 49 90 68 50 95 71 51 93 66 48
86 59 43 85 57 44 84 60 52 34 14 12 18 2 3 17 8 6 14 10 6 14 8 5
13 5 3 12 6 1 13 7 0 14 8 1 16 11 4 14 8 1 20 15 5 56 49 38
154 147 136 180 173 159 160 154 138 194 188 169 183 177 159
228 220 200 205 197 177 126 115 96 100 90 71 90 79 62 90 79 62
90 79 62 90 79 62 74 66 48 83 74 56 76 70 52 61 55 37 56 47 32
59 50 35 64 55 40 67 58 43 66 59 43 65 58 42 61 55 39 60 51 36
62 53 37 53 44 29 55 46 28 62 53 33 60 53 26 63 56 26 70 63 33
78 71 42 83 74 47 96 86 60 100 91 65 96 86 60 89 83 55 91 84 56
91 84 56 99 92 65 112 104 79 116 109 84 106 98 74 110 103 78
139 134 109 159 154 128 148 143 120 167 164 140 188 185 161
210 207 183 233 230 206 249 246 226 255 253 244 255 253 248
255 253 248 255 253 248 255 255 247 254 250 242 124 121 113 49 45 37
45 37 28 41 30 23 39 27 17 41 27 16 48 32 19 56 38 24 71 50 37
57 37 21 99 82 61 112 95 74 125 108 86 130 113 91 134 114 93
132 113 92 131 112 91 130 111 90 130 111 90 135 115 95 130 113 91
120 103 82 115 96 75 96 77 56 80 61 40 78 58 37 78 58 40 83 63 47
82 64 49 73 57 44 60 46 37 50 38 31 41 30 25 32 24 20 28 22 19
25 18 16 23 17 15 26 19 17 25 18 16 27 20 18 29 23 18 33 25 21
37 27 21 39 29 23 43 31 24 52 37 29 63 46 36 67 48 36 75 55 41
83 63 49 89 69 53 96 76 60 107 86 73 85 64 51 101 80 69 81 60 49
57 35 27 32 17 11 13 8 5 9 10 7 11 9 7 11 9 7 9 10 7 9 10 7 9 10 7
9 10 7 10 7 8 10 7 8 9 6 7 9 6 7 10 7 8 10 7 8 10 7 8 10 7 8 9 6 9
14 8 12 19 12 14 29 18 17 43 27 23 61 42 34 82 61 52 94 73 60
98 76 58 96 72 53 93 67 46 90 61 43 92 65 47 89 64 50 63 42 30 27 9 4
18 10 6 16 10 8 19 10 9 17 8 4 17 9 2 14 8 1 13 7 0 18 12 5 23 18 9
43 38 28 136 128 117 193 186 172 151 144 128 166 159 143 169 163 145
194 188 169 227 219 199 177 169 149 105 95 75 79 69 52 77 66 49
77 66 49 77 66 49 72 62 45 67 59 41 71 62 45 74 68 49 69 63 45
66 57 42 66 57 42 71 62 47 74 65 50 84 78 62 82 76 60 79 72 56
75 69 53 62 53 37 56 47 32 55 46 28 55 46 26 50 43 16 67 61 31
81 75 45 84 77 47 77 68 39 93 84 58 112 103 76 121 112 84 119 112 82
117 111 81 113 106 77 102 96 66 124 117 90 137 130 103 140 133 105
152 145 118 165 160 134 184 181 157 188 185 161 206 205 182
231 230 210 243 242 222 254 252 234 255 252 239 255 253 250
255 253 252 255 253 250 255 254 250 252 251 244 251 250 241
147 146 137 57 54 43 41 34 25 42 30 23 45 30 22 51 35 24 56 38 26
63 45 31 71 51 35 52 32 16 83 66 44 95 78 56 117 100 78 137 120 98
146 127 106 143 123 103 137 118 97 134 114 93 127 107 86 131 112 91
126 109 88 117 100 78 106 86 65 88 69 48 87 68 47 87 68 47 90 68 48
88 68 50 82 64 47 71 55 40 58 44 32 49 37 27 42 32 24 36 27 21
33 27 22 26 19 17 23 17 15 25 18 16 25 18 16 27 20 18 29 23 18
33 25 21 37 27 21 39 29 23 43 31 24 65 50 41 64 47 37 74 55 43
82 62 48 83 63 49 93 73 57 100 80 64 88 68 54 97 77 63 100 79 68
89 68 57 66 45 36 34 20 13 13 8 5 9 10 7 11 9 7 10 8 6 8 9 6 7 7 5
7 7 5 7 7 5 10 7 8 10 7 8 10 7 8 10 7 8 10 7 8 10 7 8 10 7 8 10 7 8
9 6 9 13 7 11 18 10 13 24 13 12 38 23 19 62 43 36 74 53 44 82 61 50
96 73 60 96 71 55 100 73 55 100 72 52 106 80 57 103 80 56 97 75 55
70 54 39 30 22 15 13 6 4 13 5 3 16 5 2 22 13 7 17 9 0 13 8 0 27 22 12
35 30 20 117 112 100 169 162 151 164 157 143 171 164 148 165 158 142
164 157 139 226 220 202 213 204 187 142 133 116 92 81 65 71 60 44
72 61 47 72 61 47 72 62 45 70 59 42 65 57 39 62 53 35 65 58 40
69 63 45 71 62 47 71 62 47 77 68 53 80 71 56 97 91 75 94 87 71
88 81 65 83 77 61 70 61 46 67 58 43 63 54 37 53 45 25 58 50 28
59 52 27 73 66 39 92 85 58 91 82 55 95 85 61 104 94 70 114 105 79
131 125 95 142 135 106 149 142 113 137 131 101 142 135 106
161 154 124 170 163 134 187 183 152 206 204 177 219 218 193
231 231 208 244 245 224 254 255 237 255 255 240 255 255 242
254 253 245 254 252 251 255 253 252 255 254 250 254 255 248
255 255 248 249 251 239 156 158 146 55 55 43 45 37 28 46 33 26
48 34 25 55 38 28 56 38 26 68 50 35 74 54 38 56 35 19 120 103 82
118 101 79 127 110 89 141 124 103 144 125 104 138 119 98 130 111 90
124 105 84 124 105 84 129 110 89 124 107 85 114 98 76 100 80 60
92 72 51 102 83 62 90 71 50 93 71 51 90 71 52 81 63 46 70 52 38
56 40 27 50 35 26 43 31 24 39 29 23 39 31 27 27 20 18 23 17 15
22 16 13 25 18 16 27 20 18 29 23 18 33 25 21 37 27 21 38 28 22
48 35 28 73 58 50 70 53 43 84 66 54 93 72 59 90 70 56 82 62 46
94 74 58 106 85 72 97 77 63 96 75 64 90 70 58 71 49 41 45 28 23
14 8 5 11 9 7 11 7 6 10 6 5 7 5 4 6 6 4 7 7 5 7 7 5 9 6 7 9 6 7
10 7 8 10 7 8 9 6 7 9 6 7 9 6 7 9 6 7 7 5 8 11 6 10 16 9 12 23 12 11
32 17 13 66 49 43 80 61 51 94 73 62 96 72 62 92 69 56 98 71 55
107 80 62 107 81 58 108 84 60 109 85 63 114 94 78 84 72 62 46 36 30
30 20 14 30 20 14 24 16 7 19 12 3 16 11 2 50 45 35 110 105 93
146 141 129 160 153 140 173 166 152 185 178 162 158 151 135
179 173 154 218 212 194 169 160 143 112 103 85 102 91 74 81 70 53
78 67 53 78 67 53 78 67 51 78 67 51 74 66 48 59 51 33 53 47 28
61 55 37 74 65 50 78 69 54 83 74 58 86 77 62 98 92 76 93 86 70
87 80 64 81 74 58 81 72 57 83 74 58 76 67 51 59 51 33 57 49 29
65 57 35 72 64 42 73 66 41 88 78 54 85 76 51 95 85 61 109 99 75
127 120 93 147 140 110 164 157 128 164 157 128 179 173 143
197 190 160 205 199 167 219 215 185 241 239 212 244 243 221
254 255 235 255 255 243 251 251 237 253 252 243 255 255 249
255 255 253 254 254 252 254 254 252 254 254 252 254 255 250
255 255 249 255 255 247 212 214 202 57 57 46 47 39 31 45 32 25
43 28 19 45 29 18 54 35 23 67 49 34 78 57 42 66 46 30 124 105 84
149 129 109 139 120 99 148 128 107 136 116 96 129 110 89 123 106 84
120 103 82 110 93 71 108 91 69 103 86 64 101 84 62 91 74 53 95 78 56
101 82 61 104 85 64 95 75 57 89 69 53 76 58 42 62 44 30 55 39 26
44 29 20 40 27 20 42 31 26 32 24 20 26 19 17 22 16 13 21 15 12
26 19 17 32 25 23 32 26 21 27 19 15 35 24 19 42 31 26 62 49 42
69 55 46 80 64 53 90 72 60 89 69 55 77 56 40 92 71 56 97 77 61
100 79 66 88 68 54 100 79 68 92 71 60 75 56 46 47 29 24 27 13 13
16 6 7 13 6 6 8 3 3 7 5 4 9 7 5 7 7 5 7 7 5 8 8 8 8 8 8 10 7 8 10 7 8
9 6 7 9 6 7 9 6 9 7 5 8 7 5 8 11 6 10 15 8 10 20 11 10 31 17 15
44 27 21 80 60 53 96 75 66 100 79 68 112 89 76 112 89 74 98 74 57
112 88 71 113 89 72 115 90 75 114 91 78 113 92 81 111 94 82 110 96 83
108 99 86 100 92 81 112 105 94 136 131 119 132 127 115 134 129 117
138 133 121 180 173 159 207 200 186 159 152 136 171 164 148
226 217 202 161 152 136 123 115 97 81 73 55 66 57 42 76 67 51
72 63 48 83 74 58 81 72 57 71 62 47 73 64 49 79 70 55 67 59 41
74 66 48 65 58 42 67 60 44 72 65 49 75 69 53 95 88 72 96 90 74
87 80 64 77 71 55 84 78 64 89 82 69 103 97 81 83 77 61 69 60 42
86 77 60 79 71 51 95 88 65 105 97 74 103 96 73 102 95 70 106 98 74
128 121 94 148 141 113 166 160 130 186 180 150 200 194 162
218 211 179 232 229 196 237 233 202 255 253 229 255 253 233
253 253 237 253 253 239 255 255 248 255 255 252 255 255 254
255 255 254 255 255 253 255 255 253 255 255 253 255 255 251
254 255 250 253 254 247 212 213 206 60 59 52 56 48 42 43 31 24
45 30 22 47 30 20 47 28 16 64 46 32 74 54 38 68 48 32 104 85 64
130 111 90 130 111 90 124 105 84 110 91 70 96 77 56 84 67 46 85 68 47
88 71 49 92 75 54 99 82 61 103 86 64 95 78 56 96 79 57 100 80 60
101 81 63 92 71 56 82 62 46 68 50 35 55 39 26 41 27 16 40 26 17
41 29 21 39 29 23 29 20 16 23 17 15 21 15 12 22 16 13 26 19 17
28 22 19 28 22 17 27 19 15 32 22 16 46 36 30 53 40 33 68 54 45
73 57 46 82 63 51 82 62 48 74 54 38 96 76 60 102 82 66 96 76 62
102 82 68 99 78 67 86 65 54 84 65 56 54 36 31 32 16 17 20 8 10 14 7 7
9 5 4 9 7 5 9 7 5 7 7 5 7 7 5 8 8 8 8 8 8 10 7 8 10 7 8 11 8 9 11 8 9
11 8 11 10 7 10 10 7 10 14 8 12 18 10 13 23 14 12 34 21 18 66 49 43
105 86 79 108 87 78 118 97 86 121 100 87 121 99 83 114 92 76
117 94 81 117 94 81 118 93 81 118 93 81 114 92 76 118 98 82
122 109 90 126 115 98 144 135 122 159 152 140 136 131 119 120 115 103
151 147 135 168 163 151 187 180 166 180 173 159 171 164 148
202 195 179 187 178 163 130 121 106 107 98 81 88 79 64 77 68 53
71 62 47 53 44 29 66 57 42 79 70 55 83 74 58 60 51 36 70 61 46
83 74 56 60 52 34 77 71 55 75 69 53 70 64 48 68 62 46 91 85 69
97 91 75 91 85 69 83 77 61 79 72 58 95 88 74 114 107 91 93 86 70
76 67 51 84 75 60 83 74 56 89 81 61 117 109 89 117 110 87 116 109 86
115 108 83 142 135 108 157 150 121 180 174 144 202 196 166
216 210 178 234 228 196 249 245 212 252 249 221 255 253 231
255 253 235 255 253 237 253 253 241 255 255 250 255 255 252
255 255 254 255 255 254 255 255 253 255 255 253 255 255 253
255 255 253 254 255 250 253 253 249 212 213 208 60 59 52 56 48 42
43 31 24 45 30 22 47 30 20 52 33 21 69 51 37 79 59 43 73 53 37
81 62 41 79 59 39 109 90 69 88 69 48 77 57 36 73 54 33 78 61 40
91 74 53 114 98 76 110 93 71 104 87 65 99 82 61 99 82 61 98 81 60
96 79 57 95 77 58 85 68 51 74 56 41 60 41 29 45 29 18 37 22 14
39 26 19 38 25 18 34 23 18 27 19 15 23 17 15 23 17 15 25 18 16
26 19 17 23 17 15 23 17 13 27 19 15 34 23 18 45 35 29 49 37 29
62 48 39 71 54 44 75 56 44 78 57 44 77 56 40 96 76 60 94 74 58
104 84 70 102 82 68 92 71 60 93 72 61 81 62 52 65 48 42 36 20 20
23 11 13 19 10 11 13 8 7 10 8 6 10 8 6 8 9 6 7 7 5 8 8 8 8 8 8 10 7 8
10 7 8 14 12 13 14 12 13 14 12 15 13 10 14 13 10 14 17 12 16 21 14 16
26 17 16 28 15 13 64 47 41 108 88 81 114 92 84 113 92 81 108 87 74
109 89 73 115 95 79 120 99 85 121 98 85 121 98 85 121 98 85
122 100 85 127 106 90 133 117 100 135 124 108 142 133 118 136 129 115
126 121 107 151 147 133 169 164 150 186 182 168 188 181 168
185 178 162 202 195 179 190 184 168 142 133 118 105 96 81 92 83 68
85 76 61 81 72 59 80 71 58 69 59 46 62 52 39 58 49 34 60 51 36
56 47 32 70 61 46 86 77 60 67 59 41 82 76 60 79 72 56 75 69 53
72 65 49 87 80 64 98 92 76 100 93 77 90 84 68 93 86 72 82 75 62
108 101 87 123 116 102 94 85 70 91 82 67 94 86 68 93 84 67 112 103 85
113 105 85 115 107 87 114 106 84 143 136 109 163 157 125 187 181 149
208 202 170 222 216 184 240 234 201 254 251 218 255 255 226
255 253 231 255 252 235 255 253 237 255 252 239 255 255 248
255 255 250 255 255 252 255 255 254 255 255 253 255 255 253
255 255 253 255 255 253 254 255 250 253 253 249 212 213 208 60 59 52
56 48 42 43 31 24 45 30 22 47 30 20 52 33 21 69 51 37 79 59 43
73 53 37 80 61 40 78 58 37 83 64 43 97 78 57 106 86 65 95 76 55
98 81 60 117 100 78 123 106 84 116 99 77 105 88 67 99 82 61 103 86 64
99 82 61 95 78 56 91 74 55 78 61 44 65 49 34 52 36 25 38 23 15
38 25 18 36 25 20 32 22 16 23 14 10 26 19 17 26 19 17 25 18 16
26 19 17 26 19 17 20 13 11 20 14 9 26 18 14 37 27 21 38 28 22
53 40 33 55 41 32 73 57 46 75 56 44 80 59 46 83 63 47 82 62 46
97 77 61 101 80 67 97 77 63 97 77 65 83 63 51 87 68 58 66 49 41
38 22 21 27 15 17 22 12 13 16 10 10 11 7 6 10 8 6 8 9 6 7 7 5 8 8 8
8 8 8 10 7 8 10 7 8 17 14 15 17 14 15 17 14 17 16 13 16 14 12 15
19 14 18 23 16 19 29 19 20 17 3 1 38 21 18 85 66 59 110 89 80
120 98 90 113 92 81 118 98 84 132 112 96 125 105 91 125 105 91
127 104 91 127 104 91 141 118 105 139 119 105 136 120 105 135 121 105
141 130 115 137 128 115 162 156 142 171 167 152 197 192 178
196 189 176 178 171 155 192 185 169 199 192 176 154 148 132
121 112 97 77 68 53 76 67 51 65 56 41 76 66 53 98 88 76 71 62 49
55 45 32 48 39 23 52 43 28 35 26 11 49 40 25 49 40 25 63 54 39
75 69 53 77 71 55 82 76 60 86 79 63 84 78 62 96 90 74 101 94 78
96 89 76 91 84 71 87 80 66 117 110 96 126 119 106 116 107 92
105 96 81 115 107 89 108 100 82 112 103 85 119 110 92 128 119 102
135 127 107 144 137 110 166 160 128 190 183 151 207 201 169
221 215 183 237 233 200 252 250 217 255 255 223 255 253 229
255 253 233 255 253 235 255 253 237 255 255 246 255 255 248
255 255 249 255 255 252 255 255 253 255 255 253 255 255 253
255 255 253 254 255 250 254 255 250 212 213 208 60 59 52 55 47 41
43 31 24 44 29 20 45 29 18 47 28 16 64 46 32 74 54 38 68 48 32
120 100 79 117 98 77 113 93 72 109 90 69 115 96 75 116 97 76
118 101 81 123 105 86 128 111 90 108 91 69 97 82 60 100 86 63
91 76 54 98 83 61 94 80 57 76 61 41 69 53 38 47 33 22 36 21 12
35 23 16 34 23 18 26 18 14 20 12 8 18 11 9 19 12 10 21 15 12 25 18 16
26 19 17 25 18 16 23 17 15 23 17 13 26 18 14 31 21 15 32 22 16
43 31 24 59 44 36 77 60 50 84 66 54 85 64 51 86 66 50 85 65 46
90 70 54 92 71 56 99 78 65 92 71 58 83 63 51 81 62 50 62 45 37
44 28 27 21 9 11 24 15 15 13 6 6 13 8 7 11 9 7 9 10 7 9 10 7 9 9 9
10 10 10 16 13 14 18 15 16 18 15 16 14 12 13 10 7 10 4 1 4 17 14 19
17 12 16 18 10 13 16 6 7 26 12 12 37 21 20 99 82 76 148 129 122
137 118 108 127 109 97 128 110 96 135 118 101 135 117 103 129 108 95
129 108 95 137 116 103 141 118 105 134 113 101 135 117 105
143 129 115 150 139 125 157 148 133 185 178 162 196 190 174
206 199 183 190 184 168 185 176 161 172 163 148 138 129 116 105 95 83
94 85 72 76 66 53 77 68 53 74 65 50 69 60 44 95 86 71 80 71 58
81 72 59 63 53 41 64 55 42 36 27 14 52 43 30 60 51 36 56 47 32
67 60 46 86 79 65 96 89 76 97 90 77 107 103 88 117 112 98 114 110 95
104 99 85 110 105 93 91 86 74 100 96 81 119 112 99 130 123 107
116 109 93 108 102 83 119 113 95 115 107 89 122 114 96 134 125 108
142 134 114 147 143 115 172 168 135 195 191 158 188 184 151
208 204 171 226 223 190 242 241 207 250 249 217 255 255 228
252 248 227 253 249 230 255 255 239 251 249 236 254 251 240
255 255 247 255 255 250 255 255 252 255 255 254 255 255 254
255 255 254 250 251 246 254 255 250 225 225 221 61 60 53 54 46 40
47 34 27 44 29 20 45 29 18 49 31 19 60 42 27 68 48 32 67 47 31
111 92 71 110 91 70 108 89 68 107 87 67 113 93 72 138 119 98
147 130 111 137 119 100 128 111 90 108 91 69 97 82 60 101 87 64
91 76 54 95 81 58 88 74 51 72 57 37 54 41 27 38 23 15 32 19 12
32 22 16 29 20 16 23 14 12 19 12 10 19 12 10 19 12 10 21 15 12
23 17 15 26 19 17 26 19 17 26 19 17 26 20 15 27 19 15 28 17 12
30 20 14 40 27 20 54 42 32 58 44 32 67 51 39 73 54 40 75 55 39
86 66 48 83 64 45 96 76 60 94 74 58 88 68 54 87 66 53 88 69 57
73 56 48 45 29 28 27 15 17 25 16 17 16 10 10 13 8 7 13 8 7 11 9 7
10 11 8 16 16 16 14 14 14 12 10 10 11 8 9 12 10 10 12 10 10 14 12 15
16 13 16 20 17 23 10 5 9 12 5 7 20 11 14 50 36 39 101 85 84
119 104 100 135 118 112 144 124 117 145 126 116 142 124 110
142 124 110 142 124 110 134 116 102 136 115 102 144 123 110
147 123 113 143 122 111 147 129 117 157 143 129 157 146 132
174 166 150 206 199 183 200 193 177 199 192 176 172 165 149
145 136 121 115 106 91 108 99 86 106 96 84 102 93 80 85 76 63
78 69 54 76 67 51 78 69 54 94 85 72 95 86 73 66 57 44 69 59 46
71 62 49 62 52 39 53 44 31 59 50 35 74 65 50 76 69 56 87 80 66
95 88 74 97 90 77 119 114 100 128 124 109 124 119 105 117 112 98
118 113 101 128 123 111 111 106 92 113 109 94 129 122 106 125 119 101
124 118 99 129 123 104 129 121 103 122 114 94 136 128 108 161 153 130
166 161 133 178 174 141 204 201 168 212 209 176 214 210 177
226 223 190 236 235 201 240 238 207 241 239 210 239 236 212
243 240 219 254 250 231 251 249 234 254 251 238 255 254 244
255 255 248 255 255 252 255 255 254 255 255 254 255 255 254
255 255 253 254 255 250 243 244 239 92 91 85 55 47 41 49 37 29
46 32 23 48 31 21 54 35 23 64 46 32 73 53 37 72 52 36 115 96 73
116 97 74 118 99 78 120 100 79 128 108 88 130 111 90 139 122 102
152 134 115 127 112 90 106 91 69 97 82 60 100 87 64 95 83 60 90 78 55
79 67 43 62 49 31 45 31 20 34 22 14 31 18 11 29 18 13 25 17 13
21 15 12 20 13 13 19 12 12 19 12 10 21 15 12 23 17 15 26 19 17
28 22 19 28 22 19 28 22 17 30 21 17 25 15 9 28 17 12 36 24 17
50 38 29 51 37 25 58 42 29 70 52 38 74 54 38 78 61 42 88 70 51
84 66 50 94 76 59 89 71 56 91 73 59 92 74 60 79 63 52 46 30 29
35 23 25 24 15 15 22 15 15 15 10 10 15 10 10 12 10 8 10 11 8 16 16 16
14 14 14 12 10 10 10 7 8 14 12 13 17 14 15 16 13 16 18 15 18 14 12 15
18 13 17 27 20 22 66 56 59 101 89 91 83 70 67 79 63 59 133 115 110
151 134 126 157 141 130 157 141 128 155 139 126 155 139 126
148 130 118 148 130 118 158 137 126 159 138 127 158 137 126
168 150 138 180 166 153 176 165 150 197 188 172 208 201 185
183 177 161 159 152 136 144 137 121 122 114 96 103 95 79 91 81 69
102 93 80 98 88 76 94 85 72 80 73 59 77 71 57 91 84 71 90 83 70
98 91 80 69 62 51 72 65 51 74 67 53 63 53 41 51 42 29 63 54 39
91 82 67 88 81 67 87 80 66 93 86 72 95 88 74 117 112 98 132 127 113
136 132 117 133 128 114 132 127 113 131 126 112 140 135 121
115 111 94 126 122 105 138 134 115 143 140 118 141 136 115
147 142 121 134 129 106 138 133 109 157 152 126 162 158 130
178 173 143 208 204 173 218 214 184 225 221 191 238 234 203
248 247 213 252 250 217 239 237 206 233 231 202 235 232 208
242 239 217 251 250 232 254 251 236 255 255 242 255 255 248
255 255 252 255 255 254 255 255 254 255 255 254 255 255 252
254 255 250 253 253 249 133 132 126 58 50 43 52 39 32 48 34 25
50 33 23 54 35 23 64 46 32 73 53 37 72 52 36 107 88 65 109 90 67
114 94 74 117 98 77 129 110 89 120 100 81 121 104 85 135 118 99
127 112 92 106 91 71 95 82 62 100 87 66 99 86 65 87 74 53 68 56 35
54 41 23 41 29 19 33 20 15 25 15 9 24 13 10 25 17 13 22 16 13
20 13 11 19 12 10 19 12 10 21 15 12 23 17 15 26 20 15 30 24 20
30 24 20 30 25 18 32 24 18 27 16 11 24 14 8 34 22 14 47 35 25
53 39 28 62 46 33 75 57 42 82 64 49 78 61 44 81 63 46 88 70 53
89 71 54 94 75 61 95 77 62 93 77 62 77 60 50 47 32 28 42 28 29
25 14 13 27 18 17 16 10 10 15 10 10 13 11 10 10 11 8 9 9 9 10 10 10
16 13 14 18 15 16 25 22 23 20 18 19 16 13 16 10 7 10 19 16 19
17 12 16 100 95 97 103 96 96 61 52 51 36 25 22 67 54 49 124 109 103
152 137 131 165 148 140 171 155 144 165 149 138 165 149 138
157 141 130 157 141 130 167 148 136 167 148 136 169 151 139
182 165 153 197 184 170 203 192 177 206 197 182 200 191 176
168 162 146 130 123 107 121 114 98 112 103 85 101 92 77 96 87 74
98 88 76 81 72 59 98 88 76 81 74 60 80 73 59 101 94 80 88 81 67
89 82 71 90 83 72 72 65 51 73 66 52 77 67 55 60 51 38 52 43 28
57 48 33 97 90 77 89 82 69 89 82 69 88 81 67 104 99 85 134 130 115
150 146 131 136 132 117 128 124 109 138 133 119 136 132 115
141 137 120 118 114 95 139 135 116 154 151 129 155 152 128
165 159 136 157 151 128 146 141 116 138 133 107 143 138 112
173 168 140 206 201 173 206 201 171 214 209 179 232 228 198
248 246 215 255 255 221 252 250 217 240 238 207 232 230 201
233 230 206 250 249 227 254 252 234 255 255 240 255 255 244
255 255 250 255 255 254 255 255 254 255 255 254 249 250 245
255 255 251 249 250 247 160 158 154 60 52 45 54 41 34 51 36 27
52 36 25 49 31 19 60 42 27 68 48 32 67 47 31 104 86 60 106 87 63
114 95 72 123 104 83 121 101 81 116 96 78 117 97 81 151 133 116
140 124 107 115 102 83 99 86 67 96 83 65 84 74 54 74 63 44 68 57 38
45 34 17 32 19 12 25 15 11 25 15 11 28 17 14 26 18 14 24 15 11
20 14 9 19 13 8 24 15 11 20 12 8 22 13 9 29 20 14 31 23 14 32 24 16
34 27 16 38 28 20 34 23 20 32 18 16 32 18 16 41 29 21 43 28 19
55 41 30 70 54 41 77 61 48 77 59 47 82 64 49 82 64 49 95 77 62
103 85 70 108 89 75 98 80 66 80 64 51 67 53 44 56 44 36 32 19 14
30 19 16 18 11 9 16 12 11 14 12 11 13 11 12 12 10 10 17 14 15
21 19 20 25 22 23 16 13 14 12 10 10 12 10 10 18 15 16 44 39 41
123 118 120 94 89 91 57 50 50 31 22 20 28 17 14 95 85 79 116 103 98
146 133 126 165 150 144 177 162 153 181 167 158 185 170 161
186 171 163 188 174 165 194 180 169 194 178 168 196 179 169
207 193 181 208 194 183 197 185 173 188 179 166 156 147 134
145 136 123 121 112 97 119 110 94 109 100 85 96 88 72 102 95 81
96 89 76 73 66 52 73 66 52 104 97 84 101 94 80 100 93 79 101 94 80
86 78 67 94 86 75 97 90 79 84 77 66 86 79 65 60 53 39 63 57 43
65 58 44 86 79 63 102 95 79 102 95 79 109 102 86 106 102 85
119 115 98 138 133 117 150 146 129 130 128 111 122 120 103
149 147 129 167 166 146 145 141 122 134 130 111 149 146 124
150 147 125 171 168 144 183 180 156 168 165 141 163 160 136
144 139 113 153 148 122 203 198 173 211 207 179 209 204 176
218 214 186 222 218 187 231 227 194 239 235 203 239 235 203
241 239 208 247 245 216 248 248 220 251 250 228 255 253 233
255 255 240 254 253 245 254 253 249 254 253 249 254 253 249
255 255 254 255 255 255 255 255 255 218 216 215 59 51 44 58 46 39
58 43 34 52 36 25 61 42 30 62 44 30 70 49 33 75 55 39 79 60 35
96 78 52 111 92 69 115 96 75 114 94 76 116 96 78 131 111 95
162 144 128 157 141 126 125 112 96 101 87 72 97 84 68 81 70 53
68 57 40 64 53 37 45 33 19 39 29 21 31 21 15 25 15 9 24 14 8 29 20 14
29 20 14 27 19 13 29 20 16 31 22 18 30 22 15 34 26 20 44 36 27
49 42 31 44 34 24 45 36 23 54 42 32 53 40 35 45 31 29 39 26 21
40 25 19 39 25 16 53 39 28 67 53 42 78 61 51 79 63 50 74 55 43
88 70 55 98 80 66 102 84 69 104 86 72 97 79 65 84 68 53 74 60 47
59 45 34 38 25 16 29 18 13 18 12 7 16 12 9 16 12 11 16 13 14 20 18 19
19 17 17 18 15 16 16 13 14 14 12 13 17 14 15 18 15 16 70 68 69
115 110 112 79 74 76 51 46 46 29 24 24 25 18 16 76 67 66 112 101 98
117 107 101 156 143 139 171 159 152 183 171 163 190 178 170
185 173 166 199 187 178 211 199 189 212 200 190 213 201 192
214 200 188 200 186 175 197 185 175 178 168 158 155 145 135
141 131 121 112 102 90 110 101 88 109 100 85 105 96 81 92 83 68
98 91 78 102 95 81 81 74 60 76 69 56 94 87 73 98 91 78 101 94 80
98 91 78 90 83 72 98 91 80 93 85 74 93 85 74 94 87 73 73 66 52
74 67 53 66 59 45 76 70 54 105 99 83 117 110 94 108 101 85
124 119 103 128 124 107 134 130 113 139 135 118 151 149 132
143 141 124 141 139 119 177 175 155 184 180 161 154 150 131
151 148 127 149 146 124 178 175 151 192 189 165 179 177 152
177 174 150 182 177 152 160 155 129 188 183 157 223 218 192
216 211 183 222 217 189 225 221 191 231 227 196 229 225 192
239 236 201 241 240 206 236 235 203 245 246 216 248 248 220
251 251 226 255 253 235 254 253 245 254 253 249 254 253 249
254 253 249 255 255 255 255 255 254 252 251 252 250 248 246 90 82 76
62 49 42 54 40 31 54 37 27 59 40 28 60 42 27 67 47 31 73 53 37
80 61 36 81 63 37 96 77 54 116 97 76 120 100 81 118 99 80 138 118 102
152 134 119 163 147 134 144 130 117 121 107 93 103 89 76 95 83 69
77 66 51 74 62 48 58 47 35 51 41 31 43 33 25 37 27 19 36 26 18
32 22 14 35 25 17 36 26 18 38 28 22 44 34 28 46 36 28 57 47 39
70 60 52 77 67 57 79 68 56 84 72 60 89 77 67 92 77 70 80 65 59
62 47 41 53 39 30 48 31 21 62 45 35 71 54 44 78 61 51 71 55 42
81 65 53 99 83 68 94 79 63 102 87 72 101 86 70 97 81 66 93 77 62
82 68 55 59 45 34 43 31 22 27 16 11 20 12 8 18 11 9 17 13 12 21 16 15
22 17 17 21 16 15 17 13 12 15 10 10 21 16 15 29 24 24 107 102 102
111 107 106 71 66 66 58 53 53 35 30 29 30 26 25 58 52 50 93 84 82
107 98 94 145 134 131 166 156 150 180 170 164 195 185 179 204 193 188
201 188 181 217 204 197 225 212 205 217 204 197 216 204 194
199 187 178 187 174 165 169 159 149 156 146 138 130 120 112
128 118 108 106 96 86 101 92 79 105 95 83 100 91 76 88 79 64 93 86 72
108 101 87 91 84 71 82 75 62 78 74 59 96 91 77 101 97 83 94 90 76
94 90 78 101 97 85 86 81 69 101 97 85 107 100 86 90 83 70 86 79 65
67 60 46 89 83 67 96 90 74 118 112 96 126 120 104 133 129 112
134 130 113 136 132 115 138 133 117 142 140 120 162 160 140
159 158 138 166 165 143 189 189 166 188 187 165 186 185 163
155 154 129 167 164 140 184 182 155 176 173 147 177 175 148
196 193 167 202 199 173 182 179 153 224 221 195 214 209 181
202 197 169 222 218 187 210 206 176 231 227 194 225 222 187
227 226 192 238 236 205 243 243 214 245 245 218 249 248 223
251 250 230 254 254 243 254 253 247 254 253 247 254 253 249
254 255 250 255 255 253 254 254 254 253 251 249 97 89 83 57 45 38
59 44 36 67 51 41 61 42 30 62 44 30 70 49 33 75 55 39 85 66 40
93 74 49 101 82 59 103 84 63 82 63 44 88 68 50 122 102 86 133 115 101
177 160 150 186 171 163 168 154 145 133 119 110 119 107 97 92 80 71
91 79 69 84 72 62 64 54 46 59 49 41 59 49 41 62 51 43 56 46 38
59 49 41 63 52 47 66 56 50 79 69 61 86 74 67 100 88 81 116 103 94
128 117 105 135 121 107 128 114 100 112 98 87 97 83 72 88 72 62
74 58 48 56 39 29 49 32 22 56 39 29 58 42 31 58 42 31 71 55 42
86 70 57 93 77 62 104 88 73 107 91 76 105 89 74 101 86 70 102 87 72
86 72 58 61 47 36 52 39 30 29 17 10 19 11 5 19 13 8 22 16 13 23 19 18
11 7 6 15 10 10 18 14 13 21 16 15 31 27 26 129 125 124 88 84 83
67 63 62 49 44 43 22 17 17 38 34 33 49 44 43 100 94 91 106 100 97
116 107 103 147 139 135 171 161 155 185 174 169 205 194 189
216 206 200 216 203 196 231 218 211 227 215 208 206 194 187
192 182 172 157 147 137 176 166 156 141 131 121 141 131 123
127 117 109 110 101 90 121 111 101 96 87 74 100 91 78 99 90 75
93 84 69 89 82 69 112 105 92 100 93 79 87 80 66 69 64 50 93 89 74
104 99 85 92 88 73 99 94 82 106 101 89 82 77 65 110 105 93 116 109 95
103 96 83 95 88 74 68 61 48 91 84 71 101 94 78 122 115 99 127 121 105
129 125 108 135 131 114 142 138 121 147 143 126 135 133 113
138 137 117 165 164 142 172 171 149 188 187 165 189 189 166
205 204 179 194 194 169 174 171 145 192 190 163 188 185 159
191 189 162 196 193 167 224 221 195 226 223 197 199 197 170
214 209 181 222 217 189 209 205 174 217 213 183 219 216 183
225 222 187 227 226 192 227 225 194 240 240 210 243 243 216
247 246 221 249 248 228 255 253 241 254 253 245 254 253 245
254 253 247 248 247 241 255 255 253 255 255 255 252 250 246 97 89 83
55 42 35 60 46 37 62 45 35 67 48 36 68 50 35 75 55 41 81 61 45
72 53 28 80 61 36 100 81 58 106 86 65 106 86 67 121 101 83 131 111 95
153 134 122 180 164 156 206 191 184 206 191 184 203 188 182
156 143 139 136 124 119 111 98 93 93 81 76 69 56 53 72 59 57 86 73 71
92 79 77 105 93 93 96 85 84 110 99 98 117 107 103 145 132 125
159 145 136 171 156 147 167 153 142 147 134 120 122 106 91 106 90 75
100 84 69 100 84 71 98 80 68 89 70 58 77 58 49 59 40 30 50 32 22
54 35 25 67 48 38 82 63 51 87 68 56 92 76 63 102 86 74 109 93 81
112 96 83 108 92 79 105 89 76 87 73 60 75 61 50 59 44 36 36 24 17
29 18 13 27 19 15 21 15 12 14 8 5 18 14 13 14 9 8 18 14 13 38 34 33
127 122 121 53 49 48 72 67 67 49 44 43 30 24 22 30 24 22 42 36 33
79 73 70 94 88 86 94 88 86 135 129 124 138 129 126 178 169 163
193 185 178 215 207 198 209 199 191 219 209 201 212 202 194
211 200 193 181 171 163 173 163 155 130 122 113 159 151 142
132 124 116 126 119 110 130 122 113 95 88 76 101 93 82 94 87 73
95 88 74 98 91 78 94 87 73 82 75 62 98 91 78 109 102 88 101 94 80
85 81 66 94 90 76 104 99 85 96 91 77 91 86 74 117 112 100 82 77 65
77 72 60 106 101 89 122 117 105 87 83 71 84 79 67 108 104 90
117 112 98 120 116 101 143 139 124 147 143 126 136 132 115
162 158 141 145 140 124 149 147 127 153 152 132 159 158 136
163 162 139 185 184 161 188 187 165 177 176 151 209 209 184
204 201 175 193 191 164 197 194 168 198 196 169 204 201 175
207 205 178 241 239 212 227 225 198 218 214 186 211 207 179
212 208 178 189 185 155 196 192 160 193 189 156 218 217 183
236 235 203 236 234 205 245 242 216 249 246 222 243 240 221
252 250 237 252 249 239 252 249 239 252 249 241 255 253 245
254 253 247 254 253 247 255 252 247 119 111 105 54 41 34 67 53 44
81 65 55 81 62 50 75 56 44 74 54 40 77 56 42 101 82 57 106 87 63
109 90 69 102 83 62 109 89 71 120 99 83 123 103 89 139 120 108
159 142 137 194 178 177 214 198 197 230 214 213 235 219 218
224 211 208 205 192 190 185 172 170 184 171 169 178 165 165
170 157 157 184 171 171 191 180 179 191 180 179 197 185 185
198 185 183 187 172 166 165 150 142 136 122 110 129 113 100 108 92 77
102 87 69 98 82 65 97 79 62 94 76 59 94 75 61 88 70 55 78 60 48
63 42 30 60 39 30 66 45 36 76 57 48 76 58 46 82 63 51 90 73 61
101 85 72 109 93 81 112 96 83 108 92 79 105 89 76 92 78 64 80 66 55
64 49 40 41 29 21 34 23 18 29 20 16 20 11 10 16 10 8 16 10 10
18 14 13 57 52 52 107 102 102 33 29 28 77 72 71 52 48 47 31 27 26
28 22 19 36 30 27 75 68 66 80 74 72 94 88 86 117 110 108 110 104 99
147 141 136 167 159 153 197 189 183 199 191 182 206 198 189
208 198 190 180 170 162 180 170 162 176 166 158 154 147 138
127 120 111 127 120 111 150 142 133 117 109 101 126 119 110
109 102 90 94 86 75 98 91 78 102 95 81 100 93 79 90 83 70 83 76 63
94 87 73 102 95 81 104 97 84 93 89 74 98 93 79 94 90 76 91 86 72
98 93 81 96 91 79 98 93 81 85 80 68 98 93 81 113 108 96 111 106 94
82 77 65 90 85 71 120 116 101 132 127 113 147 142 128 155 151 134
143 139 122 162 158 141 156 152 135 163 161 141 135 133 113
158 157 135 160 159 137 176 175 152 206 205 182 178 177 152
196 196 171 220 218 191 207 205 178 198 196 169 185 183 156
176 173 147 189 186 160 217 214 188 240 237 211 242 237 209
222 217 189 214 209 179 211 207 177 183 180 147 200 196 163
199 198 164 230 228 196 234 232 203 252 249 221 255 254 227
255 253 231 255 255 240 255 255 242 255 254 244 255 254 244
255 251 243 255 251 243 253 252 245 255 251 245 143 135 128 55 42 37
71 56 49 61 44 36 56 37 28 56 38 26 66 45 32 75 55 41 88 69 46
115 96 73 96 77 56 97 78 57 102 82 64 113 92 76 116 96 82 133 114 105
156 138 135 179 161 162 191 172 174 208 190 190 214 198 197
200 184 183 206 190 188 228 212 211 231 218 215 217 204 201
210 197 194 190 177 172 176 163 158 178 166 161 160 147 142
142 130 123 123 108 100 107 91 80 93 77 66 91 75 62 109 91 74
91 74 55 73 55 36 67 49 30 74 54 36 82 63 44 88 68 52 88 68 54
75 54 43 75 54 43 80 59 50 85 63 55 68 49 39 74 58 48 86 70 57
100 84 71 112 96 83 114 98 85 111 94 82 107 91 78 99 85 71 87 73 62
71 56 47 48 35 28 36 25 20 29 18 15 24 15 11 25 16 15 33 26 24
64 58 55 92 86 83 29 23 20 71 65 62 49 43 40 29 23 20 27 20 18
39 32 30 60 53 51 60 53 51 93 87 84 76 69 67 128 122 119 133 127 122
160 154 149 159 151 144 188 180 174 190 183 174 197 190 181
181 171 163 149 139 131 155 145 137 166 156 148 139 131 123
130 122 113 109 101 92 151 143 134 117 109 101 112 105 96 118 111 100
98 91 80 100 93 79 110 103 90 97 90 77 88 81 67 81 74 60 95 88 74
97 90 77 97 90 77 91 86 72 107 103 88 103 98 84 86 82 67 101 97 85
86 81 69 101 97 85 98 93 81 89 84 72 106 101 89 118 113 101 93 88 76
90 85 71 120 116 101 132 127 113 147 142 128 162 158 141 149 145 128
156 152 135 167 163 146 178 177 157 145 144 124 164 163 141
164 163 141 169 168 145 188 187 165 205 204 179 193 192 168
225 222 196 221 219 192 207 205 178 181 178 152 179 177 150
161 158 132 189 186 160 206 204 177 221 216 188 235 230 202
237 233 202 226 222 192 202 198 165 180 176 143 203 201 168
204 202 171 224 222 193 232 230 201 223 220 194 252 249 225
255 255 236 255 255 240 255 255 242 255 254 244 255 252 241
255 251 243 253 252 243 255 251 243 168 160 154 48 35 30 61 46 40
63 46 38 50 32 22 52 33 21 61 41 27 71 50 37 78 59 35 96 77 54
124 105 84 108 89 68 89 70 51 104 85 66 115 95 79 138 117 106
145 125 120 156 138 135 159 142 139 176 158 155 171 156 149
147 132 126 132 118 109 133 119 110 128 113 104 117 105 95 107 95 86
111 99 87 119 107 95 128 117 105 103 91 79 81 67 54 73 57 44 58 42 27
67 52 37 72 57 39 94 76 57 104 87 65 108 91 69 102 85 63 101 82 61
106 86 67 106 85 69 101 80 67 99 78 67 97 77 65 96 72 64 90 69 60
62 43 34 70 53 43 84 67 57 99 83 70 112 96 83 113 97 84 109 93 81
107 91 78 105 92 78 94 80 69 76 62 53 54 39 33 35 22 18 31 21 15
30 21 17 30 21 17 75 68 66 69 62 60 30 24 22 71 65 62 58 52 50
21 15 12 23 17 15 34 27 25 44 38 36 77 71 68 91 84 82 79 73 70
118 111 109 119 112 110 160 154 149 163 157 152 157 149 142
172 164 157 195 187 179 187 179 170 153 145 137 137 127 119
149 139 131 152 144 135 136 128 119 136 128 119 116 108 99
132 124 116 129 121 112 91 84 75 115 107 96 110 103 92 97 90 77
112 105 92 100 93 79 83 76 63 79 72 58 93 86 72 98 91 78 93 86 72
84 79 65 110 105 91 117 112 98 96 91 77 99 94 82 89 84 72 96 91 79
106 101 89 96 91 79 92 87 75 103 98 86 111 106 94 108 104 90
117 112 98 120 116 101 143 139 124 162 158 141 149 145 128
149 145 128 171 167 150 184 182 164 179 178 158 173 172 152
170 169 146 157 156 134 180 179 157 199 198 173 213 212 187
209 206 180 236 234 207 221 219 192 184 182 155 179 177 150
160 157 131 142 140 113 161 158 132 186 181 153 200 195 167
207 202 172 229 225 194 245 241 208 212 209 176 221 220 186
209 207 176 212 210 181 231 229 200 217 214 188 233 230 204
252 251 229 252 251 231 252 251 233 252 251 233 254 251 236
254 251 236 252 252 238 254 251 240 162 154 148 52 39 34 61 46 40
70 53 45 69 50 41 62 44 32 61 41 27 65 44 31 74 55 32 88 69 46
101 82 61 117 98 77 114 94 76 101 81 63 101 81 65 113 92 78
127 108 99 142 125 115 147 130 120 135 119 106 118 102 87 113 98 80
106 91 71 101 86 66 90 78 57 88 75 55 86 73 52 92 79 56 80 68 44
74 62 39 73 61 37 74 62 39 90 75 53 95 78 56 96 79 57 92 75 54
97 80 58 105 89 65 117 100 76 119 103 79 96 79 57 80 62 43 97 79 62
102 84 69 109 90 78 104 83 72 94 73 64 85 63 57 77 58 51 72 55 47
83 66 56 99 82 72 101 85 74 109 93 83 109 93 81 105 89 76 113 96 86
104 87 77 83 69 60 60 45 39 49 36 32 32 22 16 36 27 23 86 77 73
58 49 45 27 19 15 65 59 54 65 59 54 30 24 22 41 34 32 36 30 27
34 27 25 79 73 70 69 62 60 101 95 93 73 67 65 130 121 119 126 117 116
171 162 158 167 159 155 157 149 142 172 164 157 168 161 152
161 154 145 148 141 132 131 123 114 145 137 128 143 135 126
131 124 112 137 129 118 107 99 88 112 105 94 137 129 118 102 95 83
103 96 85 115 107 96 102 95 83 111 104 93 100 93 79 82 75 62 78 73 61
87 83 71 98 93 81 98 93 81 98 93 81 92 87 75 127 122 110 108 104 92
96 94 81 100 97 85 98 95 82 107 104 92 118 113 101 99 94 82
119 114 102 113 108 96 112 107 93 122 118 103 131 126 112 134 130 115
160 158 143 156 154 138 160 158 143 150 148 133 169 167 149
199 197 179 170 168 148 174 173 153 165 164 142 160 159 137
185 184 159 215 215 190 213 211 184 218 215 189 228 226 199
219 216 190 188 185 157 170 168 139 163 161 132 128 126 97
153 149 120 152 148 117 182 178 148 207 202 172 225 222 189
251 247 214 252 248 217 243 239 208 240 236 208 240 236 208
233 231 202 230 227 201 228 226 199 224 221 197 247 246 219
242 242 214 254 253 228 254 253 228 254 253 230 255 251 234
114 106 97 53 40 35 46 31 25 48 31 23 56 37 28 54 35 23 65 44 31
79 58 45 73 54 31 78 59 35 79 59 39 87 68 47 116 96 78 107 87 69
89 69 53 88 68 52 112 94 80 113 97 82 99 83 68 78 63 45 73 59 36
72 58 33 71 57 30 70 56 29 74 63 35 86 74 46 99 87 59 102 91 63
99 87 59 93 81 53 93 81 53 98 84 57 108 91 65 104 88 61 98 82 56
92 76 50 97 80 56 92 76 52 101 84 60 112 96 72 109 92 70 82 65 45
83 65 49 96 78 63 105 87 75 116 97 87 114 92 86 98 79 72 84 66 61
85 68 62 91 74 66 100 84 73 100 84 73 107 91 80 111 94 82 108 92 79
114 98 87 108 92 81 95 80 72 78 63 54 54 41 34 61 48 43 99 88 85
56 48 44 31 22 18 48 40 36 79 70 66 44 38 34 47 40 38 39 32 30
48 41 39 57 51 48 66 60 58 105 98 96 70 64 61 114 108 105 124 115 114
152 143 142 160 152 148 158 149 145 153 145 139 169 161 155
159 151 142 150 142 133 146 140 131 134 129 119 139 133 124
143 138 128 130 123 111 122 114 103 117 110 99 108 100 89 126 119 108
123 116 104 101 93 82 111 104 93 107 99 88 117 110 99 109 102 88
96 89 76 84 79 67 92 87 75 99 94 82 98 93 81 98 93 81 93 88 76
119 114 102 112 107 95 106 103 90 109 107 94 95 93 80 104 102 89
117 112 100 112 107 95 106 101 89 114 109 97 121 117 102 125 120 106
128 124 109 132 127 113 141 139 123 148 145 130 162 159 144
158 156 141 165 163 146 195 194 176 179 178 158 178 177 157
186 185 163 166 165 143 189 189 164 205 204 179 218 215 189
216 213 187 197 194 168 235 233 206 203 201 172 174 171 143
156 154 125 145 142 113 131 127 96 139 135 104 172 168 137
176 172 142 202 198 165 232 229 196 246 242 212 239 235 205
240 236 208 247 243 215 245 243 214 228 226 199 235 233 206
253 250 224 227 227 199 238 238 211 252 252 225 252 252 227
252 252 227 254 250 231 127 120 109 60 47 40 54 40 31 42 25 17
56 37 28 54 35 23 65 44 31 79 58 45 68 49 28 67 48 27 61 42 21
64 44 24 83 64 45 104 85 66 106 85 69 99 78 62 75 57 40 71 54 37
61 43 26 59 41 22 59 42 18 69 53 26 84 68 42 93 80 50 97 86 56
102 91 61 109 98 70 114 102 74 114 100 73 106 92 65 102 89 61
108 94 67 110 94 67 104 88 61 96 80 53 91 75 49 95 79 52 90 74 47
85 69 43 94 77 53 121 105 83 110 92 73 101 83 66 113 95 81 126 110 97
120 101 92 106 87 80 94 74 67 94 77 71 100 83 77 102 85 78 99 82 72
101 85 74 108 92 81 115 99 86 115 99 86 113 96 86 114 98 87 110 96 87
97 83 74 93 78 71 119 106 101 65 55 49 42 31 26 49 38 33 89 79 73
62 54 48 45 36 32 61 53 49 44 35 31 66 57 53 66 57 53 80 74 72
97 90 88 90 83 81 120 114 111 132 123 122 162 154 152 151 142 138
148 140 136 146 138 132 168 160 154 150 142 133 138 130 121
143 138 128 139 133 124 134 129 119 146 140 131 125 118 107
112 105 94 121 113 102 108 100 89 112 105 94 137 129 118 108 100 89
103 96 85 104 97 86 119 112 101 114 107 93 105 98 85 91 86 74
97 92 80 101 97 85 97 92 80 99 94 82 96 91 79 110 105 93 113 108 96
118 116 103 110 108 95 94 92 79 110 108 95 119 114 102 118 113 101
100 95 83 112 107 95 121 117 102 120 116 101 121 117 102 127 123 108
148 145 130 149 147 131 143 141 126 148 145 130 160 159 141
192 190 172 192 191 170 183 181 161 192 191 168 183 182 159
189 189 164 199 198 173 213 211 184 213 211 184 186 184 157
216 213 187 225 223 194 196 194 165 154 152 123 142 140 111
134 130 100 129 124 94 160 156 125 178 173 143 160 156 123
216 212 179 242 237 207 215 211 180 217 213 185 246 242 214
255 254 227 252 249 223 241 238 214 242 239 217 248 247 224
250 249 229 252 251 231 252 251 233 252 250 235 254 249 237
158 150 141 58 46 39 55 41 32 47 30 22 56 37 28 54 35 23 65 44 31
79 58 45 64 44 24 64 44 24 59 40 19 63 43 22 52 32 14 71 51 33
88 68 52 86 66 50 76 58 42 70 53 34 68 51 31 70 53 32 76 60 33
81 65 36 88 72 43 94 78 49 104 90 61 102 91 61 102 91 63 102 91 63
120 106 79 108 94 67 102 89 61 104 90 63 108 91 65 103 87 60 96 80 53
91 75 49 89 73 46 90 74 47 85 69 43 81 64 40 97 80 58 119 102 83
111 93 76 113 95 81 122 106 93 99 82 72 95 75 68 109 89 82 106 89 83
114 97 91 113 96 88 102 85 78 106 89 81 108 92 81 115 99 88
118 101 91 115 99 88 118 101 91 117 103 94 112 98 89 140 125 119
79 64 57 63 50 45 59 49 43 100 89 84 66 56 50 60 52 45 46 38 32
52 43 39 46 37 34 77 69 65 53 44 41 117 110 108 93 87 84 118 111 109
105 98 96 151 142 140 152 143 142 146 138 134 146 138 134 133 125 119
171 162 156 147 140 131 123 115 106 141 136 126 143 138 128
129 124 114 147 142 132 117 110 99 114 106 95 114 106 95 110 103 92
107 99 88 126 119 108 129 121 110 101 93 82 89 82 71 117 110 99
110 103 90 98 91 78 97 92 80 101 97 85 103 98 86 96 91 79 97 92 80
105 100 88 104 99 87 104 99 87 121 118 105 111 109 96 102 100 87
115 112 100 125 120 108 114 109 97 104 99 87 106 101 89 112 107 93
108 104 90 112 107 93 121 117 102 131 129 114 144 142 127 134 132 116
151 149 134 162 160 142 183 181 163 196 195 175 186 185 165
185 184 161 195 194 172 177 176 151 201 201 176 206 204 177
204 201 175 200 198 171 193 191 164 199 197 168 207 205 176
175 173 144 164 162 133 151 147 116 127 123 93 157 152 122
195 191 160 194 190 157 221 217 184 238 234 203 236 232 201
231 227 198 249 244 216 252 249 223 247 244 220 255 255 235
255 251 232 255 253 237 251 250 232 250 248 233 251 249 236
251 248 238 253 248 238 187 179 170 50 38 31 48 34 25 56 39 31
56 37 28 53 34 22 64 43 30 78 57 44 50 30 10 58 38 18 67 47 29
61 42 23 61 42 23 65 45 27 71 51 33 87 67 49 119 102 83 101 84 62
87 70 46 84 68 42 90 74 45 92 77 46 97 82 50 101 85 54 106 93 63
106 93 63 106 92 65 106 92 65 101 87 60 115 101 74 114 100 73
98 84 57 96 80 53 97 81 54 96 80 53 91 75 49 91 75 49 90 74 47
88 72 45 85 69 45 75 58 36 97 80 60 116 98 81 112 94 80 84 68 55
100 84 73 112 93 86 101 81 74 119 101 96 115 98 92 114 97 91
119 101 96 122 105 99 123 106 99 123 106 99 127 110 102 118 101 93
123 106 99 136 119 111 144 127 119 116 101 95 83 68 62 77 65 57
103 90 83 73 63 57 92 81 76 62 54 48 38 30 23 58 49 45 73 64 60
67 58 54 88 79 75 110 102 98 103 95 91 132 124 120 121 112 108
169 161 157 144 135 131 131 122 119 145 137 130 122 114 107
168 161 152 164 156 147 127 120 109 139 134 122 142 137 125
133 128 116 155 150 138 120 115 103 113 108 96 99 94 82 111 106 94
111 106 94 124 119 107 131 126 114 108 104 92 91 86 74 115 111 99
115 111 99 93 88 76 94 90 78 117 112 100 110 105 93 101 97 85
97 92 80 98 93 81 106 101 89 94 90 78 110 108 95 114 111 99
109 107 94 100 97 85 124 122 109 121 118 105 91 88 75 108 106 93
111 109 94 108 106 91 108 106 91 114 112 96 134 132 116 117 115 100
148 145 130 143 141 126 164 162 145 169 167 149 193 192 172
194 193 173 198 194 175 200 197 175 190 187 163 186 184 159
200 197 173 204 201 177 202 199 173 189 186 160 180 175 149
189 184 159 183 179 151 162 158 130 162 158 130 173 168 140
167 163 132 165 161 130 170 163 134 186 180 150 199 192 163
200 194 164 186 182 151 208 203 175 252 247 221 251 246 222
251 245 224 247 241 223 247 241 225 249 245 228 253 248 234
255 250 238 255 252 243 255 253 244 155 148 139 36 24 17 47 32 26
56 39 31 59 40 30 53 34 22 61 41 27 75 55 41 72 52 32 68 49 28
70 50 31 61 42 23 68 49 30 73 53 35 81 61 43 83 64 45 95 78 56
112 96 72 117 101 74 102 86 57 96 80 49 97 82 48 98 83 50 99 84 51
95 82 52 94 81 51 94 80 53 94 80 53 100 86 59 100 86 59 105 91 64
111 97 70 101 84 58 101 84 58 98 82 56 95 79 52 87 70 44 82 66 39
75 59 32 71 55 31 62 45 24 80 62 43 96 78 61 104 86 72 129 113 100
115 99 88 108 88 81 109 89 82 132 114 109 141 124 118 137 120 114
119 101 96 137 120 114 118 100 95 116 99 92 134 117 109 121 104 96
127 110 102 135 118 110 140 123 115 111 96 90 103 88 82 97 84 77
98 86 78 79 69 63 93 82 77 67 59 52 53 45 39 70 62 58 86 77 73
65 56 52 107 98 94 107 98 94 123 114 110 136 127 123 144 135 131
171 162 158 138 129 126 124 116 110 138 130 124 123 115 106
164 156 147 159 152 140 130 123 111 136 131 119 129 124 112
120 115 103 153 148 136 115 111 99 115 111 99 108 104 92 104 99 87
112 107 95 119 114 102 125 120 108 115 111 99 98 93 81 118 113 101
118 113 101 100 95 83 94 90 78 122 117 105 112 107 95 94 90 78
98 93 81 98 93 81 106 101 89 94 90 78 107 104 92 111 109 96
110 108 95 103 101 88 111 109 96 137 135 122 98 95 82 99 96 83
104 102 87 111 109 94 115 113 98 114 112 96 134 132 116 124 122 107
129 127 112 159 157 142 171 169 152 170 168 150 186 185 165
181 180 160 195 191 172 197 193 174 188 184 163 183 180 156
182 179 155 195 192 168 200 198 171 209 206 180 193 188 162
162 157 132 182 178 150 158 153 125 133 129 101 166 161 133
182 178 148 182 178 148 192 185 156 190 183 153 184 177 148
177 170 141 175 171 141 180 176 145 211 207 179 236 231 205
224 219 196 240 235 212 250 244 223 245 239 221 252 248 229
253 249 232 254 249 235 255 250 238 164 156 147 43 33 25 54 41 34
62 47 41 59 42 34 55 37 25 64 43 30 77 56 42 64 44 24 57 37 17
64 44 24 66 47 26 81 61 43 85 65 46 90 71 50 95 76 55 96 77 56
100 81 58 108 91 65 117 101 72 103 88 54 102 87 51 101 86 48 99 85 49
98 82 54 98 82 56 98 82 56 98 82 56 102 85 59 89 73 46 84 68 42
91 75 49 99 83 57 76 60 33 66 49 23 71 55 29 74 58 31 78 62 36
85 69 43 90 73 49 84 67 46 97 80 60 106 89 72 113 95 81 123 107 94
118 101 91 124 104 97 137 117 110 148 131 125 135 120 113 132 117 111
139 124 118 147 132 126 118 103 97 117 103 94 135 120 111 126 112 103
128 113 104 130 115 107 132 118 109 116 101 95 117 102 96 111 98 91
103 90 83 88 78 70 95 85 77 75 67 59 74 66 59 83 75 69 98 90 84
90 82 76 115 107 100 114 105 101 141 133 129 139 131 127 152 143 139
158 149 145 133 125 121 125 117 111 121 112 106 119 112 103
151 143 134 146 139 128 125 118 107 134 129 117 135 130 118
126 121 109 150 145 133 118 113 101 111 106 94 113 108 96 101 97 85
112 107 95 115 111 99 120 115 103 121 116 104 108 104 92 121 116 104
121 116 104 111 106 94 103 98 86 120 115 103 106 101 89 93 88 76
98 93 81 98 93 81 106 101 89 94 90 78 102 100 87 110 108 95
113 110 97 107 104 92 106 103 90 139 137 124 108 106 93 89 87 74
102 100 85 108 106 91 115 113 98 124 122 107 129 127 112 128 126 110
117 115 100 151 149 134 166 165 147 166 165 147 181 180 160
177 175 155 191 187 168 193 190 170 183 180 158 178 175 151
177 174 150 186 184 159 184 182 155 217 214 188 206 201 175
165 160 134 188 183 155 194 189 161 145 140 112 123 118 90
169 165 135 181 177 146 165 159 129 185 178 149 192 185 156
180 174 144 181 177 146 167 163 132 165 161 130 207 202 174
222 217 189 218 214 186 226 222 194 243 238 212 255 255 232
254 251 227 245 242 218 238 234 215 161 154 143 39 29 21 50 38 31
59 44 38 64 47 39 59 40 28 66 47 33 80 62 45 86 66 46 67 48 27
65 45 25 66 47 26 90 71 52 94 74 56 100 80 60 104 85 64 101 82 59
100 81 58 101 84 58 109 93 64 109 93 62 106 91 58 102 87 51 98 83 50
88 72 43 88 72 45 88 72 45 88 72 45 75 59 32 74 58 31 75 59 32
78 62 36 87 70 44 98 82 56 99 83 57 91 75 49 95 79 52 96 80 53
98 82 56 101 84 60 103 86 64 105 88 69 111 93 76 112 94 80 107 91 78
123 107 96 139 120 112 141 124 118 124 109 103 136 121 114
147 132 126 151 136 130 152 137 131 132 117 111 126 112 103
128 113 104 131 117 108 131 117 108 130 115 107 130 115 107
129 114 108 118 103 97 112 100 92 116 103 96 94 84 76 96 86 78
80 72 63 89 81 73 88 80 73 104 96 90 130 122 115 105 97 91
134 126 122 141 133 129 140 132 128 155 147 143 145 136 133
132 124 120 116 108 101 107 98 92 114 106 97 139 131 123 136 128 117
121 113 102 107 102 90 132 127 115 121 116 104 124 119 107
125 120 108 101 97 85 110 105 93 106 101 89 111 106 94 117 112 100
115 111 99 115 111 99 117 112 100 124 119 107 124 119 107 119 114 102
114 109 97 113 108 96 97 92 80 99 94 82 98 93 81 98 93 81 106 101 89
94 90 78 100 97 85 109 107 94 114 111 99 110 108 95 113 110 97
127 124 111 118 116 103 87 85 72 103 101 86 94 92 77 108 106 91
137 135 120 122 120 105 125 123 108 121 119 103 118 116 101
153 152 134 159 158 140 183 181 161 184 182 162 188 184 165
190 186 167 181 177 156 175 172 148 185 182 158 184 181 157
163 160 136 205 203 176 212 208 182 181 176 150 161 157 129
176 172 144 172 167 139 178 173 145 159 155 124 179 175 144
181 175 145 161 154 124 168 161 131 199 192 163 193 189 158
181 177 146 153 149 118 174 170 139 216 212 181 221 216 186
221 216 186 216 212 181 238 236 207 242 240 211 249 247 220
254 251 229 158 151 137 34 27 18 45 35 27 54 41 34 66 51 43 61 44 32
69 51 37 83 65 49 107 87 67 97 78 57 83 64 43 74 55 34 77 57 36
88 69 48 97 78 57 102 83 62 101 84 60 101 84 60 99 83 59 98 82 58
98 82 58 96 80 53 83 67 40 69 53 26 70 54 30 77 61 37 82 65 41
83 66 42 99 80 54 99 80 54 99 80 54 99 80 54 99 80 54 99 80 54
104 86 60 102 84 58 94 77 51 97 81 54 102 85 59 108 91 67 111 94 72
108 90 71 102 84 67 98 80 66 112 96 83 134 117 107 152 136 128
158 141 135 140 125 121 149 133 129 156 144 137 161 148 141
153 140 133 133 120 113 136 124 117 123 110 103 133 121 111
132 120 110 132 119 112 131 118 111 128 116 109 121 109 102
118 105 98 110 100 92 108 98 92 109 101 94 101 93 86 98 92 85
110 104 97 115 110 103 110 104 97 114 109 101 132 124 120 133 125 121
154 146 142 148 140 136 133 125 121 130 121 117 107 98 92 107 98 92
114 106 97 122 114 105 119 112 101 107 99 88 108 100 89 127 120 109
108 100 89 97 90 79 137 129 118 96 89 78 104 97 86 109 102 90
112 105 94 111 104 93 109 102 90 107 99 88 108 100 89 110 103 92
127 120 109 121 113 102 121 116 104 110 105 93 101 97 85 100 95 83
104 99 87 112 107 95 120 115 103 101 97 85 101 99 86 106 103 90
113 110 97 122 119 107 117 115 102 109 107 94 115 112 100 102 100 87
101 99 84 100 98 83 95 93 78 100 98 83 116 114 99 120 118 102
117 115 100 117 115 100 126 122 105 146 142 125 163 159 142
176 172 155 167 163 144 181 177 158 184 181 159 175 171 150
185 179 158 180 174 153 174 169 145 173 168 144 199 194 168
190 185 160 192 187 159 164 159 131 171 164 137 174 168 140
190 183 153 197 190 160 192 185 156 186 180 150 176 169 139
186 180 150 219 212 183 218 211 181 169 162 132 151 145 115
168 164 132 186 182 149 176 172 142 210 206 176 223 220 192
233 231 202 230 230 203 240 237 215 139 134 120 44 36 27 52 42 34
54 41 34 61 47 38 63 46 36 73 58 40 84 69 49 71 51 31 97 78 57
104 85 64 89 70 49 65 45 25 63 43 22 74 55 34 83 64 43 70 53 32
76 59 37 81 64 42 81 64 42 80 63 41 83 66 44 95 78 56 105 88 67
96 79 57 96 79 55 98 82 58 105 89 65 104 86 60 104 86 60 104 86 60
104 86 60 101 82 57 95 77 51 101 82 57 111 93 67 102 85 59 98 82 56
102 85 59 106 90 66 95 78 56 104 87 67 117 99 82 126 108 94
140 124 111 126 109 99 116 99 92 118 100 95 119 104 100 117 102 98
125 112 107 138 125 118 134 122 114 128 116 109 133 120 113
131 118 111 132 120 110 133 121 111 133 120 113 133 120 113
128 116 109 121 109 102 116 106 98 112 102 94 116 108 101 110 102 96
108 103 96 97 91 84 117 111 104 138 132 125 96 90 83 133 127 120
122 113 109 132 124 120 150 141 137 133 125 121 127 119 115
121 112 108 91 83 77 88 80 73 104 96 88 104 96 88 98 91 80 89 82 71
89 82 71 109 102 90 103 96 85 91 84 73 116 109 97 91 84 73 91 84 73
116 109 97 111 104 93 109 102 90 107 99 88 103 96 85 105 98 87
112 105 94 124 117 105 123 116 104 121 116 104 110 105 93 101 97 85
100 95 83 112 107 95 105 100 88 112 107 95 119 114 102 110 108 95
108 106 93 109 107 94 120 117 104 124 122 109 117 115 102 120 117 104
118 116 103 108 106 91 111 109 94 94 92 77 101 99 84 104 102 87
118 116 101 120 118 102 115 113 98 121 117 100 131 126 110
150 146 129 168 164 147 165 162 143 172 169 150 177 174 152
177 174 152 174 168 147 182 176 156 174 169 145 146 141 118
187 182 156 174 169 143 152 147 119 180 175 147 164 157 130
177 170 143 186 180 150 185 178 149 188 182 152 204 197 167
195 189 159 176 169 139 216 210 180 234 227 198 214 208 178
184 177 148 176 173 140 158 154 121 166 162 131 173 169 138
190 188 159 233 231 202 224 224 197 220 219 194 131 126 110 46 41 29
47 39 31 48 37 32 63 51 43 73 59 48 76 60 43 66 51 31 50 33 14
62 45 26 80 62 43 92 75 56 66 48 29 55 38 19 53 35 16 64 47 28
76 59 40 83 68 48 92 77 57 98 83 63 95 77 58 89 72 52 91 74 55
101 83 64 105 88 67 99 82 61 96 79 57 97 80 56 102 85 59 102 85 59
102 85 59 102 85 59 101 84 58 95 79 52 90 74 47 95 79 52 108 91 65
106 90 64 104 88 61 106 90 66 94 80 57 91 76 56 86 71 53 83 67 52
90 73 61 87 73 62 97 80 72 112 94 89 132 117 113 128 115 113
126 113 108 122 112 106 127 116 111 135 124 119 136 126 120
140 129 121 136 126 116 131 122 111 131 121 113 131 121 113
127 116 111 120 109 104 116 106 100 110 102 96 114 105 99 96 90 83
110 104 97 93 90 82 124 118 111 134 128 121 104 98 91 129 124 117
101 95 91 117 111 106 134 128 123 118 112 107 112 104 100 109 100 96
84 76 70 84 76 70 101 93 84 89 81 73 79 71 60 75 68 57 72 64 53
90 83 72 104 97 86 91 84 73 83 76 65 107 99 88 88 81 69 98 91 80
109 102 90 107 99 88 103 96 85 101 93 82 104 97 86 117 110 99
119 112 101 124 117 105 121 116 104 110 105 93 101 97 85 100 95 83
112 107 95 108 104 92 111 106 94 128 123 111 125 120 108 114 109 97
106 101 89 117 112 100 125 123 110 120 117 104 117 115 102
131 129 116 104 102 87 121 119 103 116 114 99 102 100 85 102 100 85
106 104 88 115 113 98 113 111 95 115 111 94 118 114 97 127 123 106
147 143 126 158 155 136 161 157 138 169 166 144 177 174 152
154 149 128 157 151 130 176 171 148 155 150 127 160 155 129
179 174 148 140 136 108 152 147 119 165 158 131 172 165 138
173 167 137 186 180 150 170 163 134 154 147 117 205 198 169
218 211 181 198 191 162 204 197 167 229 223 193 228 221 192
195 191 158 193 189 156 164 159 129 171 166 136 185 183 154
220 218 189 222 222 195 206 205 180 118 117 99 51 46 34 41 34 25
42 31 26 74 61 54 62 48 37 65 52 33 75 63 40 40 22 5 42 25 8 50 33 16
59 41 24 89 71 54 91 73 57 81 63 46 77 62 42 78 63 43 79 64 44
80 65 45 88 73 53 92 75 56 98 81 62 97 80 60 90 73 53 95 78 56
101 84 62 108 91 69 102 85 63 99 83 59 99 83 57 99 83 57 99 83 57
97 81 54 95 79 52 83 67 40 73 56 30 73 56 30 87 70 44 87 70 44
83 66 42 64 49 27 74 60 40 88 73 56 99 83 68 108 94 81 115 101 90
114 97 89 103 88 84 91 78 75 123 109 107 135 124 121 121 110 107
127 116 113 143 133 127 140 129 124 156 145 140 133 122 114
131 121 113 131 121 113 131 121 113 127 116 111 120 109 104
115 107 100 110 102 96 99 93 86 83 77 70 114 111 103 98 94 86
135 130 122 113 107 100 124 118 111 85 79 72 79 73 68 97 91 86
122 116 112 107 101 96 91 83 79 95 86 82 83 75 69 91 83 77 105 98 89
86 78 69 72 64 55 72 64 53 65 57 46 81 74 62 110 103 92 96 89 78
83 76 65 107 99 88 72 64 53 88 81 69 107 99 88 103 96 85 101 93 82
98 91 80 103 96 85 121 113 102 116 109 97 125 118 107 123 116 104
110 105 93 101 97 85 100 95 83 110 105 93 122 117 105 115 111 99
125 120 108 132 127 115 117 112 100 108 104 92 103 98 86 120 117 104
115 112 100 109 107 94 135 132 119 115 113 98 98 95 80 124 122 107
127 125 109 114 112 96 100 98 83 98 95 80 106 104 88 101 97 81
105 101 84 107 103 86 117 112 96 139 135 116 141 137 118 154 150 131
173 167 146 173 167 146 130 124 103 154 149 126 161 156 133
152 147 121 160 155 129 134 130 104 134 130 102 162 155 127
161 154 126 176 169 139 200 194 164 202 196 166 183 176 146
156 149 120 193 187 157 220 213 184 176 169 139 191 184 155
207 201 171 187 183 152 210 206 176 201 197 166 190 186 158
186 184 155 186 184 157 223 220 194 206 205 180 110 109 91 55 50 38
38 30 21 37 27 21 56 44 36 66 52 41 75 62 44 79 67 43 45 30 14
41 25 10 41 25 10 42 26 11 50 34 19 77 61 46 99 83 68 91 75 58
79 64 46 74 59 42 76 60 43 81 66 49 94 79 59 100 85 65 95 80 60
84 69 49 88 74 51 94 80 57 99 84 62 101 87 64 92 76 52 89 73 46
77 61 35 68 52 25 71 55 29 75 59 32 80 63 37 83 67 40 84 70 43
84 70 43 93 79 52 106 92 67 101 87 64 91 76 56 78 63 45 83 67 52
88 74 61 72 58 46 65 50 41 69 54 50 78 65 63 95 84 83 128 117 116
136 125 124 141 129 129 164 153 150 174 164 160 161 150 144
136 126 120 130 120 114 130 120 114 137 127 121 126 115 110 99 88 83
89 81 75 98 90 84 76 70 65 103 97 92 103 100 94 114 110 105
108 102 98 112 106 101 98 92 87 73 67 63 72 66 61 101 95 91
118 112 107 75 69 64 75 67 63 80 71 67 70 62 56 79 70 64 110 102 96
84 76 70 72 64 55 69 62 53 81 73 64 73 65 56 97 90 81 105 98 89
84 77 68 80 72 63 84 77 66 66 58 47 80 70 60 86 76 66 93 84 71
98 88 76 99 89 77 105 95 83 105 95 83 122 113 100 125 118 105
122 115 101 114 107 93 107 100 86 112 105 94 124 117 105 126 119 108
127 120 109 125 120 108 125 120 108 117 112 100 110 105 93 106 103 90
106 103 90 115 112 100 128 125 112 130 128 113 113 111 95 100 98 83
123 121 106 128 126 110 118 116 101 108 106 91 104 102 87 96 92 75
96 90 74 98 92 76 104 98 82 121 114 98 146 140 124 132 126 108
139 133 115 174 166 146 131 123 103 131 124 101 159 152 129
151 143 121 148 140 118 143 136 111 140 132 107 151 144 117
151 144 117 149 142 115 166 159 132 204 195 168 212 203 176
204 197 169 187 180 153 208 198 172 217 207 181 185 178 151
158 151 124 181 175 145 188 182 152 193 188 160 179 174 146
164 159 133 186 181 155 197 194 170 210 206 185 107 103 86 55 50 38
42 34 28 34 23 18 61 48 41 60 46 35 65 50 32 73 59 36 50 35 24
44 30 18 39 25 14 39 25 14 31 17 6 43 29 15 62 49 35 86 72 56
93 78 60 78 63 45 73 58 40 83 67 50 79 64 44 81 66 46 80 65 45
76 61 41 78 63 43 72 58 35 76 61 39 86 72 49 91 75 51 84 68 42
83 67 40 90 74 47 87 70 44 89 73 46 90 74 47 91 75 49 80 67 39
77 63 36 80 67 39 90 75 51 105 90 68 97 82 62 87 72 54 71 55 40
68 54 41 72 58 46 83 69 60 96 81 77 104 91 88 93 82 81 103 92 91
127 115 115 155 143 143 165 154 153 166 155 154 154 143 139
142 131 126 130 120 114 124 114 108 127 116 111 124 114 108 96 86 80
75 67 61 79 70 64 85 79 74 92 86 81 92 88 82 114 110 105 98 92 87
107 101 96 66 60 56 68 62 57 64 58 53 97 91 86 78 72 67 62 56 51
59 50 46 61 53 49 47 39 33 54 46 40 98 90 84 86 77 71 70 63 54
56 49 40 80 72 63 83 76 67 100 92 83 107 99 90 97 90 81 82 74 66
77 70 59 75 68 57 76 66 55 80 70 60 87 78 65 93 84 71 98 88 76
100 91 78 99 89 77 120 110 98 121 114 100 123 116 102 119 112 99
111 104 91 111 104 93 118 111 100 125 118 107 127 120 109 134 129 117
119 114 102 108 104 92 113 108 96 110 108 95 107 104 92 110 108 95
120 117 104 116 114 99 117 115 100 107 105 90 115 113 98 124 122 107
125 123 108 116 114 99 107 103 88 98 92 76 96 90 74 97 91 75
102 95 79 108 101 85 129 122 106 131 125 106 132 126 108 147 138 118
161 152 132 124 117 94 155 147 125 156 148 126 152 145 122
148 140 116 144 137 112 152 145 118 136 129 102 157 150 123
158 151 124 175 166 139 191 182 155 207 200 173 214 207 180
205 196 169 208 198 172 161 154 126 114 107 80 162 155 125
190 183 153 171 166 138 180 175 147 172 167 141 166 161 135
176 173 149 161 157 136 63 59 42 61 54 43 49 38 33 56 43 41 68 53 49
61 47 36 65 50 32 76 61 39 56 44 34 47 35 25 40 28 18 36 24 15
40 28 18 34 22 10 41 29 17 60 46 33 82 69 53 88 75 57 78 65 46
60 47 29 61 45 28 58 43 25 59 44 26 64 49 31 71 56 36 84 69 49
90 75 55 84 69 47 94 80 55 107 93 66 104 90 63 90 76 49 81 68 40
80 67 39 78 64 37 77 63 36 76 62 35 66 53 25 63 49 22 66 52 27
89 77 54 94 81 60 95 82 64 87 74 58 90 77 63 97 85 73 103 89 80
103 88 84 86 73 73 87 75 77 103 92 93 145 134 135 159 148 149
161 149 151 163 152 151 158 147 144 148 137 132 129 119 113
116 106 100 115 105 99 94 84 78 81 71 65 79 70 64 93 84 78 91 85 80
91 85 80 80 76 71 102 99 93 85 79 74 87 81 77 50 44 39 65 59 54
80 74 70 97 91 86 57 51 46 60 53 49 52 43 39 51 42 38 32 24 18
36 27 21 72 64 57 84 76 70 75 67 59 62 55 46 77 70 61 97 90 81
102 94 85 110 102 94 108 100 91 95 87 78 79 71 60 80 72 61 69 59 48
74 65 54 81 72 59 86 77 64 96 87 74 100 91 78 95 86 73 115 106 93
114 107 93 117 110 96 119 112 99 116 109 95 112 105 94 112 105 94
124 117 105 126 119 108 140 133 122 123 116 104 109 102 90 108 104 92
116 114 101 107 104 92 103 101 88 107 104 92 104 102 87 115 113 98
109 107 92 113 111 95 114 112 96 120 118 102 121 119 103 113 109 94
100 93 77 97 91 75 96 90 74 98 92 76 104 98 82 112 106 90 129 123 104
131 125 106 134 126 106 149 141 121 144 136 114 142 134 112
140 132 109 136 128 106 131 124 99 128 121 96 142 135 108 148 141 113
136 129 102 161 154 126 154 145 118 164 155 129 185 178 151
206 199 172 205 196 169 226 217 190 211 204 176 179 172 145
148 141 111 151 145 115 182 178 150 167 163 134 183 178 153
215 210 184 192 189 165 171 168 146 68 64 47 59 51 40 42 31 26
52 38 36 67 52 48 61 47 36 65 50 32 73 59 36 60 51 40 50 40 30
39 30 19 35 25 15 33 21 11 34 22 12 41 29 19 47 35 23 50 36 20
64 51 32 76 63 45 81 68 50 71 56 38 65 50 32 70 54 37 81 66 49
84 69 49 78 63 43 77 62 42 85 70 50 78 63 41 81 67 42 92 78 53
100 86 61 84 70 45 81 67 44 77 62 40 73 59 36 72 58 35 59 45 20
50 36 11 48 36 13 50 37 16 60 48 27 69 56 38 80 67 51 74 62 48
90 78 66 99 84 75 92 79 75 86 75 74 92 80 82 108 96 98 129 117 119
151 140 141 154 142 144 164 153 152 171 160 159 149 138 135
126 115 110 110 100 94 107 96 91 88 78 72 84 73 68 83 75 69 75 67 61
77 71 66 97 91 86 87 83 78 88 85 79 84 78 73 64 58 53 55 49 44
60 53 49 80 74 70 71 65 60 39 32 28 39 32 28 58 49 45 54 46 42
32 24 18 33 25 19 45 37 30 81 73 66 87 79 70 83 76 67 76 69 60
107 99 90 104 96 88 111 103 95 108 100 91 111 103 95 86 78 67
78 68 58 64 54 44 69 59 48 76 66 53 81 72 59 93 84 71 99 89 77
94 85 72 110 101 88 107 100 86 111 104 91 115 108 94 117 110 96
117 110 99 111 104 93 118 111 100 125 118 107 137 129 118 131 124 112
114 106 95 101 93 82 121 116 104 107 104 92 98 95 82 98 95 82
103 101 86 108 106 91 103 101 86 117 115 100 110 108 93 111 109 94
117 115 100 120 116 101 101 94 78 98 92 76 96 90 74 96 90 74
102 95 79 103 97 81 124 118 99 122 114 96 129 121 101 142 134 114
142 134 112 144 136 114 144 136 114 141 133 111 136 129 104
133 125 100 143 136 111 133 126 98 144 137 110 152 145 118
154 145 118 146 136 110 151 144 117 168 161 133 192 183 157
203 193 167 222 215 188 215 208 181 185 178 149 181 175 145
188 183 155 195 190 162 182 177 152 179 174 148 192 186 163
195 191 170 83 79 62 42 35 24 44 34 28 62 49 44 69 54 48 64 49 38
63 47 30 72 58 35 67 58 45 64 55 42 43 34 21 31 22 9 32 20 8 33 21 9
35 23 11 40 29 14 40 29 12 41 30 13 57 46 30 82 69 53 90 77 59
78 65 46 67 54 36 64 51 32 67 53 33 69 54 34 65 50 30 63 48 28
56 40 23 43 28 10 48 32 15 67 52 35 65 50 32 61 45 30 55 39 24
51 35 20 48 35 19 50 37 18 53 40 22 54 41 23 58 45 24 60 48 27
65 52 33 67 54 38 69 58 43 74 62 50 79 67 58 83 70 65 100 88 90
114 102 106 134 125 126 155 146 147 182 173 174 186 176 177
181 172 171 162 154 152 136 125 122 123 113 107 122 112 106 98 87 82
100 89 86 83 72 68 74 65 61 81 72 68 62 56 51 73 67 63 72 68 63
79 75 70 71 67 63 59 55 52 38 34 31 51 47 44 82 76 71 68 62 57
25 19 14 25 19 14 55 49 44 58 52 48 46 39 35 35 29 24 35 29 22
72 67 59 78 72 65 85 79 72 83 77 70 108 103 96 117 111 104
115 110 103 118 112 103 111 103 95 107 99 90 92 82 72 76 64 54
85 74 62 78 67 55 81 69 57 89 77 65 96 84 72 91 81 69 107 98 85
95 86 73 96 87 74 110 101 88 114 105 92 120 110 98 98 88 76 106 96 84
117 108 95 134 128 114 125 118 105 108 101 87 105 98 85 112 107 93
108 106 91 100 98 83 87 85 70 93 89 74 106 102 87 93 89 74 113 109 94
101 97 81 101 97 81 106 102 85 112 108 91 121 114 98 108 101 85
97 91 73 94 88 69 110 102 84 114 105 88 121 112 95 122 114 94
117 106 87 133 123 101 141 131 109 136 126 105 145 138 115
147 139 116 144 136 114 140 132 109 141 131 107 132 122 98 132 122 96
147 138 111 147 138 111 147 138 111 128 119 93 128 119 93 132 122 96
150 141 115 184 175 148 182 173 146 187 181 151 169 162 132
156 149 122 157 150 123 164 157 132 168 160 135 168 163 140
175 169 149 97 93 74 49 43 29 45 35 27 56 43 39 65 50 43 66 52 41
81 66 46 71 57 32 50 41 26 73 64 49 87 78 63 65 56 41 33 22 7 33 22 7
33 22 7 33 22 7 40 29 12 39 28 11 45 34 17 50 39 23 65 52 33 67 54 36
65 52 33 58 45 26 57 42 24 59 44 24 56 41 21 52 37 19 54 38 23
54 38 23 59 44 28 63 47 32 55 39 26 55 39 26 55 39 26 54 41 27
48 37 22 50 39 25 53 42 25 55 44 27 60 47 29 64 51 32 68 55 39
72 58 44 71 60 48 88 75 66 97 84 77 95 82 77 136 124 126 144 132 136
161 152 155 183 174 175 181 172 173 187 178 178 179 170 168
161 152 151 149 138 135 135 124 119 107 96 91 114 103 98 79 68 65
66 55 52 56 48 44 58 49 45 43 37 32 57 51 46 79 75 70 53 50 44
65 61 58 53 49 46 32 28 25 45 41 38 78 72 67 75 69 64 43 37 32
35 29 24 51 45 41 57 51 46 48 42 37 39 32 28 28 22 15 77 71 64
68 62 55 99 93 86 91 85 78 115 110 103 131 125 118 133 127 120
126 121 111 116 108 99 116 106 98 102 92 84 83 71 61 81 69 57
83 71 59 77 65 53 83 71 59 89 77 65 81 72 59 96 87 74 89 80 67
91 81 69 102 93 80 103 94 81 120 110 98 105 95 83 102 93 80 107 98 85
121 114 100 119 112 99 114 107 93 103 96 83 112 107 93 101 99 84
101 99 84 85 83 67 82 77 63 90 85 71 93 89 74 94 90 76 96 92 75
83 79 62 84 80 63 100 96 79 114 107 91 115 108 92 104 98 80 96 90 72
107 98 81 113 104 87 122 114 94 126 117 97 113 103 81 111 101 79
140 130 108 136 126 105 141 133 111 145 138 115 147 139 116
144 136 114 152 142 118 145 135 111 146 136 110 150 141 115
147 138 111 145 135 109 121 112 86 119 110 83 103 93 67 114 105 79
143 134 108 146 136 110 159 153 123 168 161 131 165 158 131
156 149 122 154 146 121 172 165 140 174 169 145 174 168 147 97 93 74
49 43 29 45 35 27 56 43 39 79 64 57 60 46 33 66 51 31 64 50 25
46 37 22 43 34 19 65 56 41 86 77 62 83 72 57 58 47 33 49 38 23
57 46 32 61 49 35 56 45 30 53 42 25 52 41 24 50 36 20 57 43 27
59 46 30 57 43 27 62 46 29 64 49 31 61 45 28 57 42 24 54 41 25
57 43 27 57 43 27 54 41 25 52 38 25 52 38 25 54 41 27 54 41 27
53 41 27 53 41 27 55 44 27 57 46 30 61 50 31 64 54 35 69 58 41
72 61 47 82 70 58 71 61 51 86 74 67 117 104 99 155 143 145
161 148 155 159 149 153 162 153 156 186 176 179 179 169 170
168 159 158 161 152 151 157 146 143 122 111 108 119 108 103 99 88 83
71 60 57 60 49 46 54 46 42 55 47 43 55 49 44 54 48 43 39 36 30
68 65 59 58 54 51 47 43 40 25 21 18 39 35 32 72 66 61 84 78 73
66 60 56 48 42 37 46 39 35 55 49 44 50 44 39 44 38 34 39 33 26
76 70 63 62 56 49 97 91 84 99 93 86 125 119 112 149 143 136
150 145 137 143 138 128 123 115 106 126 115 108 113 103 95 90 78 68
90 78 66 72 61 49 81 69 57 90 78 66 93 82 70 84 74 62 96 87 74
85 76 63 89 80 67 100 91 78 98 88 76 112 102 90 110 101 88 102 93 80
101 92 79 110 101 88 110 101 88 116 107 94 101 94 80 114 110 95
98 93 79 91 86 72 91 86 72 72 68 53 82 77 63 76 71 57 90 85 71
83 77 61 84 78 62 82 76 60 79 72 56 87 80 64 101 94 78 105 99 81
97 91 73 103 95 77 112 103 85 123 115 95 129 121 101 123 112 91
104 94 72 130 119 98 136 126 105 138 131 108 141 133 111 145 138 115
147 139 116 156 147 122 156 147 122 154 145 118 150 141 115
170 161 134 157 148 122 118 108 82 104 95 68 97 88 61 96 86 60
121 112 86 128 119 93 138 132 102 129 123 93 130 123 96 142 135 108
150 143 118 156 149 124 161 156 133 155 150 129 97 93 74 49 43 29
45 35 27 56 43 39 69 54 48 57 43 29 64 49 29 57 43 18 38 29 14
39 31 15 44 35 20 63 54 39 79 68 54 70 59 44 67 55 41 58 47 33
47 36 21 52 40 26 55 44 27 57 46 30 53 40 24 50 36 20 51 37 21
57 43 27 57 44 25 59 44 26 56 40 23 52 39 21 52 39 23 48 35 19
47 34 18 51 37 21 57 43 29 55 42 28 54 41 27 51 37 23 53 41 27
55 44 29 57 46 30 60 49 32 62 51 32 65 55 36 70 59 42 74 62 48
66 57 44 67 58 47 85 73 66 110 96 94 141 129 133 172 160 166
185 174 180 179 169 172 183 174 177 166 156 160 158 148 149
155 147 145 138 128 124 133 122 119 103 93 87 81 71 65 76 65 61
73 62 59 70 62 58 75 67 63 50 44 39 47 41 36 65 61 56 88 85 79
61 57 54 50 46 43 29 25 22 42 38 34 69 63 58 86 80 75 73 67 63
62 56 51 42 36 31 54 48 43 51 45 41 48 42 37 60 54 47 68 62 55
63 57 50 82 76 71 101 95 91 132 126 121 161 155 150 154 148 141
163 157 150 130 122 113 129 119 111 120 110 102 102 89 80 91 79 67
82 70 58 78 67 55 95 83 71 97 85 73 86 75 63 96 87 74 89 80 67
87 78 65 100 91 78 99 89 77 99 89 77 112 102 90 105 95 83 102 93 80
102 93 80 105 95 83 113 103 91 99 89 77 100 93 79 114 107 93 90 83 70
83 76 63 82 75 62 66 59 45 76 69 56 91 84 71 89 83 67 76 70 54
72 65 49 79 72 56 54 48 32 73 66 50 90 84 66 96 90 72 100 91 74
110 102 84 126 117 97 133 124 104 117 107 85 92 82 60 91 81 59
114 104 83 133 125 102 138 131 108 141 133 111 145 138 115
149 139 118 159 149 125 154 144 120 141 132 105 166 156 130
161 152 125 135 126 100 131 121 95 112 103 76 103 93 67 125 115 89
135 126 100 123 116 89 128 121 94 128 121 94 123 116 91 103 96 71
120 112 90 140 135 112 162 157 136 97 93 76 51 44 30 45 35 27
56 43 39 44 29 23 58 42 31 74 60 40 58 44 19 44 35 20 56 47 32
51 42 27 52 43 28 57 46 32 56 45 30 54 43 28 52 40 26 56 45 30
56 45 30 56 45 30 56 45 30 52 39 23 52 39 23 52 39 23 53 40 24
55 42 24 54 41 23 52 39 21 50 37 18 48 35 19 47 34 18 48 35 19
54 41 25 55 42 28 55 42 28 54 41 27 55 42 28 52 40 26 53 41 27
56 45 28 57 46 30 71 61 42 63 53 33 63 52 35 71 60 46 86 77 64
76 66 55 88 78 70 117 107 103 159 147 151 173 162 171 174 164 170
189 179 185 166 156 162 179 169 172 187 178 178 178 169 167
173 162 159 141 130 127 94 84 78 66 56 50 70 59 56 69 58 54 66 57 53
59 50 46 34 27 25 64 58 55 79 75 72 65 61 58 51 47 44 44 40 37
40 36 33 56 52 48 69 62 60 79 73 70 76 69 67 70 64 61 55 49 44
77 71 66 60 53 49 62 56 51 65 59 54 90 84 79 87 81 77 94 88 86
122 116 114 149 143 140 164 158 155 169 163 158 174 168 161
154 146 140 144 134 126 131 121 113 109 96 87 100 86 74 94 80 67
90 77 63 97 83 72 107 93 81 91 80 65 103 91 77 99 88 74 97 86 71
89 77 63 96 84 70 105 93 81 102 90 78 107 96 84 103 91 79 103 94 81
101 92 79 107 98 85 100 91 78 86 77 64 92 83 70 93 84 71 69 59 46
77 67 55 76 66 53 70 60 48 76 69 56 86 79 63 81 74 58 76 70 54
88 81 65 66 57 42 66 57 42 87 79 61 87 79 61 93 84 67 119 110 92
123 115 95 136 128 108 136 126 105 93 83 62 68 58 36 82 72 50
111 100 81 136 126 107 147 136 117 121 111 92 135 125 104 135 125 104
139 129 107 138 128 104 155 145 121 166 156 132 155 145 121
128 119 95 117 107 83 130 120 96 130 120 96 124 114 90 122 115 88
114 107 80 98 90 65 116 109 84 106 98 76 95 88 65 97 91 71 118 112 94
101 94 78 48 41 30 55 44 39 48 35 30 68 53 47 59 43 32 63 46 29
71 54 33 49 40 25 56 47 32 50 41 26 50 41 26 53 41 27 50 39 25
48 37 22 48 37 22 48 37 22 49 38 23 49 38 23 49 38 23 52 39 23
52 39 23 53 40 24 53 40 24 52 41 24 52 41 22 52 41 22 50 40 21
51 37 21 50 36 20 51 37 21 57 43 27 55 42 28 55 42 28 54 41 27
55 42 28 58 47 33 61 49 35 63 52 35 64 53 37 76 65 46 69 58 41
69 58 43 76 64 52 92 82 72 83 72 64 94 84 78 124 113 112 132 122 128
141 131 139 134 124 132 144 134 139 175 165 171 174 164 170
180 170 173 178 168 169 141 129 129 114 103 100 87 77 71 73 63 57
60 49 46 56 45 42 52 43 39 49 41 37 70 64 61 86 80 77 73 69 66
45 41 38 74 70 67 65 61 58 66 62 59 70 66 62 63 57 54 73 67 65
87 81 79 82 75 73 58 52 48 54 48 43 61 55 50 79 73 68 71 65 60
92 86 81 114 108 105 100 94 91 131 124 122 157 151 148 171 165 162
177 171 168 178 172 167 165 160 153 161 154 145 147 136 128
127 115 105 110 96 85 103 89 76 104 91 77 107 93 81 112 98 87
96 84 70 97 86 71 96 84 70 93 82 68 85 74 60 92 81 67 103 91 79
97 85 73 103 91 79 100 89 77 100 91 78 99 89 77 94 85 72 106 96 84
81 72 59 79 70 57 86 77 64 64 55 42 62 52 39 71 62 49 66 57 44
67 58 45 81 74 58 70 64 48 81 74 58 76 70 54 88 79 64 76 67 51
83 74 56 95 87 69 89 81 63 119 110 92 127 119 99 128 120 100
139 129 107 112 102 80 78 68 46 65 55 34 79 69 50 111 100 81
145 134 115 135 125 106 124 114 92 132 122 100 134 124 102
142 132 111 145 135 111 160 150 126 163 154 129 154 144 120
113 103 79 91 81 57 113 103 79 111 101 77 106 99 72 98 91 63 81 74 49
100 93 68 113 105 83 102 95 72 82 76 56 83 77 59 77 71 55 41 34 23
44 34 28 38 24 22 57 41 37 56 39 29 68 50 33 84 67 46 48 39 23
50 41 26 51 42 27 51 42 27 50 39 25 48 37 22 46 34 20 46 34 20
46 34 20 47 36 21 47 36 21 47 36 21 50 39 25 50 39 25 50 39 25
50 39 25 50 39 23 50 39 23 53 42 25 53 42 25 52 41 24 50 39 23
52 41 24 57 46 30 54 43 28 54 43 28 54 43 28 54 43 28 50 39 25
52 40 26 55 44 27 56 45 28 71 63 43 63 54 37 63 54 39 71 62 49
80 70 60 71 61 53 83 72 66 112 100 100 102 92 97 119 109 119
123 112 120 140 130 138 160 150 158 159 149 155 161 152 155
139 130 131 115 106 104 88 79 75 72 64 57 65 57 50 47 39 35 47 39 35
52 43 39 55 49 44 63 57 52 70 64 59 63 59 53 51 47 42 80 76 73
79 75 72 94 90 87 81 77 74 70 64 59 72 66 61 97 91 86 84 78 73
68 62 57 37 32 25 68 62 57 79 73 68 93 87 82 89 83 78 115 109 107
133 126 124 143 137 135 170 164 161 185 179 176 190 183 181
185 179 174 179 174 167 172 164 155 168 157 149 149 137 128
126 114 102 115 101 87 111 98 84 111 97 86 116 102 91 107 96 82
98 87 72 91 80 65 89 77 63 81 69 55 88 76 62 100 89 75 89 77 63
95 83 71 98 86 74 86 75 63 100 89 77 98 86 74 99 88 76 92 81 67
76 65 50 84 73 58 58 47 33 53 44 29 65 56 41 63 54 39 65 56 41
69 60 44 79 70 55 69 60 44 73 64 49 89 81 65 83 74 58 81 73 55
100 91 74 94 86 68 110 102 84 124 116 96 128 120 100 128 118 97
117 107 85 91 81 59 76 66 44 82 71 52 90 79 60 121 111 92 128 118 99
123 112 91 135 125 104 121 111 90 134 124 102 134 124 100 147 137 113
160 150 126 166 156 132 139 129 105 93 84 60 118 108 84 125 115 91
115 108 81 107 100 73 91 83 58 109 102 77 103 96 73 121 113 91
108 102 81 73 67 48 63 59 42 42 35 24 43 32 27 45 31 29 57 41 37
56 39 29 66 51 33 83 68 46 45 36 21 49 40 25 49 40 25 53 44 29
50 39 25 49 38 23 47 36 21 45 33 19 50 39 25 50 39 25 50 39 25
50 39 25 50 39 25 50 39 25 50 39 25 49 38 23 49 38 21 50 39 23
53 42 25 55 44 27 54 43 26 53 42 25 54 43 26 60 49 32 54 43 28
54 43 28 54 43 28 54 43 28 48 37 22 50 39 25 53 42 25 54 43 26
61 50 31 52 44 26 52 43 28 59 50 37 55 45 34 45 35 27 57 46 41
86 75 74 123 113 118 134 124 134 131 121 129 143 132 140 158 147 155
171 160 168 164 154 159 118 109 110 103 94 93 76 68 64 59 51 44
49 41 35 46 37 34 54 46 42 64 58 53 72 66 61 55 49 44 48 42 37
38 34 29 32 29 23 67 64 58 87 83 80 107 103 100 75 72 66 85 79 74
76 70 65 100 94 89 75 69 62 76 70 63 40 34 27 77 71 66 61 55 50
87 81 77 107 101 96 117 110 108 143 137 135 156 150 147 183 176 174
197 190 188 203 196 194 193 187 183 196 190 183 182 174 168
177 167 159 173 160 151 150 139 127 130 116 105 110 96 85 108 94 83
117 103 92 117 105 91 105 94 79 88 76 62 85 74 60 77 66 51 84 73 58
99 88 74 84 73 58 90 79 64 96 84 70 88 76 62 85 74 60 97 86 71
99 88 74 104 93 78 82 70 56 79 68 54 60 48 34 57 48 33 60 51 36
60 51 36 73 64 49 64 55 40 70 61 46 73 64 49 63 54 39 70 61 46
85 76 61 85 76 59 100 91 74 109 101 83 96 88 70 119 110 90
131 123 103 136 126 105 117 107 85 93 83 62 83 73 51 77 67 47
70 60 40 103 92 73 128 118 99 131 121 99 140 130 108 106 96 74
117 107 85 128 119 95 134 124 100 145 135 111 155 145 121 147 137 113
120 110 86 110 100 76 124 114 90 110 103 76 102 95 68 86 79 54
105 97 72 124 117 94 108 100 78 109 103 82 122 116 97 72 68 51
46 41 29 49 41 35 60 49 46 67 54 49 60 46 37 64 49 31 70 55 33
38 29 16 41 31 18 46 37 24 48 38 25 46 37 24 44 35 22 42 32 20
41 31 18 51 42 27 51 42 27 51 42 27 51 42 27 56 45 30 56 45 30
55 44 29 55 44 29 55 44 27 55 44 27 54 43 26 54 43 26 58 44 28
54 41 25 52 39 23 50 36 20 57 43 29 55 42 28 53 39 26 51 37 23
48 35 21 46 32 19 43 29 13 43 29 13 46 35 18 48 37 20 48 37 22
48 36 24 35 25 15 35 25 17 41 28 23 78 67 66 124 114 120 132 122 130
136 128 136 120 112 119 140 132 139 143 135 143 128 121 125
113 106 106 91 84 82 77 71 66 66 61 54 55 49 42 56 50 43 79 74 66
90 84 77 65 60 52 56 52 46 43 39 34 38 34 29 44 40 35 81 78 72
91 87 81 92 88 82 87 84 76 89 83 76 79 74 66 101 96 89 80 75 68
98 92 85 58 53 45 73 68 61 68 62 57 79 73 68 108 102 100 125 118 116
155 149 146 179 173 173 190 183 183 204 197 197 214 208 206
205 201 195 200 194 190 194 186 179 187 177 169 181 169 159
161 149 139 139 127 117 124 112 100 122 108 96 117 103 92 123 109 98
109 95 84 95 81 68 93 79 65 83 70 54 94 81 65 96 85 68 84 73 56
85 74 58 95 84 67 88 77 60 79 69 52 81 70 53 90 79 62 99 88 74
74 62 48 62 51 36 62 51 36 60 48 34 65 54 40 71 60 46 72 61 47
84 73 58 69 58 43 83 72 57 77 66 51 60 48 34 85 74 60 99 88 72
104 93 76 99 88 72 99 88 72 105 95 75 123 112 93 120 110 90
117 106 87 106 96 76 92 82 62 89 78 59 95 84 65 107 97 78 121 111 92
139 128 109 138 127 108 116 105 84 97 87 65 114 104 83 130 119 98
140 130 106 139 129 105 145 135 111 133 123 99 104 94 70 126 116 92
115 108 81 115 108 81 99 91 67 79 72 47 113 105 83 100 92 70 96 90 69
111 105 87 83 79 62 47 42 30 55 47 43 63 52 49 78 65 61 52 37 29
62 49 33 68 56 35 38 29 16 42 32 20 46 37 24 46 37 24 41 31 18
42 32 20 44 35 22 46 37 24 49 40 25 52 43 28 57 48 33 60 51 36
58 47 33 58 47 33 58 47 33 58 47 33 48 37 22 48 37 22 48 37 22
48 37 22 46 32 19 44 30 16 41 28 14 41 28 14 38 24 11 36 22 8 33 20 6
33 20 6 34 21 7 36 22 8 36 22 6 37 23 7 36 25 9 38 27 10 39 27 13
40 28 16 32 23 12 35 25 17 45 32 27 85 72 72 138 126 132 132 122 130
124 116 123 156 148 155 170 162 169 156 149 153 138 130 133
134 127 127 104 97 95 85 79 74 69 63 56 56 50 43 70 64 57 87 82 75
68 62 55 65 60 52 63 59 53 50 46 41 45 41 36 51 47 42 80 77 69
92 88 80 96 93 85 95 92 84 94 89 80 86 81 71 97 91 82 77 72 62
89 83 76 86 81 73 77 71 64 91 85 80 80 74 72 94 88 86 136 130 128
161 154 152 190 183 183 197 190 190 209 202 202 216 209 209
212 208 204 201 197 192 192 186 181 188 180 174 181 171 163
170 158 149 152 140 130 133 121 111 129 114 105 119 105 94
125 111 100 118 104 93 97 83 72 95 81 68 88 75 59 90 77 61 91 81 61
88 77 58 85 75 56 96 85 66 86 76 57 84 74 54 71 61 42 89 78 59
95 84 67 76 65 50 62 51 36 60 48 34 56 45 30 68 56 42 68 56 42
76 65 50 83 72 57 75 63 49 84 73 58 85 74 60 69 58 43 70 59 44
104 93 76 100 89 73 102 91 74 100 89 73 100 90 71 110 99 80
113 103 83 100 90 71 96 85 66 99 89 69 93 83 64 89 78 59 96 85 66
112 102 82 138 127 108 145 134 115 143 133 112 133 123 101 128 118 97
120 110 88 139 129 105 116 106 82 120 110 86 134 124 100 124 114 90
120 110 86 114 107 80 102 95 68 99 91 67 103 96 71 98 90 67
108 100 80 79 72 54 91 85 69 76 71 57 48 43 31 54 46 42 55 46 45
99 88 85 63 51 41 59 46 30 73 60 40 39 30 19 43 33 23 46 37 26
44 34 24 41 31 20 42 32 22 44 35 22 46 37 24 42 32 20 45 36 21
50 41 26 53 44 29 48 39 23 48 38 25 48 38 25 48 38 25 36 25 13
36 25 13 36 25 13 36 25 13 34 20 9 36 22 10 36 22 10 37 23 11 31 17 6
29 15 3 26 13 0 25 11 0 29 15 1 30 16 2 31 18 2 34 21 5 36 25 9
39 28 11 39 27 13 39 27 15 50 38 29 56 44 36 68 55 50 112 98 98
154 141 148 155 145 153 183 175 182 182 174 181 160 152 157
162 154 159 140 133 135 112 105 105 91 87 81 61 58 50 63 59 51
86 83 75 86 81 73 63 57 50 73 68 61 69 63 56 73 68 61 61 55 48
56 50 43 62 56 49 80 75 68 97 91 82 106 101 91 107 102 92 98 93 83
98 93 83 98 93 83 80 75 66 80 75 66 111 105 98 79 74 66 92 86 81
111 104 102 107 100 100 134 128 125 165 159 157 204 197 197
209 202 202 214 208 208 219 212 212 215 211 210 198 194 190
185 179 174 185 176 170 186 176 168 178 168 160 166 153 146
141 129 121 136 121 112 116 101 93 124 110 101 124 110 101 103 89 78
99 85 71 95 82 66 86 72 56 84 74 54 91 81 61 86 76 57 98 88 68
88 77 58 84 74 54 68 57 38 83 72 53 93 82 66 83 72 55 65 55 38
57 46 30 54 43 26 63 52 35 72 62 45 78 67 51 79 68 54 79 68 54
84 73 58 93 82 68 83 72 57 64 53 39 100 89 73 104 93 76 104 93 76
103 92 75 97 86 67 98 88 68 104 93 74 97 86 67 98 88 68 105 95 75
93 83 64 75 64 45 77 67 47 98 88 68 116 105 86 128 118 99 141 131 109
133 123 101 139 129 107 127 117 95 141 131 107 114 105 81 103 93 69
130 120 96 131 121 97 109 99 75 109 102 75 95 88 61 100 93 68
116 109 84 114 106 84 115 107 87 89 83 65 73 66 50 77 72 58 46 41 29
46 39 35 51 42 40 52 41 38 67 55 45 63 52 35 61 51 29 41 30 23
43 33 25 45 35 27 42 32 24 46 36 28 44 34 24 42 32 22 41 31 20
32 23 10 32 24 8 32 24 6 31 22 7 31 22 9 30 21 8 29 20 7 29 20 7
31 19 7 31 19 7 29 18 6 29 18 6 30 15 7 31 16 8 33 19 8 36 22 10
36 22 10 34 20 9 32 18 5 30 16 2 27 14 0 30 16 2 33 20 4 37 23 7
39 28 11 40 29 12 40 29 14 40 28 16 41 29 19 49 37 29 65 52 50
111 97 99 143 131 137 165 154 162 179 171 179 195 187 194 174 166 171
160 152 155 134 127 127 118 111 109 104 101 95 106 102 94 101 98 90
87 84 76 77 71 64 62 56 49 61 55 48 92 86 79 80 75 68 68 62 55
63 57 50 69 63 56 79 74 64 98 93 83 111 105 96 115 110 101 103 97 88
107 102 92 100 95 85 90 85 75 84 79 69 120 114 107 91 85 80 90 83 81
121 114 114 129 123 123 140 133 133 202 195 195 214 208 208
216 209 209 219 212 212 221 215 215 213 208 208 191 186 185
177 171 168 178 169 165 187 177 171 183 173 165 174 161 154
149 137 130 139 124 118 115 100 92 119 105 96 118 104 95 107 93 81
101 87 76 100 86 72 83 70 54 79 69 50 95 84 65 86 76 57 99 89 69
90 79 60 77 67 47 71 61 42 76 65 46 90 79 62 85 74 58 72 62 45
60 49 32 55 44 27 54 43 26 82 71 54 77 66 49 74 62 48 81 69 55
79 68 54 97 86 71 95 83 69 75 63 49 86 75 59 109 98 81 106 95 78
103 92 75 96 85 66 92 82 62 93 83 64 103 92 73 107 97 78 105 95 75
92 82 62 64 54 35 63 53 33 89 78 59 111 100 81 128 118 99 135 125 106
133 123 101 139 129 107 146 136 114 145 135 111 135 126 102 100 91 67
113 103 79 125 115 91 109 99 75 106 99 72 98 91 63 101 94 69
103 96 71 127 119 97 103 96 73 119 114 93 81 75 56 76 71 57 40 34 25
42 36 31 49 41 39 74 63 60 78 68 60 57 46 30 64 54 33 31 21 15
34 23 18 34 23 18 34 23 18 34 23 18 30 20 12 28 18 10 25 15 7 27 17 5
27 18 2 28 19 2 28 19 4 29 18 6 29 18 6 31 19 7 31 19 7 32 20 8
33 21 9 34 22 10 35 23 11 37 22 14 37 22 14 39 25 14 41 27 16
36 22 10 36 22 10 36 22 8 34 21 5 38 25 9 40 27 11 43 29 13 47 34 18
48 35 19 46 33 17 45 31 18 45 31 20 54 41 34 54 41 36 72 59 59
89 75 77 123 111 117 171 160 168 202 194 199 204 196 201 192 185 189
161 154 156 139 132 132 143 137 135 118 112 107 94 89 82 71 66 56
75 69 60 78 73 63 91 86 76 110 104 95 122 117 108 92 87 77 98 93 83
56 51 41 56 51 41 78 73 63 113 108 96 129 124 112 115 111 99
122 117 105 107 102 90 84 79 69 99 94 84 107 102 94 108 103 96
112 106 101 126 119 117 128 121 121 162 155 155 168 161 161
209 201 204 220 213 215 226 219 221 223 215 218 213 206 208
207 200 203 188 181 181 175 168 168 178 169 167 188 178 174
183 172 167 169 156 151 154 141 136 143 131 126 131 118 111
124 112 102 110 98 88 111 99 87 102 90 78 91 80 65 89 78 61 81 70 53
92 81 65 86 75 59 100 89 73 85 74 58 67 56 39 82 71 54 88 77 60
99 88 72 90 79 62 75 64 47 67 56 39 65 55 38 57 46 30 72 62 45
78 67 51 81 69 55 79 68 54 78 67 53 81 69 55 91 80 63 96 85 68
77 66 49 90 79 62 106 95 78 103 92 75 91 81 61 102 91 72 103 90 72
103 90 72 103 90 72 103 90 72 92 78 62 64 50 34 50 36 20 68 55 39
83 70 54 123 110 94 128 114 98 137 124 106 139 126 108 143 130 109
146 134 111 122 110 86 135 122 99 118 106 83 122 110 84 104 95 68
106 99 72 106 99 72 102 95 70 106 98 74 106 98 76 108 100 78
123 115 95 98 92 74 76 71 57 40 34 25 44 35 31 51 42 40 71 60 57
78 68 60 70 59 44 64 54 35 31 20 17 32 22 18 32 22 18 34 23 20
30 19 16 28 17 14 28 17 14 27 17 9 28 18 6 28 19 4 29 20 3 29 20 3
31 19 5 31 19 7 32 20 8 32 20 8 34 22 10 36 25 13 40 28 16 41 29 17
43 28 17 44 30 18 46 32 21 48 34 23 45 31 20 43 29 15 39 26 10
37 23 7 39 26 10 41 28 12 45 32 16 46 33 17 46 33 17 44 30 16
43 28 17 43 28 19 54 41 34 57 44 42 70 56 57 126 112 116 174 162 169
192 181 189 189 181 186 175 167 172 172 165 168 169 162 162
143 137 135 114 108 103 98 92 85 75 69 62 75 69 60 51 46 36 56 51 41
90 85 75 112 107 97 110 104 95 78 73 63 86 81 71 58 53 43 90 85 75
80 76 64 121 116 104 138 133 121 117 112 100 125 120 108 105 100 88
73 68 59 87 82 73 117 111 104 120 114 107 125 119 114 120 114 111
134 127 127 170 163 163 190 183 185 217 209 212 224 216 221
227 220 224 221 214 217 209 201 204 185 178 180 177 170 172
175 168 170 182 173 174 188 177 176 173 162 159 159 145 143
152 139 134 152 139 134 139 126 121 128 116 109 112 100 90 113 101 92
104 92 80 93 82 68 91 80 63 83 72 55 89 78 61 81 70 53 96 85 68
84 73 56 69 58 41 79 69 52 88 77 60 93 82 66 96 85 68 85 74 58
70 59 42 65 55 38 62 51 34 67 56 39 61 50 33 81 69 55 81 69 55
79 68 54 75 63 49 79 69 52 93 82 66 89 78 61 86 75 59 92 81 65
93 82 66 89 78 59 104 93 74 105 93 74 105 93 74 105 93 74 105 93 74
87 74 58 81 68 52 64 50 34 55 42 26 66 53 37 97 84 68 110 97 81
122 108 92 133 120 102 139 126 108 146 134 113 121 108 85 121 108 85
118 106 83 126 115 89 124 112 87 107 98 72 106 99 72 103 96 71
106 98 74 93 85 63 100 92 70 116 108 88 114 105 88 82 75 64 44 39 32
48 40 36 55 46 45 88 77 74 72 62 54 55 44 29 58 48 29 30 19 18
30 19 18 30 19 18 29 18 17 29 18 17 29 18 17 30 19 18 31 21 15
32 23 10 32 24 6 34 25 7 34 25 7 35 24 7 35 24 9 36 25 11 38 26 12
39 27 13 41 30 15 42 31 16 42 31 16 46 32 19 47 34 20 50 36 22
51 37 23 51 37 23 51 37 23 50 36 20 48 35 19 44 30 14 44 30 14
46 33 17 48 35 19 45 32 16 48 35 21 55 41 30 58 43 34 62 49 42
74 60 58 127 113 114 169 155 160 165 153 159 160 150 158 169 161 166
192 185 189 190 183 185 154 147 147 112 105 103 93 87 82 92 86 79
91 86 76 68 62 53 84 79 69 111 103 95 121 113 104 108 100 91 82 74 66
80 72 63 73 65 56 108 100 91 96 88 80 60 53 41 111 104 93 127 120 109
97 90 79 124 119 107 110 105 93 79 74 64 97 91 82 124 118 111
146 140 133 140 134 129 126 119 117 140 133 133 177 170 172
212 205 207 230 222 225 230 222 227 230 222 227 219 211 216
203 195 200 176 168 173 182 174 179 195 187 190 208 199 199
187 176 177 180 169 168 177 164 162 180 166 164 162 149 146
148 135 130 134 122 114 117 104 97 116 103 94 106 95 83 96 84 70
93 82 68 84 73 56 91 80 63 77 66 49 89 78 61 83 72 55 72 62 45
77 66 49 89 78 61 92 81 65 98 87 70 93 82 66 82 71 54 70 59 42
64 53 37 64 53 37 61 50 33 70 59 44 74 62 48 77 66 51 79 68 54
71 60 44 78 67 51 97 86 69 96 85 68 93 82 66 96 85 68 90 79 60
105 95 75 109 96 78 109 96 78 109 96 78 109 96 78 88 75 59 92 78 62
71 57 41 50 36 20 58 44 28 69 56 40 89 76 60 93 79 63 110 97 79
128 115 96 147 135 114 125 113 90 104 92 69 114 101 78 115 103 77
118 107 81 112 103 76 106 99 72 106 98 74 106 98 74 91 83 60 96 89 66
100 92 72 116 108 90 84 77 66 48 40 34 51 42 38 58 49 47 84 73 70
91 81 73 74 62 48 54 43 24 28 17 14 28 17 14 29 18 15 25 15 11
29 18 15 31 20 17 35 24 21 37 27 19 38 29 14 38 30 10 39 31 11
39 31 11 41 30 11 41 30 13 42 31 14 42 31 14 42 31 14 42 31 14
42 31 14 42 31 14 48 35 19 50 36 20 52 39 23 54 41 25 53 40 24
58 44 28 64 50 34 67 54 38 58 44 28 54 41 25 51 37 21 51 37 21
53 40 24 59 46 30 69 56 42 75 61 52 81 68 61 130 116 114 134 120 121
136 124 128 138 128 134 171 160 168 197 189 194 209 201 206
165 158 161 138 131 129 110 104 99 100 95 87 82 76 67 54 48 39
70 65 55 103 97 88 131 123 114 111 103 95 83 76 67 63 56 47 75 67 59
94 86 77 131 123 114 94 86 77 62 55 44 119 112 101 136 128 117
98 91 80 117 112 100 115 111 99 104 98 89 110 104 95 136 131 124
163 157 152 165 159 157 160 153 153 158 151 154 186 179 182
218 211 213 236 229 232 233 225 230 231 223 228 217 209 214
199 192 196 206 199 203 210 202 207 213 206 208 216 206 210
207 195 197 208 197 198 204 190 190 196 183 180 173 159 157
153 140 137 142 129 125 125 112 105 117 105 95 109 96 87 97 85 73
96 84 70 85 74 58 93 82 66 79 69 52 85 74 58 82 71 54 75 64 47
75 64 47 90 79 62 96 85 68 96 85 68 93 82 66 95 84 67 79 69 52
67 56 39 70 59 42 74 63 46 68 56 42 70 59 44 75 63 49 85 74 60
72 62 45 68 57 40 92 81 65 99 88 72 103 92 75 99 88 72 88 77 58
98 88 68 111 98 80 111 98 80 111 98 80 111 98 80 96 83 67 87 74 58
74 61 45 64 50 34 57 43 27 52 39 23 68 55 39 64 50 34 80 67 49
103 90 72 130 117 97 118 106 83 95 83 60 105 93 70 94 82 56 104 93 67
107 98 72 106 98 74 106 98 74 106 98 74 100 92 70 99 91 69 84 76 56
107 98 81 84 77 66 48 40 34 51 42 38 59 48 47 59 48 45 57 47 39
49 37 25 53 41 27 37 27 17 39 30 19 44 34 24 44 34 24 40 28 18
40 28 18 40 28 18 40 28 16 42 31 14 45 34 15 48 37 18 50 40 21
45 34 15 46 35 16 47 36 17 52 41 22 52 39 21 57 44 25 59 46 28
60 47 29 61 48 30 66 53 35 71 58 39 71 58 39 72 59 40 72 58 42
73 60 44 74 61 45 73 60 44 73 60 44 73 60 42 72 59 40 68 57 38
70 59 42 75 63 49 78 66 57 90 77 70 106 93 91 110 99 100 126 114 118
182 172 178 208 197 205 199 192 196 164 157 162 148 139 142
134 126 124 118 110 106 95 87 80 74 66 57 60 52 43 73 65 54
115 107 96 111 104 93 90 83 72 80 72 61 60 53 41 89 82 71 72 64 53
118 111 100 66 58 47 63 56 45 129 121 110 123 116 102 111 104 91
136 131 119 133 128 116 132 126 117 128 123 113 150 145 137
169 163 158 175 168 166 182 175 175 179 172 175 211 204 206
233 225 230 240 232 237 237 227 233 230 220 226 215 205 210
210 200 206 211 204 206 206 199 201 200 190 193 194 184 187
195 184 185 195 184 185 195 184 185 195 184 183 181 167 165
167 153 151 152 139 134 131 118 111 117 105 95 110 98 88 104 92 80
99 88 74 93 82 66 96 85 68 92 81 65 81 70 53 82 71 54 75 64 47
71 60 44 78 67 51 105 94 79 100 89 75 91 80 65 88 76 62 81 70 53
76 65 48 77 66 49 81 70 53 81 70 53 68 57 40 69 58 41 81 70 53
89 76 60 75 62 46 75 62 44 96 83 65 102 89 71 105 93 74 94 81 62
97 84 66 107 93 77 123 110 94 125 112 96 112 99 83 96 83 67 92 78 62
81 68 52 61 48 32 61 48 34 50 36 22 50 36 20 64 50 34 58 45 26
72 59 40 94 81 60 110 98 75 104 92 69 96 84 59 90 79 53 88 76 51
85 76 51 102 92 68 119 109 87 104 94 72 100 90 69 96 86 64 89 81 61
85 76 59 84 77 66 53 45 39 46 36 32 56 45 42 54 41 38 38 25 20
39 26 19 35 23 16 38 29 14 41 32 16 45 36 21 44 35 20 49 38 23
49 38 21 49 38 21 49 38 21 39 28 9 41 31 9 45 34 15 47 36 17 53 43 21
60 49 28 67 56 35 68 58 36 74 61 43 75 62 44 76 63 45 75 62 44
73 60 42 73 60 42 73 60 42 72 59 40 73 60 42 74 61 43 75 62 46
76 63 47 76 63 47 76 63 47 76 63 45 75 62 44 71 61 42 74 63 46
78 67 53 82 70 60 88 75 68 114 101 99 141 129 131 172 160 166
193 182 190 203 193 201 186 179 184 151 144 147 151 142 142
129 120 118 111 103 99 95 87 80 80 72 63 91 84 75 101 93 82
117 110 99 91 84 73 79 71 60 96 89 78 103 96 85 93 85 74 69 62 51
102 95 83 60 53 41 76 69 58 124 117 105 126 119 106 122 115 101
131 126 114 131 126 114 155 150 140 154 148 141 167 161 156
181 175 170 186 180 178 199 192 192 204 197 199 227 220 222
238 230 235 239 231 236 237 227 233 225 215 221 223 213 219
224 214 220 217 209 212 213 206 208 210 201 204 206 196 199
216 205 206 216 205 206 216 205 206 216 205 206 187 173 173
177 164 162 159 145 143 138 125 120 117 104 97 110 98 88 104 92 80
100 89 75 99 88 72 98 87 70 91 80 63 81 70 53 76 65 48 71 60 44
70 59 42 78 67 51 98 87 72 92 81 67 84 73 58 79 68 54 85 74 58
93 82 66 86 75 59 84 73 56 77 66 49 82 71 54 79 69 52 72 62 45
86 72 56 83 70 54 78 65 46 81 68 50 97 84 66 101 88 69 89 76 58
93 80 61 103 90 74 116 103 87 122 108 92 116 103 87 93 79 63 90 77 61
86 72 56 78 64 48 74 60 47 61 48 34 51 37 21 50 36 20 61 48 30
64 51 32 72 59 38 88 75 55 97 85 62 97 86 60 86 74 48 79 67 41
72 63 39 90 80 56 107 97 76 97 87 65 91 81 59 86 76 55 79 71 51
77 68 51 68 61 50 42 34 28 44 33 30 59 48 45 56 43 39 63 50 45
49 36 32 50 37 33 49 40 23 51 43 25 56 47 30 55 46 28 63 52 35
63 53 33 63 53 33 62 51 32 62 52 30 63 53 31 67 56 35 68 58 36
70 60 38 72 62 41 76 66 44 77 67 45 86 73 52 85 72 51 82 70 49
80 67 46 76 63 45 75 62 44 74 61 43 74 61 43 75 62 44 76 63 45
76 63 47 76 63 47 76 63 47 76 63 47 76 63 45 74 61 43 69 58 39
70 59 42 75 63 49 78 66 57 89 76 69 109 95 93 127 115 117 166 154 160
199 188 196 209 199 207 204 196 201 189 182 184 178 168 169
137 128 126 108 100 93 91 84 75 75 67 59 74 67 55 69 62 51 88 81 69
99 89 79 69 59 48 89 80 69 112 102 92 96 87 76 81 72 61 106 96 86
84 74 64 96 89 78 118 111 100 132 125 112 137 130 116 131 124 112
144 136 125 172 164 155 185 176 170 193 187 183 199 193 188
205 199 196 225 218 218 227 220 222 238 230 235 246 238 243
241 234 238 238 228 234 214 204 209 221 211 216 222 212 217
217 209 212 214 207 210 215 206 206 214 204 205 227 215 217
227 215 217 227 215 217 227 215 217 198 185 185 188 174 174
167 153 151 145 132 127 117 104 97 110 98 88 104 92 80 100 89 75
103 92 75 91 80 63 78 67 51 77 66 49 68 57 40 65 55 38 69 58 41
79 69 52 89 77 63 84 73 58 75 63 49 71 60 46 76 65 48 95 84 67
85 74 58 86 75 59 77 66 49 92 81 65 92 81 65 76 65 48 79 65 49
86 72 56 87 74 56 78 65 46 90 77 59 94 81 62 82 69 51 86 73 54
99 85 69 108 94 78 117 104 88 119 106 90 94 81 65 86 72 56 80 67 51
78 64 48 82 68 55 73 59 46 61 48 32 50 36 20 58 45 26 59 46 28
61 49 28 69 57 36 85 72 49 96 84 59 92 80 54 78 66 40 68 58 34
81 71 47 95 84 63 85 75 53 81 70 49 78 68 46 74 66 46 74 66 48
76 66 55 46 36 30 42 31 28 53 43 39 58 46 41 70 57 52 75 62 57
90 77 72 63 55 33 65 57 35 70 62 40 69 61 38 72 62 41 72 62 41
74 63 42 72 62 41 71 61 40 74 63 42 77 67 45 79 69 48 72 62 41
76 66 44 81 70 49 83 73 51 83 71 50 81 68 48 79 66 45 76 64 43
75 62 44 76 63 45 76 63 45 76 63 45 76 63 45 76 63 45 76 63 47
76 63 47 76 63 47 76 63 47 76 63 45 73 60 42 68 55 37 67 56 39
71 60 46 75 63 53 79 67 60 109 95 93 136 124 126 187 175 181
208 197 205 206 195 203 191 183 188 178 168 171 138 129 130 103 95 91
93 84 78 97 90 81 94 86 75 105 98 87 97 90 79 84 77 66 62 52 41
76 66 55 98 88 78 78 68 58 93 83 73 89 80 69 108 98 88 89 80 69
110 103 92 115 107 96 137 130 116 147 140 127 134 127 116 165 157 146
171 163 154 201 193 186 213 207 202 214 208 206 220 213 213
245 237 240 240 232 237 246 238 243 248 241 245 247 239 244
242 232 237 202 192 198 209 199 205 207 197 202 210 201 204
211 202 205 212 203 204 212 203 204 221 209 211 221 209 211
221 209 211 221 209 211 212 198 199 194 180 180 177 164 162
152 138 136 117 104 99 109 96 89 104 92 82 100 89 77 97 86 71
77 66 49 67 56 39 76 65 48 62 51 34 62 51 34 68 57 40 81 70 53
82 70 56 77 66 51 68 56 42 64 53 39 61 50 33 82 71 54 70 59 42
84 73 56 82 71 54 95 84 67 98 87 70 89 78 61 79 65 49 85 71 55
88 75 57 81 68 50 86 73 54 89 76 58 78 65 46 81 68 50 96 83 67
102 89 73 114 100 84 123 110 94 119 106 90 103 90 74 93 79 63
89 76 60 81 67 54 82 68 55 74 60 47 61 48 32 52 39 23 52 39 21
59 46 26 67 55 34 80 68 44 87 75 49 93 81 55 88 76 51 72 63 39
81 71 47 90 80 58 76 66 44 76 66 44 76 66 44 76 65 46 74 66 48
72 62 52 49 38 33 52 42 36 71 60 57 63 50 45 42 29 25 57 44 40
77 64 59 58 51 26 60 53 28 65 58 33 64 57 32 70 60 36 74 64 40
77 67 43 76 66 42 77 67 43 77 67 43 79 69 48 81 70 49 75 63 42
76 64 43 76 64 43 75 63 42 69 57 36 75 63 42 75 63 42 71 58 37
72 59 40 74 61 43 75 62 44 76 63 45 71 57 41 68 55 39 75 62 46
66 53 37 67 54 38 65 51 35 69 56 38 80 67 49 71 57 41 90 77 61
105 92 78 108 93 85 130 117 112 168 154 154 216 204 208 251 239 245
235 224 232 217 207 215 189 179 185 151 141 144 108 97 96 73 62 59
63 53 45 67 58 47 76 66 55 72 62 52 79 70 57 91 81 69 101 92 79
85 76 63 98 88 76 72 63 50 80 71 58 93 84 71 89 80 67 102 93 80
107 99 88 148 141 130 132 125 112 148 142 128 148 142 128 181 174 163
179 171 162 215 207 200 235 229 224 238 231 229 239 232 232
242 235 238 246 236 242 245 235 241 245 235 243 244 233 242
244 234 240 188 178 184 201 191 196 199 188 194 195 185 189
204 192 196 208 196 200 212 200 204 214 202 204 219 207 209
220 208 210 220 208 210 206 195 194 195 184 183 181 171 167
150 139 136 117 107 101 106 96 88 101 91 81 95 86 73 84 73 58
63 52 37 53 41 27 63 52 37 61 49 35 58 47 33 65 54 40 74 62 48
84 73 58 71 60 46 64 53 39 64 53 39 57 46 32 65 54 40 70 59 44
69 58 43 74 62 48 89 77 63 88 77 60 97 86 69 101 88 69 92 79 60
93 80 61 78 65 46 86 73 54 85 72 53 83 70 54 83 70 54 91 75 60
97 81 66 105 89 74 111 95 80 115 99 84 113 97 82 108 92 77 105 89 74
94 78 65 87 71 58 84 68 55 77 61 48 71 55 40 69 53 36 64 49 29
66 51 31 87 75 51 87 75 49 87 75 49 87 75 49 86 74 50 76 64 41
74 61 41 65 52 31 66 53 33 69 57 36 71 61 40 74 63 46 70 60 50
55 44 39 50 37 33 68 55 50 83 70 65 69 56 51 46 32 30 50 37 35
67 60 33 70 63 35 74 67 40 73 66 39 77 68 41 76 67 40 76 67 40
75 65 39 81 71 47 78 69 44 77 67 43 76 66 44 76 64 43 74 61 41
71 58 37 66 53 33 74 61 41 72 59 38 73 60 40 78 65 44 72 59 40
73 60 42 76 63 45 78 65 46 85 71 55 78 64 48 78 64 48 109 96 80
115 101 85 125 112 96 150 137 118 173 160 142 185 169 154 199 183 170
204 190 179 200 185 177 190 177 172 230 216 216 239 226 231
218 205 212 195 185 193 181 171 177 155 146 149 119 110 111 93 82 81
58 48 42 48 37 29 52 43 32 57 47 37 49 39 29 48 38 25 53 44 31
66 57 44 74 65 52 94 85 72 76 66 53 71 62 49 86 77 64 86 77 64
101 92 79 107 99 88 143 135 124 134 128 114 145 138 124 165 158 144
192 184 173 199 191 182 222 214 207 245 239 234 248 242 239
252 245 245 252 244 247 245 235 241 242 232 237 240 230 238
240 230 238 242 232 237 192 181 187 204 194 200 199 188 194
204 192 196 201 189 193 195 183 187 190 178 182 191 179 181
204 192 194 215 204 205 222 211 212 213 202 201 201 190 189
186 175 174 155 144 141 121 110 105 106 96 88 100 90 80 92 83 70
81 69 55 64 53 39 54 43 28 60 48 34 58 47 33 56 45 30 63 52 37
71 60 46 67 55 41 62 51 36 63 52 37 71 60 46 55 44 29 62 51 36
64 53 39 64 53 39 71 60 46 84 73 58 83 72 55 97 86 69 109 96 78
95 82 64 95 82 64 90 77 59 79 66 47 85 72 53 94 81 65 100 86 70
95 80 65 99 83 68 105 89 74 108 92 77 120 104 89 119 103 88
116 101 85 115 99 84 113 97 84 101 85 72 94 78 67 91 74 64 85 69 56
81 66 49 78 63 43 74 60 37 87 75 49 87 75 49 87 75 49 87 75 49
87 75 51 75 63 40 67 55 34 64 51 30 64 51 30 66 53 33 68 58 36
71 60 44 70 60 50 57 46 41 50 37 33 62 49 44 83 70 65 75 62 57
58 45 43 68 55 52 71 64 35 73 67 37 78 71 42 77 70 40 76 67 40
75 65 39 74 64 38 74 64 38 78 69 42 79 70 44 81 71 45 81 71 47
79 69 48 78 68 46 78 68 46 77 67 45 88 75 55 100 87 66 112 100 79
118 106 85 114 101 82 122 109 90 133 120 102 142 129 110 163 149 133
145 132 116 149 135 119 195 182 166 203 190 174 195 182 166
192 179 160 196 183 165 191 175 160 189 172 160 171 157 145
150 135 126 211 198 193 225 213 213 229 218 219 232 222 228
230 220 226 212 202 208 180 170 173 127 118 119 78 67 66 43 32 27
32 22 14 37 27 17 32 23 12 32 23 12 42 32 20 57 48 35 70 59 44
78 67 53 79 68 54 65 54 40 71 60 46 90 79 64 95 83 69 110 101 88
118 111 100 146 139 128 150 143 129 152 145 131 181 176 162
202 197 185 219 214 204 232 226 219 255 251 247 255 252 249
255 251 251 255 248 250 244 234 240 238 228 236 236 226 231
237 227 233 229 219 224 193 183 186 217 207 211 212 203 206
198 186 190 190 178 182 184 172 176 181 169 173 192 180 184
211 199 203 226 214 216 236 225 226 226 214 216 208 197 198
184 173 172 147 136 133 126 115 110 108 98 90 98 88 78 87 78 65
76 65 50 67 55 41 56 45 30 55 44 29 55 44 29 53 41 27 60 48 34
68 56 42 56 45 30 54 43 28 58 47 33 69 58 43 62 51 36 58 47 33
60 48 34 63 52 37 71 60 46 84 73 58 84 73 56 86 75 59 103 90 72
100 87 68 95 82 62 100 87 66 81 68 50 90 77 59 102 89 73 111 98 82
109 96 80 110 97 81 111 98 82 112 99 83 126 110 95 127 111 96
129 113 98 130 115 99 126 110 97 113 97 84 101 85 74 94 78 67
93 79 65 92 79 60 90 78 57 86 74 50 87 75 49 87 75 49 87 75 49
87 75 49 86 74 50 73 61 37 60 48 27 61 49 28 61 49 28 64 51 30
65 55 34 68 57 40 70 58 48 57 44 40 48 35 28 57 45 38 76 63 58
86 74 69 71 58 56 65 52 50 66 60 30 69 62 32 73 67 37 72 65 36
74 64 38 74 64 38 74 64 38 74 64 40 92 82 60 100 90 69 112 102 80
120 110 88 132 121 102 138 127 108 147 136 117 153 142 123 107 94 75
146 133 115 174 161 143 173 160 142 156 143 124 153 140 122
152 139 121 151 138 120 157 143 127 126 113 97 143 129 113
173 160 144 171 157 141 175 162 146 190 178 159 211 195 178
218 202 187 224 207 195 218 201 191 203 189 180 230 217 212
248 237 236 253 244 245 250 240 243 247 237 243 216 206 210
168 159 160 115 105 106 81 70 69 46 36 30 36 26 18 41 30 23 49 39 31
42 32 22 44 34 24 53 44 31 63 52 37 81 69 55 81 70 53 73 60 44
80 67 51 101 87 72 109 95 82 127 115 103 137 128 117 158 150 139
169 162 151 166 159 147 196 191 179 214 209 199 231 225 218
245 239 234 255 255 254 255 255 254 255 251 251 255 248 250
246 236 242 237 227 233 232 222 228 232 223 226 208 198 201
188 178 182 228 218 221 228 218 221 187 175 179 179 167 171
181 169 173 188 176 180 198 186 190 206 194 198 220 208 212
228 216 220 206 194 198 198 186 188 186 175 174 158 147 146
129 118 115 109 99 93 96 86 78 84 74 64 72 61 49 68 56 42 57 46 32
52 40 26 53 41 27 50 39 25 57 46 32 65 54 40 56 45 30 50 39 25
52 40 26 58 47 33 68 56 42 56 45 30 53 41 27 54 43 28 77 66 51
95 83 69 82 71 54 67 56 39 80 67 49 99 86 67 93 80 59 94 81 60
92 79 60 97 84 68 105 92 76 111 98 84 125 112 98 125 112 98
124 110 99 123 109 98 130 114 103 133 116 106 137 121 110 141 124 114
132 115 105 119 102 92 106 89 79 94 78 65 94 81 65 96 83 65 100 87 66
97 85 62 87 75 49 87 75 49 87 75 49 87 75 49 83 71 48 73 61 37
59 46 26 54 42 21 59 46 26 62 50 29 63 53 31 65 55 36 68 56 44
53 40 33 50 38 31 62 49 42 58 46 41 58 45 43 65 52 50 99 86 84
67 60 35 87 80 55 119 111 86 144 137 112 150 143 118 129 122 97
105 97 72 148 140 118 194 185 170 200 191 178 199 190 175 202 194 178
188 176 164 176 164 152 187 175 161 149 138 124 119 106 92
139 126 112 135 121 105 142 128 112 159 144 129 170 154 139
180 165 150 189 173 158 184 168 153 147 131 116 178 162 147
205 189 174 215 200 184 222 207 191 229 214 196 233 215 199
237 219 204 246 228 216 220 203 193 197 183 174 237 224 219
243 232 231 246 237 238 249 239 242 236 226 229 215 205 208
174 163 164 116 105 106 84 72 72 44 33 30 28 17 12 28 17 12 35 22 18
31 18 11 35 23 14 47 35 23 58 47 33 86 75 61 89 76 60 76 63 45
98 82 65 93 77 62 112 96 83 104 90 79 141 131 121 162 155 144
176 169 160 185 180 172 212 206 199 238 235 229 244 240 237
255 252 249 255 255 255 255 254 253 255 250 249 250 244 244
243 233 236 236 226 229 225 216 219 215 206 206 190 181 182
179 169 170 225 216 217 221 211 212 202 191 192 176 164 166
171 159 161 181 169 173 201 189 193 202 190 196 202 190 198
209 197 205 195 183 189 201 190 191 191 180 179 171 160 159
138 128 124 116 106 100 101 91 83 85 75 65 81 69 57 77 66 51 64 53 39
54 43 28 52 40 28 54 42 30 61 49 37 58 47 35 56 44 32 45 33 21
56 44 32 61 49 37 68 56 44 54 42 30 46 34 22 48 36 24 78 67 53
90 79 64 93 82 66 67 56 39 84 74 54 90 80 58 90 80 58 89 79 57
100 90 71 100 89 73 106 95 81 121 110 98 129 114 105 133 119 112
142 126 122 145 129 128 140 124 125 145 129 130 151 135 134
154 139 137 144 129 125 131 116 110 122 107 99 115 101 87 102 89 69
99 86 63 96 84 61 94 82 58 94 82 56 94 82 56 94 82 56 94 82 56
81 69 46 74 62 39 59 46 26 55 43 22 58 45 24 64 51 30 57 44 23
62 49 31 76 63 47 58 44 32 52 39 30 62 49 42 56 43 39 45 31 29
40 26 26 61 47 47 126 117 97 156 148 128 187 179 159 201 194 171
192 184 162 170 162 140 123 116 93 164 156 136 187 178 165
191 181 173 195 186 175 195 186 175 197 185 175 209 197 187
194 182 170 155 143 131 186 172 161 204 190 179 193 179 166
167 153 140 185 169 156 213 197 184 227 211 198 222 207 191
200 184 169 170 154 139 210 194 179 213 197 182 206 190 175
212 196 181 226 209 192 238 220 203 237 219 204 241 223 211
208 192 181 210 196 187 247 234 229 251 240 239 250 240 241
251 241 245 224 214 218 212 203 206 171 159 161 105 93 93 48 36 36
18 8 4 15 4 1 24 13 10 31 17 15 28 15 11 36 24 17 50 39 27 77 66 51
96 85 68 99 86 67 90 77 59 88 73 56 86 71 53 94 79 63 90 77 63
139 127 115 133 126 117 190 184 177 181 175 170 221 217 214
250 246 243 255 251 251 255 255 254 255 255 254 255 251 251
251 247 246 243 239 238 241 234 234 233 224 225 221 211 212
208 199 199 176 167 168 159 150 148 203 194 193 219 211 209
213 202 201 193 182 181 190 178 178 197 185 187 186 174 178
191 178 185 195 182 194 197 184 193 195 183 189 201 189 193
191 179 181 171 160 159 142 131 128 119 108 103 103 93 85 88 79 68
78 67 55 81 69 55 65 54 40 46 34 20 46 34 22 52 40 28 57 46 34
55 43 31 45 33 21 55 43 31 57 46 34 74 62 50 74 62 50 62 50 38
50 39 27 45 33 21 53 41 27 77 66 51 102 91 74 83 72 55 76 65 46
96 86 64 99 89 65 91 81 59 100 90 71 103 92 75 113 102 87 128 117 105
146 131 125 152 136 135 159 143 144 165 148 152 163 146 151
163 145 153 163 146 151 163 146 149 160 144 145 147 132 128
132 117 111 115 101 87 109 96 76 105 94 68 103 91 68 101 89 65
99 87 61 99 87 61 99 87 61 99 87 61 87 75 51 76 64 41 60 48 27
54 42 21 59 46 26 65 52 31 57 44 23 62 49 31 73 60 44 61 48 34
54 42 32 58 46 41 56 43 41 50 37 35 41 27 27 48 34 34 141 132 115
135 126 109 138 130 112 149 141 121 186 178 158 171 163 143
154 145 125 202 194 176 209 200 189 212 202 194 226 216 208
240 230 222 244 231 222 242 230 221 232 220 210 178 166 157
212 200 190 226 214 204 226 214 202 201 187 176 165 149 138
171 155 144 203 186 176 215 199 186 191 175 160 193 177 162
232 216 201 226 210 195 217 201 186 207 191 176 211 193 177
222 204 187 226 208 194 224 205 193 184 167 157 217 203 194
249 239 233 250 241 239 245 236 237 242 232 233 219 210 211
175 166 167 134 122 124 100 89 88 49 37 37 22 11 10 24 13 12 38 27 26
43 30 28 45 32 27 57 45 38 75 63 51 91 80 65 100 89 73 99 86 67
102 89 69 106 91 71 110 92 75 101 86 70 102 88 75 120 110 98
150 142 133 183 177 170 200 196 191 228 224 221 255 254 250
255 253 252 254 252 251 255 255 253 253 251 249 247 246 242
235 231 228 239 232 230 229 220 218 212 204 202 197 188 187
167 158 157 153 145 141 185 176 172 204 196 192 202 192 188
185 174 171 177 166 163 173 162 161 166 154 158 151 139 145
157 145 151 186 174 180 195 183 187 201 189 193 191 179 181
171 160 159 145 134 131 122 112 106 107 97 89 92 82 72 84 72 60
76 65 50 56 45 30 41 30 15 46 34 22 58 47 35 62 50 38 57 46 34
54 42 30 70 58 46 72 61 49 82 70 58 55 43 31 52 40 28 43 32 20
34 22 10 49 38 23 64 53 39 97 86 69 92 81 65 91 81 61 92 82 60
93 84 60 98 88 64 100 90 71 105 94 77 119 108 93 136 125 113
162 150 142 169 156 153 178 165 165 184 170 173 183 169 173
177 162 170 170 156 161 166 152 154 163 150 150 157 145 140
141 129 121 118 107 92 112 102 80 109 99 73 106 96 72 104 94 70
103 91 66 103 91 66 103 91 66 103 91 66 93 81 57 80 68 44 59 46 26
51 38 17 59 46 28 65 52 33 57 44 23 62 49 31 71 57 41 64 50 36
57 45 36 56 43 39 58 45 43 78 65 63 41 27 27 47 33 33 215 206 191
211 202 186 200 191 176 190 181 166 187 178 163 166 157 142
188 180 164 232 222 209 227 217 207 218 207 199 227 217 209
248 236 229 253 241 231 249 237 228 213 201 192 184 172 163
238 226 216 232 219 212 238 225 218 222 207 199 190 173 165
156 139 131 154 137 129 183 166 156 169 153 140 210 194 179
237 222 207 241 225 210 241 225 210 211 195 180 193 174 160
193 174 160 210 192 177 203 184 172 158 142 131 214 199 190
243 233 227 242 233 231 232 223 224 226 217 218 226 217 218
192 180 182 150 139 138 107 96 95 55 43 43 24 13 12 21 10 9 29 18 17
33 20 17 36 23 19 53 40 33 72 61 49 89 77 63 98 87 70 100 87 68
109 96 76 113 98 78 119 101 85 99 83 68 103 89 76 123 114 101
154 149 139 189 186 178 213 209 204 234 233 229 254 253 249
251 249 247 254 252 251 254 252 251 250 248 246 241 240 236
230 226 223 216 207 204 204 193 190 184 173 168 168 157 151
121 110 105 119 108 103 134 123 118 138 128 120 145 135 127
144 134 128 152 142 136 155 144 141 140 128 130 148 136 140
157 145 149 177 165 169 195 183 187 201 189 193 191 179 181
171 160 159 148 137 134 126 115 110 109 99 91 94 84 74 93 82 70
65 54 40 43 32 18 45 33 19 55 43 31 64 53 41 69 57 45 70 58 46
53 41 29 58 47 35 70 58 46 58 47 35 45 33 21 53 41 29 54 42 30
47 35 23 39 27 15 43 32 18 83 72 55 113 102 85 100 90 71 105 95 73
97 87 63 83 73 49 100 90 71 107 96 80 124 112 98 139 127 115
173 160 153 181 167 165 191 178 178 199 185 188 195 183 187
186 174 180 174 162 167 165 154 155 155 143 143 158 147 144
149 139 131 126 116 103 118 108 86 114 105 79 112 102 78 109 99 75
108 96 70 108 96 70 108 96 70 108 96 70 99 86 63 83 71 48 60 48 27
51 38 17 59 46 28 64 51 32 57 44 23 62 49 31 68 55 39 66 52 39
60 48 38 54 41 36 45 31 29 67 53 51 84 70 70 74 60 60 227 216 204
227 216 204 224 212 200 218 206 194 189 177 165 143 132 120
182 170 158 221 209 200 239 226 219 235 223 216 234 222 215
238 225 218 253 238 232 249 234 227 207 192 186 208 193 187
235 223 216 241 228 224 241 228 224 236 221 215 232 214 209
207 190 184 171 154 148 123 106 99 132 115 105 212 196 183
239 223 210 242 226 213 241 225 212 234 218 205 204 186 174
173 155 140 173 155 140 145 126 114 169 152 142 220 205 196
237 224 219 241 230 229 251 242 242 246 237 238 228 216 218
209 198 199 183 169 169 135 122 122 70 56 57 29 16 16 27 13 13
34 20 20 35 22 20 53 40 35 75 62 55 91 79 67 111 100 85 113 102 85
104 91 73 119 107 86 130 115 95 107 92 74 98 82 67 103 91 77
129 119 109 160 154 145 195 192 184 217 216 209 248 247 243
255 255 253 255 254 253 255 255 254 251 249 247 236 234 232
194 192 190 201 197 194 171 162 156 170 158 151 164 152 145
157 145 138 111 98 91 131 118 111 153 141 131 163 151 142 174 162 152
181 169 159 180 167 160 163 150 146 159 145 143 143 130 130
170 158 160 172 160 164 177 165 169 185 173 177 188 179 180
181 172 171 145 136 133 126 118 112 115 107 98 103 94 83 92 83 70
58 49 34 38 29 16 50 41 28 62 52 39 57 48 35 66 57 44 65 56 43
67 58 45 72 63 50 52 43 30 43 34 21 35 25 15 41 31 20 64 54 44
62 52 41 43 32 20 42 31 16 58 48 31 102 91 74 121 111 92 124 114 92
116 106 82 99 89 65 84 74 52 113 102 85 134 123 108 146 134 124
178 168 160 194 183 180 207 195 197 211 199 203 213 200 207
211 201 207 197 188 191 173 164 164 148 140 138 141 133 129
129 121 114 122 113 100 112 104 81 108 101 74 106 98 74 105 95 71
107 94 71 108 96 72 108 96 70 108 96 70 102 90 67 87 75 51 64 51 30
52 39 19 59 46 28 64 51 32 49 39 17 53 42 23 69 58 41 68 56 42
65 53 44 57 46 41 64 53 50 67 56 53 46 35 34 66 55 56 231 218 211
231 218 211 227 215 208 221 209 202 202 189 182 156 144 137
187 174 167 187 174 167 212 200 193 227 215 208 237 224 217
231 218 211 238 223 217 228 213 206 190 176 169 231 216 210
245 232 227 248 235 231 242 230 225 235 219 215 242 224 221
236 219 215 215 198 195 157 140 134 121 105 94 158 142 129
200 184 171 228 212 199 240 224 211 236 220 207 213 195 183
174 155 143 155 137 123 134 116 104 175 158 148 173 158 150
206 193 189 243 232 231 242 232 233 246 237 238 236 225 226
204 192 194 170 157 157 163 150 150 56 42 43 32 18 18 34 20 20
40 26 26 39 25 23 52 39 34 82 69 62 117 105 93 140 129 114 121 111 92
126 114 93 122 109 88 136 121 101 115 100 82 108 94 78 118 107 92
131 122 111 168 163 153 213 210 202 240 239 233 252 250 246
255 255 253 255 254 253 255 254 253 244 242 240 234 232 231
214 211 210 222 218 213 212 202 194 204 192 182 191 179 170
180 167 158 118 106 96 135 124 112 148 136 124 147 136 121
160 148 134 175 163 151 181 169 157 175 163 153 146 133 128
154 141 138 149 138 137 170 158 160 172 160 162 185 173 175
188 179 178 178 169 167 153 145 141 132 124 118 118 110 102 104 97 86
83 73 60 60 51 36 50 41 28 64 55 42 65 56 43 65 56 43 81 72 59
85 76 63 103 94 81 95 86 73 57 48 35 36 27 14 30 20 10 28 18 8
70 60 50 73 63 53 72 61 49 64 53 41 72 61 47 86 75 59 107 97 78
128 118 97 134 124 100 121 112 88 96 86 64 110 99 82 134 123 108
163 153 143 183 176 167 201 192 188 217 208 209 223 213 217
223 213 219 224 214 220 209 199 203 185 175 178 147 138 139
133 124 123 119 111 107 116 109 97 109 102 79 106 99 72 103 96 71
103 93 69 104 92 69 105 93 70 105 94 68 105 94 68 104 92 69 89 77 54
66 53 33 55 43 22 59 46 28 62 49 31 49 39 17 53 42 23 69 58 41
68 56 42 64 54 44 69 58 52 72 61 58 67 56 55 65 53 55 63 51 53
227 214 210 227 214 210 224 211 206 219 206 202 177 164 160
175 162 157 209 196 191 197 184 179 182 169 164 201 188 183
217 204 199 228 216 211 237 222 218 209 194 190 182 167 163
232 217 213 238 225 220 242 230 225 241 228 224 235 219 215
242 224 221 244 227 224 224 206 203 165 148 142 159 143 133
162 146 133 159 143 131 199 183 170 231 214 202 239 223 210
225 207 195 199 181 169 166 147 135 163 145 133 154 137 129
156 141 134 170 157 155 173 162 161 205 193 195 221 209 211
226 214 216 191 179 181 196 182 182 121 108 108 41 27 27 34 20 20
40 26 26 42 28 29 46 32 30 84 71 66 114 102 93 127 115 103
150 140 123 132 121 102 138 126 103 131 119 96 144 129 109 127 112 94
124 111 95 136 125 111 145 136 123 183 178 168 227 224 213
254 253 245 255 255 251 255 255 253 255 255 254 254 249 248
231 229 227 216 214 212 197 196 192 187 184 178 191 181 171
183 171 159 170 159 147 159 147 135 116 104 92 138 126 112
146 134 120 136 126 109 143 133 116 164 154 137 173 161 147
176 164 152 156 144 135 140 127 122 164 153 150 186 175 174
150 139 138 172 161 160 183 175 173 181 172 171 165 156 152
141 133 127 124 116 108 107 99 88 81 72 59 67 58 43 62 52 39 70 60 48
67 58 45 67 58 45 84 74 62 88 79 66 93 84 71 86 77 64 52 43 30
34 24 11 25 16 5 30 20 10 56 46 36 53 44 33 84 72 60 83 71 59
70 59 44 70 59 42 90 79 60 112 102 80 130 120 96 132 122 98
121 111 90 119 108 91 130 121 106 158 148 138 179 171 162 200 191 187
219 210 211 225 218 220 232 224 229 233 225 230 218 211 213
193 186 189 158 152 152 129 123 121 104 98 93 96 91 79 94 86 64
92 83 56 90 80 56 88 77 56 102 90 67 102 90 67 102 90 65 102 90 65
108 96 72 93 81 57 69 57 36 59 46 26 59 46 28 62 49 31 49 39 17
53 42 23 58 48 31 61 49 35 59 49 41 81 71 65 76 65 61 62 50 50
65 53 55 64 52 54 219 206 202 219 206 202 216 203 198 210 197 192
162 149 144 202 189 184 224 211 206 216 203 198 204 191 186
195 182 177 194 181 176 211 198 193 214 198 195 182 167 163
193 178 174 234 218 214 217 204 199 230 217 212 238 225 220
238 223 219 242 226 222 239 221 218 221 203 200 176 158 153
198 181 171 189 172 160 171 155 142 177 161 148 191 175 162
213 197 184 218 200 188 206 188 178 176 157 148 139 120 110
142 125 119 135 119 115 131 117 115 164 153 152 184 173 172
200 189 188 200 189 188 175 161 161 153 139 139 69 56 53 36 23 21
50 37 35 39 25 23 49 36 34 90 77 72 105 93 85 126 114 102 147 136 121
141 131 111 141 131 109 133 122 96 150 138 112 155 140 120
140 124 107 140 127 111 155 144 129 172 163 150 203 198 186
238 236 223 255 255 250 255 255 251 255 254 253 255 254 253
245 241 240 209 205 204 197 190 188 185 179 176 172 164 157
173 164 151 170 159 145 164 153 139 159 147 133 105 94 79 135 124 110
148 137 120 136 126 107 133 122 103 147 136 117 155 145 125
171 160 144 184 173 161 182 169 162 187 176 173 158 147 146
123 112 111 164 153 152 189 180 179 188 179 178 172 163 159
146 138 132 125 117 109 107 99 88 86 77 64 74 65 52 64 55 42 65 56 43
69 59 46 64 55 42 73 64 51 72 63 50 39 30 17 51 42 29 39 30 17
37 28 15 48 38 27 72 62 52 56 46 36 38 29 18 63 51 39 95 83 71
60 48 34 61 50 33 81 70 51 85 75 53 104 94 70 124 114 90 123 112 91
132 121 104 143 134 119 162 152 142 172 164 155 194 185 181
214 208 208 222 217 219 241 236 240 242 237 241 227 222 224
202 197 199 167 163 162 128 124 121 92 88 82 76 71 59 77 69 49
75 65 43 72 62 41 70 60 38 100 87 64 100 87 64 100 88 62 100 88 62
108 96 72 95 83 60 72 59 38 61 48 30 59 46 30 62 49 33 49 38 21
53 42 25 45 33 19 46 34 22 56 46 38 88 78 72 67 56 53 43 32 31
45 34 33 72 60 62 210 195 189 223 208 202 227 212 205 182 167 161
174 159 153 220 205 198 217 202 196 221 206 199 230 215 209
218 204 197 208 193 187 204 190 183 170 155 148 144 129 123
184 169 162 196 181 175 195 180 174 178 163 156 206 191 184
230 215 209 243 228 222 232 217 211 193 178 172 182 168 159
208 194 183 194 180 169 175 161 150 153 139 128 133 116 106
151 135 124 146 129 119 163 146 138 132 115 107 108 91 83 122 105 99
121 105 101 123 109 107 152 138 136 187 176 173 218 207 204
182 169 166 166 152 150 116 101 97 52 37 33 54 39 35 61 46 42
69 54 50 89 74 68 114 99 92 121 106 97 144 130 117 156 142 126
156 143 122 161 150 124 147 136 108 159 147 122 157 142 122
155 139 124 135 121 105 178 167 153 199 192 178 223 218 204
245 243 228 255 255 250 255 251 251 243 238 240 248 241 241
236 230 230 202 191 190 185 172 170 183 170 165 173 160 153
171 157 145 173 159 146 166 154 140 153 141 127 108 94 81 149 135 121
154 141 125 144 131 113 134 124 102 130 119 98 135 125 104
149 139 120 173 161 147 174 162 152 150 138 133 122 111 108
134 122 122 169 160 161 189 180 181 183 175 173 172 166 162
147 141 134 126 121 111 109 102 90 89 80 69 79 70 57 79 70 57
81 72 59 92 82 72 74 65 54 62 52 41 39 30 19 27 17 7 36 26 16
41 31 20 49 39 29 77 67 57 69 59 48 51 41 31 35 25 15 40 28 16
58 47 35 95 83 69 92 81 65 93 83 64 98 88 66 100 91 67 104 94 70
128 118 97 135 125 106 144 135 120 159 150 137 175 167 161
191 185 182 205 200 199 216 213 214 218 215 219 234 232 235
240 238 239 208 205 206 167 163 162 116 112 109 76 70 65 61 53 45
64 55 42 71 60 44 68 57 38 57 47 26 81 71 47 79 70 46 86 77 51
98 89 62 105 95 71 96 86 62 75 65 43 60 49 30 66 53 37 59 45 32
46 34 22 38 25 16 32 19 12 28 15 11 48 37 32 71 60 55 102 91 88
83 71 70 43 32 31 55 43 43 178 163 154 187 172 164 188 174 165
164 149 140 194 179 171 223 208 202 222 207 201 223 208 202
209 194 188 222 207 201 203 188 182 165 150 144 159 144 138
203 188 182 236 221 215 190 176 169 147 132 126 110 95 89 124 109 103
150 135 126 172 157 149 173 158 150 152 138 129 153 139 130
163 148 137 163 148 137 161 147 136 161 147 136 165 149 138
171 155 144 165 148 140 170 153 145 142 125 117 134 117 109
142 127 120 144 129 125 143 131 126 176 163 158 197 186 181
198 187 182 185 172 168 157 145 138 93 78 71 36 21 12 57 42 33
80 65 57 104 90 81 118 104 95 131 117 106 133 120 106 129 115 99
165 152 134 166 154 131 174 162 137 161 150 122 171 159 133
169 153 136 158 142 129 143 129 115 178 167 155 229 222 208
246 241 227 254 251 236 255 255 246 255 251 247 236 231 233
232 225 225 222 213 211 197 184 181 170 154 150 175 157 152
178 161 153 173 159 148 175 162 148 168 157 142 155 144 129 108 94 81
149 135 121 154 141 125 144 131 113 131 121 99 124 114 90 127 117 95
138 127 108 162 151 134 145 133 121 123 110 103 127 114 112 107 95 97
151 141 144 186 176 179 189 180 181 186 180 178 161 155 150
140 134 127 123 115 106 112 102 94 101 91 81 94 85 72 92 83 70
74 65 54 63 53 43 45 36 25 34 24 14 35 25 15 30 20 10 46 37 26
69 59 48 71 61 51 53 44 33 43 33 23 46 37 26 36 25 13 34 22 10
69 58 43 97 86 69 97 86 67 98 88 66 98 88 64 97 87 63 118 108 86
133 122 103 143 135 117 155 145 133 175 167 161 191 185 182
205 200 199 216 213 216 214 213 218 213 212 217 204 203 206
215 212 213 174 170 169 127 123 119 85 79 74 63 56 47 57 47 37
60 48 34 56 46 26 50 40 19 70 60 36 74 64 40 88 78 52 104 95 68
104 94 70 99 89 65 81 70 49 68 57 38 64 50 34 53 39 26 40 28 18
32 19 14 28 15 13 29 16 14 45 35 29 53 43 39 100 89 88 100 89 88
87 76 75 70 58 58 180 166 155 168 154 143 142 127 116 132 118 107
195 181 170 199 184 175 195 181 172 179 164 156 172 157 149
172 157 149 165 150 142 154 140 131 124 110 101 149 134 125
179 164 156 189 175 166 133 119 110 101 86 78 110 96 87 122 108 96
123 109 98 131 117 106 119 105 94 129 115 103 136 122 110 160 146 135
190 176 165 208 194 183 192 176 165 187 171 161 193 177 166
189 172 162 143 126 118 157 140 132 157 142 135 163 148 141
153 140 133 164 152 145 188 175 168 213 201 194 188 176 166
118 106 96 62 48 37 71 56 45 95 81 70 114 100 88 135 120 109
143 129 115 144 131 115 139 126 110 160 147 129 164 151 130
177 164 141 189 178 152 181 170 142 184 171 148 193 177 162
172 156 145 164 150 138 187 174 165 244 237 225 254 249 237
255 253 241 250 249 238 235 231 226 230 226 223 232 225 223
203 195 191 187 174 169 165 150 144 171 154 146 172 156 145
167 153 140 170 156 142 162 151 136 149 138 124 108 94 81 149 135 121
154 141 125 144 131 113 128 118 97 117 107 83 114 104 83 121 111 92
133 122 105 118 106 94 124 112 102 130 116 114 108 96 102 155 145 153
195 185 193 202 192 198 199 192 194 174 167 167 153 147 142
136 128 121 124 114 106 109 100 89 93 84 71 85 76 63 57 47 37
60 51 40 53 44 33 58 48 38 41 31 20 39 30 19 45 36 25 43 33 23
51 41 31 69 59 48 79 69 59 76 66 55 70 58 46 70 58 46 68 56 42
78 67 51 83 72 53 91 81 59 107 98 74 110 100 76 116 105 84 127 117 97
145 137 119 158 149 136 175 167 161 191 185 182 203 201 199
214 214 216 201 201 205 203 205 209 189 188 191 183 181 182
171 166 166 134 130 126 100 94 89 77 70 61 57 47 37 53 41 27 50 39 23
50 40 19 67 57 33 70 60 36 84 75 48 100 91 65 104 94 70 100 91 67
86 76 55 76 65 46 61 48 32 50 35 24 34 22 12 24 11 6 25 11 9 25 11 9
43 32 29 48 37 34 63 51 51 92 81 80 77 65 65 72 61 60 147 134 118
132 119 103 103 90 74 114 100 86 135 121 107 137 123 110 163 149 135
160 146 133 154 141 127 149 135 121 133 120 106 118 104 93 119 105 94
129 114 105 116 101 93 104 90 79 104 90 79 101 87 76 116 102 91
108 94 83 111 97 86 118 104 93 104 90 79 111 97 86 128 113 102
135 120 109 140 126 115 150 136 124 140 123 113 135 118 108
161 144 134 157 141 130 135 118 108 165 148 140 159 145 136
166 152 143 155 143 133 171 159 150 178 167 155 176 164 152
131 119 105 88 76 62 82 69 53 105 92 76 124 111 95 136 122 106
152 139 123 164 151 132 160 148 127 150 137 116 159 147 124
199 186 163 180 168 145 192 180 154 187 175 150 197 185 164
221 205 194 191 174 168 187 172 166 203 190 183 246 239 230
255 251 241 255 253 243 241 241 232 226 222 216 207 203 198
213 207 202 208 200 193 175 162 155 168 154 145 172 156 145
162 146 133 157 143 129 159 145 132 153 139 126 139 127 113 108 94 81
149 135 121 154 141 125 144 131 113 128 115 94 114 101 78 108 95 74
110 99 80 112 101 84 128 117 105 135 123 114 120 107 105 128 115 124
171 159 174 204 193 206 208 197 207 197 189 196 171 164 167
150 143 144 132 126 121 118 110 104 98 88 78 81 72 61 66 56 46
62 52 41 46 37 26 34 24 14 32 23 12 43 33 23 69 59 48 73 63 53
60 51 40 66 56 46 62 52 41 63 53 43 66 56 46 83 71 59 85 74 62
69 58 43 83 72 55 78 68 49 79 69 48 91 81 57 109 99 75 121 111 90
125 114 95 141 132 115 161 151 138 175 167 161 191 185 182
203 201 199 214 214 216 208 210 214 187 189 193 176 175 178
155 153 154 135 130 130 113 107 104 91 83 79 73 63 55 65 53 44
55 44 29 52 41 24 57 47 28 72 62 41 71 62 37 78 69 42 90 81 54
100 91 67 100 91 67 89 79 57 79 69 50 60 47 31 48 34 23 34 22 12
22 9 5 22 9 7 18 4 2 35 24 21 44 33 30 52 41 40 64 53 52 64 53 52
59 48 47 130 117 99 133 120 102 129 116 97 149 136 117 149 135 119
158 145 129 173 160 144 182 169 153 187 172 157 185 169 154
165 150 134 111 95 80 86 70 57 84 67 57 80 64 53 78 62 49 94 80 67
97 84 70 102 88 75 108 94 81 112 98 87 112 98 87 111 97 86 103 89 78
125 111 100 164 150 138 166 152 141 130 116 105 101 87 74 111 98 84
122 108 94 108 94 81 108 94 81 103 89 78 135 120 109 153 139 128
179 165 152 163 149 135 141 130 113 128 117 101 109 96 78 116 103 85
149 136 115 170 157 136 172 159 138 194 181 161 172 160 136
153 141 118 137 125 100 151 139 113 185 173 147 209 197 172
195 183 160 200 188 164 196 184 161 227 214 195 235 220 211
193 178 174 188 173 169 209 199 193 244 236 229 240 234 227
236 233 225 232 231 224 208 206 200 186 182 177 191 185 178
184 174 166 173 161 149 161 148 134 154 138 125 155 139 124
155 139 124 156 140 125 153 139 126 125 112 98 115 101 87 146 133 119
145 132 116 133 120 102 125 113 92 115 100 80 101 86 66 89 76 58
90 77 61 126 112 101 121 109 100 116 102 100 117 104 118 195 183 203
188 178 195 191 182 196 200 192 204 184 176 183 169 161 166
147 140 140 129 124 117 109 102 90 93 85 74 77 70 59 51 43 32
37 29 18 26 19 8 30 22 11 66 58 47 68 61 50 42 35 24 30 22 11
30 20 10 28 18 8 42 32 22 48 38 27 58 49 36 80 71 58 112 103 87
117 109 91 89 78 59 81 70 49 86 77 53 86 77 53 110 100 78 136 126 107
155 146 129 161 151 138 176 168 162 193 187 185 200 197 198
199 199 201 200 201 205 205 206 210 182 181 184 149 147 148
116 112 111 83 76 74 69 61 57 74 64 58 67 55 45 60 48 34 57 46 30
62 51 32 67 56 35 74 64 40 83 74 47 90 81 54 95 85 59 92 82 58
89 79 57 86 76 57 67 56 39 50 39 27 34 22 12 22 11 6 17 6 3 16 5 2
31 20 17 53 43 39 52 41 40 59 48 47 59 48 47 59 48 47 130 117 97
131 119 98 123 110 90 139 127 106 149 136 115 150 137 118 152 139 121
154 141 123 170 155 137 187 172 154 182 166 149 128 113 95 88 73 58
65 49 34 56 40 25 65 49 36 85 71 57 88 74 61 93 79 65 96 82 69
95 81 68 100 86 74 101 87 76 114 100 88 193 179 168 186 172 161
166 152 141 145 131 120 119 106 92 135 121 107 118 105 91 124 110 97
129 115 101 118 105 91 133 120 106 133 120 106 152 139 123
153 140 124 145 134 115 145 134 115 150 137 116 179 167 143
166 154 131 163 150 127 168 156 133 202 190 165 180 168 143
150 138 110 143 131 103 170 159 128 193 181 153 210 199 171
204 192 169 207 194 173 221 208 189 255 241 227 238 223 219
203 187 188 202 188 188 220 209 208 238 229 228 232 226 221
224 221 215 218 217 211 189 188 181 171 168 160 164 159 149
162 152 142 161 150 135 154 141 125 147 131 116 143 127 112
141 125 110 142 126 111 139 126 112 111 98 84 102 88 75 126 113 99
121 107 91 112 100 81 109 94 74 98 83 63 81 66 46 69 53 36 94 80 67
125 111 100 84 72 62 71 60 59 146 135 150 202 189 212 197 187 206
195 185 202 205 196 210 184 175 189 164 156 168 139 131 136
126 120 113 104 99 87 87 82 73 72 67 57 66 58 47 54 47 36 51 43 32
54 47 36 56 49 38 45 38 26 36 28 17 41 34 23 29 19 9 51 41 31
42 32 22 44 34 24 57 48 35 77 67 55 99 90 75 131 123 105 128 118 99
104 94 72 85 76 51 99 89 65 100 90 69 126 115 96 148 139 122
162 152 140 174 166 160 191 185 182 198 193 194 197 194 198
201 201 205 186 186 190 173 170 173 155 150 151 126 119 119 100 94 91
87 78 74 81 71 65 64 52 43 54 43 28 49 38 21 52 41 22 46 36 14
61 51 27 81 71 45 95 86 57 102 92 66 99 89 65 97 87 65 93 82 66
69 58 43 53 41 29 35 25 15 24 14 6 21 10 5 17 6 3 30 19 16 50 39 36
72 61 60 67 56 55 60 49 48 63 51 51 138 128 104 135 126 102
123 113 89 136 127 103 133 123 99 132 122 100 130 119 98 130 117 97
132 120 99 139 127 106 131 119 98 85 72 51 72 57 39 50 35 17 43 28 10
54 38 23 82 69 53 86 72 56 90 77 61 94 81 65 90 77 61 104 91 77
109 95 84 152 138 127 162 150 140 166 153 144 156 145 133 139 127 115
170 159 145 142 131 117 139 128 111 119 108 91 125 114 99 125 114 99
142 131 117 134 123 108 116 105 88 128 117 101 138 125 107
142 129 108 151 139 116 140 129 103 153 141 116 138 126 101
159 147 122 182 171 143 161 150 122 140 129 99 151 140 107
175 165 132 199 188 157 214 202 174 213 200 177 222 209 191
246 233 217 253 239 230 218 205 202 196 182 184 199 185 188
213 201 203 218 209 210 209 202 200 196 192 189 188 187 180
163 162 156 164 161 153 152 144 135 152 143 130 148 137 120
149 136 117 141 125 108 130 115 97 125 109 94 126 110 97 123 109 96
96 82 69 83 70 56 93 79 65 74 61 45 64 51 32 47 35 14 52 39 19
59 46 28 64 50 34 90 76 65 62 50 40 58 46 37 120 108 108 160 148 166
161 150 176 213 202 227 221 213 234 192 184 203 184 176 195
181 174 190 169 163 171 152 149 143 130 128 115 115 110 101 100 95 85
91 86 74 65 60 48 49 42 31 38 31 19 46 39 27 56 49 38 45 38 26
70 63 52 60 51 40 32 23 12 34 24 14 25 16 5 37 28 15 43 34 21
51 42 27 85 76 59 128 118 99 142 132 111 134 124 100 117 107 83
109 98 77 124 113 94 143 135 117 161 151 138 176 168 162 193 187 185
200 196 195 200 197 200 185 184 189 176 175 180 174 171 174
143 138 140 136 130 130 125 118 116 111 103 99 92 82 74 69 57 47
56 44 32 47 36 21 47 36 19 52 41 20 56 46 22 64 55 28 70 61 32
96 86 60 93 84 60 90 80 58 88 77 60 72 61 47 56 44 32 38 29 18
28 18 10 25 15 9 20 9 6 29 18 15 45 34 33 63 51 51 81 70 69 74 63 62
53 42 41 153 143 121 148 138 116 132 122 100 143 134 110 145 135 111
146 136 112 149 140 116 152 142 118 145 135 111 142 129 106
149 136 115 133 121 100 128 115 94 107 92 72 77 62 42 53 40 22
54 41 23 58 45 26 62 49 33 66 53 37 69 56 40 92 78 62 99 85 71
163 148 137 86 74 65 85 73 64 113 101 92 153 141 129 166 154 142
155 144 129 146 134 120 159 148 131 145 133 119 140 129 114
141 130 115 114 103 89 92 81 67 100 89 73 112 101 84 118 107 88
117 107 83 158 146 120 165 153 127 153 141 116 170 158 132
168 157 131 146 134 109 151 140 111 147 136 106 177 166 135
206 194 166 218 208 184 209 198 179 234 223 209 255 245 233
224 211 204 190 176 176 173 162 163 180 169 170 190 181 182
195 188 188 185 178 178 170 166 162 159 155 152 129 125 120
143 138 130 131 121 113 130 117 108 110 96 83 114 100 84 106 90 75
91 75 60 83 66 54 84 68 55 81 67 54 53 39 26 55 42 28 66 52 39
59 46 30 61 48 30 60 48 27 65 52 31 69 56 38 73 59 46 86 74 67
84 73 68 131 121 117 145 135 141 143 133 153 189 181 206 198 189 213
199 190 214 212 207 227 201 195 215 195 187 208 178 171 185
151 147 146 129 126 118 114 109 101 99 93 86 77 72 62 53 48 36
41 34 23 34 27 16 30 22 11 29 21 10 74 67 55 58 50 39 22 12 2
31 22 11 27 17 7 27 17 7 49 39 27 44 35 22 48 39 23 45 37 19 88 77 58
124 114 92 164 155 131 164 155 131 128 118 97 133 122 103 142 133 118
157 150 136 182 174 168 200 194 192 207 203 202 207 204 205
208 208 212 179 179 183 188 185 188 171 166 168 143 137 137
142 136 133 129 120 116 98 91 82 77 67 57 63 51 39 53 41 29 50 39 25
48 37 18 50 40 19 55 45 23 58 48 27 77 67 47 75 64 47 72 62 45
69 58 43 75 63 51 58 47 35 41 31 20 30 20 10 28 18 10 21 10 5
27 15 15 42 30 30 53 42 41 70 58 58 70 59 56 60 49 46 163 155 135
158 150 130 154 145 125 149 141 119 140 132 109 143 135 113
149 142 117 154 146 121 140 132 107 154 144 120 150 141 117
162 152 128 148 138 114 140 128 105 139 127 104 115 102 81 99 86 65
88 75 57 74 61 43 64 51 32 57 44 25 54 41 25 56 45 30 67 55 43
52 39 32 72 60 53 116 103 96 154 141 134 145 136 123 137 128 115
149 140 125 141 132 117 144 136 118 150 142 124 147 138 122
130 121 106 105 96 81 84 75 60 94 86 68 129 121 103 135 126 109
185 175 156 177 167 147 176 166 146 166 155 136 181 170 151
161 151 129 159 148 127 171 162 138 209 199 177 215 204 183
213 204 187 233 223 211 255 246 236 232 221 213 180 169 166
150 139 138 158 148 149 155 146 147 178 168 169 158 152 150
140 133 131 135 131 128 121 115 112 100 89 86 99 86 82 97 84 77
89 74 68 76 61 55 84 67 59 72 55 47 65 49 38 67 53 42 61 47 36
60 46 33 46 32 19 52 40 26 57 46 32 61 50 33 64 54 35 71 58 37
68 55 37 69 56 40 79 64 55 97 84 81 115 103 105 137 126 134
148 139 153 164 156 177 168 162 185 172 166 188 212 207 227
219 213 236 222 216 238 214 208 230 186 181 196 159 154 160
134 129 128 115 109 105 97 91 84 82 76 67 68 63 51 63 56 45 61 54 41
46 39 25 46 39 25 46 39 27 46 39 27 31 22 11 24 15 4 30 20 10 23 13 3
39 30 17 24 15 2 41 32 16 50 41 24 57 47 28 79 69 48 112 104 79
151 144 119 157 149 127 128 119 102 141 132 117 160 153 142
180 172 163 200 194 190 213 206 206 207 202 204 226 220 224
205 199 203 188 183 185 155 150 151 150 143 144 139 132 130
125 117 113 101 93 84 81 72 61 63 53 43 50 41 28 43 34 21 38 26 14
36 25 13 35 23 11 33 21 9 54 42 32 65 53 46 61 48 41 43 31 22
56 44 32 68 56 44 57 46 32 35 23 11 35 23 14 32 19 14 28 17 16
32 21 22 37 26 25 49 38 35 41 30 25 65 55 47 167 161 141 166 160 139
164 158 137 162 157 136 165 157 137 166 159 136 169 161 138
171 164 139 163 155 131 164 157 132 147 139 114 148 140 116
135 128 103 127 117 93 128 119 95 107 98 74 102 89 69 92 79 58
78 65 46 67 54 36 50 37 18 45 32 16 39 27 13 36 25 13 35 23 16
59 44 40 104 89 85 142 130 123 133 121 109 125 114 99 136 126 109
128 117 101 147 136 117 139 128 111 119 108 91 95 83 69 82 70 56
83 72 57 89 81 63 98 89 72 142 133 118 124 116 100 175 164 147
180 169 152 182 171 154 185 174 158 167 156 139 156 147 130
173 165 147 216 207 192 215 206 193 214 206 195 251 243 236
236 227 225 194 185 185 159 150 151 130 121 119 160 151 150
141 133 131 157 148 146 148 140 138 144 135 131 110 104 99 98 90 86
103 87 86 90 72 69 78 63 56 76 61 55 93 76 70 79 62 56 78 61 55
61 44 36 64 49 38 59 45 34 59 45 32 41 28 14 60 48 34 67 56 39
70 60 40 68 57 38 76 64 43 72 59 40 75 61 48 85 73 64 100 89 86
150 140 143 175 166 178 162 152 169 144 137 155 140 135 153
180 175 192 217 212 230 215 209 229 231 225 246 208 202 222
195 190 205 166 160 169 142 137 139 122 116 114 105 99 94 98 92 85
82 76 67 63 56 45 49 43 29 40 33 20 40 33 20 40 33 22 40 33 22
48 38 27 38 29 18 63 53 43 53 44 33 52 43 30 30 21 8 43 34 19
72 63 46 57 47 28 62 52 30 71 64 39 117 110 85 148 140 118
148 139 122 151 144 128 166 159 147 181 173 165 200 191 187
205 199 196 198 191 191 211 204 206 214 207 212 193 188 190
152 148 147 150 144 142 139 133 128 125 117 111 101 93 84 79 69 59
60 51 40 48 38 25 41 31 18 35 23 14 33 21 11 32 19 12 32 19 12
33 20 15 47 34 29 52 39 34 46 33 26 41 29 17 48 37 22 53 42 25
49 38 21 32 20 8 32 19 12 34 23 20 36 25 24 36 25 24 36 25 22
45 35 27 58 48 38 154 150 131 156 152 133 158 155 136 161 155 137
178 171 153 176 171 150 174 168 147 172 166 143 168 163 140
164 158 135 136 131 105 131 126 100 127 119 95 122 114 92 126 118 95
110 100 78 105 95 73 95 84 63 81 70 49 70 60 38 53 40 22 47 34 18
41 28 14 37 23 11 30 15 7 47 29 24 80 63 57 111 97 88 128 114 100
119 107 88 131 119 98 123 110 90 108 93 73 99 84 64 74 59 42 54 38 21
33 17 2 48 32 17 61 48 30 64 53 37 68 57 40 136 126 109 170 161 146
161 152 136 176 167 152 180 171 158 186 177 164 160 153 140
173 166 154 223 215 206 217 209 205 225 218 218 243 236 239
203 195 202 168 159 169 150 142 150 146 137 136 152 143 139
122 113 109 119 111 107 117 107 101 121 110 105 88 78 72 69 56 51
80 65 61 76 61 55 71 56 49 66 51 45 72 55 49 72 55 47 55 38 30
61 44 34 89 75 64 88 74 61 90 77 63 73 60 44 74 63 46 97 86 69
100 90 71 82 71 52 93 83 62 83 72 53 79 68 54 85 73 64 142 131 128
157 147 148 148 140 145 121 113 122 117 111 122 160 154 165
206 199 211 202 196 209 225 220 236 216 211 226 229 222 238
196 190 203 176 170 178 150 145 149 132 125 125 113 107 102 91 85 78
86 81 71 72 64 53 59 52 38 32 25 11 32 25 11 32 25 14 32 25 14
53 44 33 63 53 43 38 29 18 49 39 29 45 36 23 31 22 9 39 31 15
77 68 51 84 74 54 76 66 44 71 64 39 98 90 65 122 114 92 147 138 120
160 154 138 172 164 153 183 176 167 196 188 184 195 188 186
182 175 175 202 194 197 209 201 204 181 177 178 163 158 157
150 144 142 139 133 128 125 117 111 101 93 84 76 66 55 57 47 37
44 34 24 37 27 17 32 20 10 32 20 10 31 18 11 31 18 11 26 13 6
34 22 14 43 31 24 47 35 25 43 32 18 41 30 13 55 44 25 67 56 37
45 33 19 38 25 16 37 27 21 38 27 24 28 17 14 35 24 19 53 44 33
73 64 51 161 157 138 164 161 141 170 166 147 172 169 150 171 168 148
168 162 144 162 157 136 157 154 132 154 151 129 150 147 125
124 121 97 120 117 93 124 119 95 123 115 95 129 121 101 112 103 83
107 99 79 98 88 68 84 74 54 74 63 44 66 53 35 60 47 29 53 40 24
49 33 20 40 23 15 43 24 17 60 41 31 81 62 50 104 86 69 96 78 59
108 91 69 101 82 59 86 67 44 87 66 44 77 56 33 59 38 18 57 35 15
44 25 4 37 18 0 34 17 0 48 33 13 98 82 65 124 111 93 139 126 110
159 148 131 163 152 138 185 174 160 166 154 142 176 166 156
225 214 206 225 214 211 235 223 225 197 184 191 161 148 157
135 122 133 126 113 122 121 110 109 96 86 80 100 90 82 93 81 74
86 74 67 90 76 67 86 71 62 51 36 27 69 55 46 92 77 68 95 80 72
75 61 52 57 40 32 51 35 24 63 46 36 74 58 46 79 65 51 80 67 51
89 76 60 78 64 48 102 91 74 100 89 73 104 93 74 110 99 80 91 81 59
96 85 66 114 103 89 136 125 113 151 141 133 112 104 100 90 81 80
92 85 85 132 124 127 184 176 181 200 193 198 210 205 211 224 218 227
228 222 231 217 211 220 207 199 209 200 192 200 175 167 172
155 148 148 136 130 126 107 102 94 93 88 78 75 68 57 52 45 31 26 19 6
26 19 6 26 19 8 26 19 8 23 13 3 30 20 10 24 15 4 31 22 11 45 36 23
51 42 29 55 46 30 86 77 60 86 76 57 76 66 44 89 82 57 76 68 43
99 91 69 122 114 96 141 135 119 173 166 154 186 178 169 194 185 181
188 181 179 170 163 163 177 170 172 210 202 205 186 182 181
163 156 156 150 144 142 139 133 128 125 117 111 101 93 84 73 63 53
55 45 34 42 32 22 35 25 15 31 18 9 31 18 9 31 18 11 31 18 11 34 22 14
35 23 14 40 28 18 46 34 22 56 45 28 61 50 31 65 55 34 74 63 42
68 57 40 54 42 30 39 29 21 34 23 18 50 39 34 59 49 41 48 38 25
69 60 44 160 159 139 172 171 151 185 184 163 189 188 168 180 179 159
170 166 147 156 152 133 148 146 126 138 137 117 132 131 111
124 123 103 122 119 99 121 118 98 119 113 95 116 110 91 112 106 88
107 100 82 100 91 74 89 81 63 83 72 53 69 58 39 65 52 33 58 44 28
56 40 27 60 39 28 59 36 26 55 32 19 52 27 12 68 44 25 115 91 69
150 126 102 156 130 105 149 124 96 147 119 92 143 116 89 141 114 86
131 103 78 119 91 66 103 75 50 89 64 38 80 56 32 101 77 53 110 88 66
106 85 62 121 101 81 142 122 102 167 148 129 174 155 136 170 153 136
231 212 200 241 222 215 203 183 181 150 132 131 142 124 125 107 88 92
135 117 118 106 88 85 80 63 57 81 65 57 71 54 46 66 50 39 69 52 42
86 70 59 67 51 41 61 44 34 77 60 50 100 84 73 116 100 90 95 79 67
88 72 60 80 65 49 83 67 52 81 68 52 76 63 45 78 65 46 60 47 29
81 70 51 92 82 62 103 92 73 123 112 93 132 121 102 153 142 123
157 147 130 134 123 106 100 91 78 101 91 81 133 122 114 130 122 113
155 147 141 181 173 167 166 157 153 213 207 204 234 227 227
216 209 209 221 214 217 216 206 212 201 191 196 176 167 170
150 140 141 129 120 118 104 96 90 86 78 69 66 58 47 44 37 23 31 24 10
27 20 7 24 17 5 23 15 4 24 15 4 24 15 4 25 16 5 28 18 8 35 25 13
46 37 24 59 50 35 73 65 47 96 85 66 70 60 38 67 60 35 89 82 57
107 99 79 113 104 87 129 122 106 167 160 149 179 171 162 200 191 187
195 186 185 162 153 154 160 152 155 164 157 160 179 173 173
174 167 167 158 149 147 137 128 124 130 122 115 96 88 80 70 60 50
43 33 23 31 22 11 34 24 14 31 18 9 29 17 8 38 25 16 50 38 29 45 32 23
50 39 27 62 51 36 72 62 45 75 64 45 93 83 62 103 93 69 105 95 71
112 102 80 81 70 53 45 32 23 39 26 19 64 52 45 62 50 40 65 54 40
70 59 42 159 158 138 166 165 145 170 168 148 171 170 150 160 159 139
155 153 133 149 147 127 145 146 127 144 144 126 140 141 122
133 134 115 129 127 110 115 113 96 113 109 90 110 106 87 107 100 82
101 95 76 95 89 70 89 81 63 85 76 59 82 71 52 79 66 47 73 58 42
69 51 37 62 39 26 63 38 26 66 39 25 69 40 22 97 69 46 109 81 56
132 102 76 152 123 92 147 116 83 146 112 80 145 111 79 145 111 79
147 114 82 150 114 83 148 112 80 145 109 78 145 111 79 155 121 92
162 130 100 162 130 100 171 139 111 173 143 115 180 150 122
187 157 131 193 163 137 209 180 158 192 164 144 156 127 112
134 104 92 124 96 87 96 68 60 112 83 77 84 60 52 63 41 32 72 51 40
67 46 35 64 43 30 60 40 26 73 52 39 82 62 48 96 78 63 98 82 67
101 86 70 104 88 73 106 90 75 107 92 74 106 91 73 109 94 76 108 95 76
109 96 76 119 107 86 108 95 74 139 129 107 138 128 106 139 129 107
130 119 100 132 121 102 173 162 143 196 185 166 181 170 151
193 185 167 180 172 154 200 192 174 198 189 174 194 185 170
174 165 152 221 212 199 248 238 228 254 244 236 205 194 189
172 161 158 190 181 180 208 198 201 192 182 185 169 160 161
150 141 139 118 110 104 94 86 77 65 57 46 37 30 16 17 10 0 19 12 0
24 17 5 25 18 7 24 15 4 25 16 5 25 16 5 22 12 2 25 16 3 32 23 10
44 35 20 53 45 27 90 79 60 79 69 48 58 51 26 81 74 49 96 88 68
99 90 75 119 112 99 151 143 132 178 170 161 186 177 173 185 176 174
171 161 162 155 148 150 151 144 147 150 143 144 175 168 168
172 163 161 148 140 136 125 117 111 90 83 74 59 50 39 42 32 22
34 24 14 34 24 14 33 21 11 32 20 10 41 29 19 54 42 30 62 50 38
68 56 42 79 69 52 90 79 60 96 86 64 106 96 72 123 113 87 141 132 105
139 129 105 125 114 95 58 47 33 34 22 12 57 45 36 64 53 41 69 58 41
69 58 39 163 161 141 162 160 140 160 159 139 157 156 136 146 145 127
149 147 129 148 149 131 148 151 132 155 158 141 149 152 135
142 145 126 136 139 120 118 119 100 116 114 97 113 111 93 110 105 89
104 100 83 102 95 79 100 93 75 99 90 73 93 82 66 88 75 59 83 67 50
80 60 44 84 59 45 93 66 50 105 74 57 111 80 61 106 73 50 105 72 47
123 89 59 148 115 81 146 111 75 147 110 72 148 109 72 148 109 72
151 111 74 156 114 78 160 116 78 161 117 79 159 115 77 154 110 70
158 112 73 164 118 78 164 121 81 167 123 83 171 128 88 177 134 94
180 139 98 185 143 105 187 145 109 181 139 106 175 134 105 159 118 91
131 89 65 120 82 61 115 83 67 84 56 43 81 54 38 70 43 27 78 51 35
77 50 34 73 46 30 91 67 50 104 86 69 100 85 67 97 81 64 93 78 60
104 88 71 105 90 70 102 87 67 95 80 60 109 96 76 124 112 89
154 142 119 158 146 122 140 130 106 136 127 103 130 120 96
133 123 101 148 138 118 155 145 125 174 163 144 210 199 180
198 188 166 177 167 145 190 180 158 197 187 165 216 206 184
190 180 160 176 165 148 177 166 152 211 199 187 202 190 178
164 152 143 172 162 156 192 180 182 209 197 201 195 184 185
157 146 145 124 116 110 100 92 83 72 64 53 44 37 23 27 20 7 31 24 10
36 28 17 38 31 19 36 26 16 43 33 23 38 29 18 27 17 7 27 17 5 29 20 7
32 24 8 41 32 14 62 51 32 68 58 36 55 47 22 69 61 36 85 77 57
86 77 62 110 103 90 136 128 117 155 148 139 187 178 174 190 181 180
165 155 156 151 144 147 189 182 184 186 180 180 171 164 164
174 165 164 154 146 142 119 111 105 87 79 70 71 61 51 57 47 37
45 36 25 37 27 17 36 24 15 35 23 14 43 32 20 55 43 31 74 62 48
79 69 52 91 81 61 102 91 70 117 107 83 138 128 102 146 137 108
140 131 102 167 157 131 164 154 133 84 73 56 40 28 16 54 42 30
62 51 36 65 55 36 67 56 35 169 167 147 165 164 144 159 158 138
155 153 133 142 140 122 145 144 126 149 150 132 151 154 135
160 165 148 154 160 142 146 152 132 142 145 126 129 129 113
125 125 109 123 121 104 118 117 99 115 111 94 115 111 94 118 112 94
122 114 96 124 113 96 121 107 91 115 100 82 113 92 76 130 105 88
117 87 72 95 64 47 79 46 25 91 56 34 105 71 44 130 94 63 150 113 78
148 109 72 148 109 70 150 109 68 151 110 69 155 111 72 157 111 72
155 107 66 152 104 64 159 109 66 146 96 54 146 94 50 157 105 61
167 117 72 169 119 75 173 123 76 176 127 80 179 132 84 182 135 87
178 131 85 173 126 83 181 135 96 176 130 95 174 127 95 162 118 90
175 142 121 149 120 103 155 126 109 148 119 102 127 98 81 126 97 79
95 66 48 96 70 51 110 90 72 111 96 76 115 100 80 119 104 84 102 87 67
94 79 59 83 68 46 74 60 37 117 105 82 129 117 93 153 141 116
153 141 116 169 160 133 141 132 105 77 67 43 92 82 60 130 119 100
135 125 106 153 142 123 171 161 142 168 158 136 150 141 117
162 153 126 163 154 127 171 162 138 169 159 137 170 160 141
146 135 118 105 94 79 123 111 97 154 143 128 176 164 154 179 167 169
188 176 182 183 171 175 178 167 166 150 142 135 131 123 114
111 104 93 89 82 69 87 80 66 83 76 63 80 72 61 76 69 58 71 61 51
77 67 57 65 55 45 42 32 22 41 31 18 32 23 10 31 22 7 35 26 9 46 35 16
61 51 29 86 79 54 81 74 49 73 65 45 83 74 58 100 93 79 124 117 105
145 137 128 173 164 160 176 168 166 167 158 159 153 145 148
158 151 154 174 167 167 165 159 159 165 156 154 152 143 139
115 107 100 90 83 74 100 90 80 84 74 64 63 53 43 42 32 22 39 27 17
36 24 15 43 32 20 55 43 31 74 62 48 81 70 53 92 82 62 103 93 71
121 112 88 135 126 100 148 139 110 160 151 122 160 150 124
157 148 124 98 87 70 38 26 12 53 41 29 57 46 32 62 52 30 65 56 32
